/* XPM */
static char * Bricks_08_128x128_xpm[] = {
"64 64 1396 2",
"  	c #8E887E",
". 	c #8B857B",
"+ 	c #857F73",
"@ 	c #807A6E",
"# 	c #827B70",
"$ 	c #898277",
"% 	c #8B8579",
"& 	c #8B8479",
"* 	c #8C8479",
"= 	c #8C8478",
"- 	c #8E877B",
"; 	c #938C80",
"> 	c #8D8579",
", 	c #8D8578",
"' 	c #898072",
") 	c #887E71",
"! 	c #887F72",
"~ 	c #8A8174",
"{ 	c #867E73",
"] 	c #837C71",
"^ 	c #877F73",
"/ 	c #8A8275",
"( 	c #877F72",
"_ 	c #888174",
": 	c #8C8578",
"< 	c #898174",
"[ 	c #878073",
"} 	c #8A8274",
"| 	c #887E6F",
"1 	c #877D6E",
"2 	c #867D6E",
"3 	c #867D70",
"4 	c #837E74",
"5 	c #868176",
"6 	c #898276",
"7 	c #8F887B",
"8 	c #8B8377",
"9 	c #8F877A",
"0 	c #928A7D",
"a 	c #90887C",
"b 	c #92897B",
"c 	c #8F8677",
"d 	c #918778",
"e 	c #938A7A",
"f 	c #958B7C",
"g 	c #8B8478",
"h 	c #868177",
"i 	c #8B857A",
"j 	c #8F897E",
"k 	c #918C81",
"l 	c #8A857A",
"m 	c #8B867B",
"n 	c #8D887D",
"o 	c #8E897E",
"p 	c #8C877D",
"q 	c #878177",
"r 	c #867C6D",
"s 	c #847A6B",
"t 	c #857D70",
"u 	c #857D71",
"v 	c #847866",
"w 	c #877A67",
"x 	c #897C6A",
"y 	c #8B7D6A",
"z 	c #8A7D6A",
"A 	c #897C69",
"B 	c #8D806C",
"C 	c #8B7D69",
"D 	c #877865",
"E 	c #867764",
"F 	c #877965",
"G 	c #867864",
"H 	c #897D6C",
"I 	c #85755F",
"J 	c #82725C",
"K 	c #83725C",
"L 	c #83725D",
"M 	c #867660",
"N 	c #877861",
"O 	c #8C7B62",
"P 	c #857660",
"Q 	c #867761",
"R 	c #887861",
"S 	c #86765F",
"T 	c #83745E",
"U 	c #82735D",
"V 	c #83745F",
"W 	c #827B6E",
"X 	c #80796D",
"Y 	c #908069",
"Z 	c #8F7F66",
"` 	c #918068",
" .	c #918169",
"..	c #92826A",
"+.	c #928269",
"@.	c #93836A",
"#.	c #94846B",
"$.	c #95856C",
"%.	c #938673",
"&.	c #8C857B",
"*.	c #887F70",
"=.	c #898071",
"-.	c #857C6D",
";.	c #847B6C",
">.	c #857B6D",
",.	c #887F71",
"'.	c #877E70",
").	c #867C6E",
"!.	c #82796A",
"~.	c #83796A",
"{.	c #817768",
"].	c #7F7669",
"^.	c #7F7668",
"/.	c #837563",
"(.	c #867966",
"_.	c #8A7C69",
":.	c #897B67",
"<.	c #887A67",
"[.	c #8C7E6A",
"}.	c #8D7F6C",
"|.	c #8B7C68",
"1.	c #877864",
"2.	c #867865",
"3.	c #857866",
"4.	c #817667",
"5.	c #84735D",
"6.	c #81705A",
"7.	c #83725B",
"8.	c #82725B",
"9.	c #85755E",
"0.	c #86775F",
"a.	c #8C7C61",
"b.	c #85765F",
"c.	c #84755F",
"d.	c #867760",
"e.	c #84755E",
"f.	c #7E7669",
"g.	c #7E776B",
"h.	c #8F7E66",
"i.	c #8F7E65",
"j.	c #928168",
"k.	c #938269",
"l.	c #907F67",
"m.	c #94836A",
"n.	c #90826D",
"o.	c #867F74",
"p.	c #857B6C",
"q.	c #867D6D",
"r.	c #837A6B",
"s.	c #877E6F",
"t.	c #827869",
"u.	c #7D7567",
"v.	c #7B7366",
"w.	c #837663",
"x.	c #867965",
"y.	c #8B7E6A",
"z.	c #8E806C",
"A.	c #847562",
"B.	c #827563",
"C.	c #7E7465",
"D.	c #83735C",
"E.	c #84745D",
"F.	c #877760",
"G.	c #83745D",
"H.	c #817A6D",
"I.	c #817A6E",
"J.	c #907F66",
"K.	c #93826A",
"L.	c #918168",
"M.	c #928169",
"N.	c #8E806B",
"O.	c #83796B",
"P.	c #817869",
"Q.	c #807769",
"R.	c #7E7568",
"S.	c #787065",
"T.	c #766F65",
"U.	c #7D7262",
"V.	c #837765",
"W.	c #847867",
"X.	c #827665",
"Y.	c #877B69",
"Z.	c #8A7E6C",
"`.	c #897D6B",
" +	c #887B69",
".+	c #837664",
"++	c #7E705F",
"@+	c #7F7260",
"#+	c #7F7261",
"$+	c #796F61",
"%+	c #776F63",
"&+	c #7A6C5A",
"*+	c #7D6E5A",
"=+	c #7D6E5B",
"-+	c #7B6D5A",
";+	c #7F705C",
">+	c #80725E",
",+	c #81735F",
"'+	c #82745F",
")+	c #827460",
"!+	c #7F715D",
"~+	c #7F715E",
"{+	c #7C705E",
"]+	c #827C70",
"^+	c #877964",
"/+	c #8A7B65",
"(+	c #897B65",
"_+	c #887A65",
":+	c #8C7D67",
"<+	c #8C7E68",
"[+	c #8B7C66",
"}+	c #827768",
"|+	c #7A746B",
"1+	c #82796B",
"2+	c #82796C",
"3+	c #7E7567",
"4+	c #81786B",
"5+	c #80776A",
"6+	c #8D8476",
"7+	c #8E8577",
"8+	c #8E8679",
"9+	c #8F877B",
"0+	c #8E8578",
"a+	c #8C8375",
"b+	c #898176",
"c+	c #837D72",
"d+	c #857E73",
"e+	c #888175",
"f+	c #8A8276",
"g+	c #888074",
"h+	c #877E72",
"i+	c #81796D",
"j+	c #7D7569",
"k+	c #7E766A",
"l+	c #80786C",
"m+	c #847D72",
"n+	c #7F776C",
"o+	c #80796E",
"p+	c #7F786E",
"q+	c #847B6E",
"r+	c #867D6F",
"s+	c #8C8272",
"t+	c #877E71",
"u+	c #888073",
"v+	c #898175",
"w+	c #878074",
"x+	c #8C8374",
"y+	c #8B8477",
"z+	c #867F72",
"A+	c #867F73",
"B+	c #8A8377",
"C+	c #888278",
"D+	c #827D73",
"E+	c #8B8375",
"F+	c #8C8477",
"G+	c #8E8678",
"H+	c #90887A",
"I+	c #8D8577",
"J+	c #8B8275",
"K+	c #8D7F6A",
"L+	c #8E7F6A",
"M+	c #8F8371",
"N+	c #7C7162",
"O+	c #7C7161",
"P+	c #7A6F60",
"Q+	c #796E5F",
"R+	c #776C5D",
"S+	c #726759",
"T+	c #716758",
"U+	c #73685A",
"V+	c #756A5B",
"W+	c #74695B",
"X+	c #73695A",
"Y+	c #766B5C",
"Z+	c #7C7366",
"`+	c #867E72",
" @	c #81725E",
".@	c #837460",
"+@	c #847561",
"@@	c #847661",
"#@	c #857863",
"$@	c #837661",
"%@	c #847762",
"&@	c #837561",
"*@	c #857762",
"=@	c #897E6C",
"-@	c #8A8478",
";@	c #807564",
">@	c #817562",
",@	c #7C7160",
"'@	c #7A6F5E",
")@	c #7E7260",
"!@	c #7D7261",
"~@	c #7E7261",
"{@	c #7F7462",
"]@	c #90836F",
"^@	c #8F816C",
"/@	c #8E816C",
"(@	c #90836E",
"_@	c #91836F",
":@	c #918470",
"<@	c #8F826D",
"[@	c #8D806B",
"}@	c #8F816A",
"|@	c #8B7D68",
"1@	c #8C7D68",
"2@	c #8D7E69",
"3@	c #8C7F6C",
"4@	c #82796D",
"5@	c #7B7060",
"6@	c #796D5E",
"7@	c #716658",
"8@	c #74685A",
"9@	c #74695A",
"0@	c #786E60",
"a@	c #847560",
"b@	c #857661",
"c@	c #867862",
"d@	c #837560",
"e@	c #847660",
"f@	c #857E72",
"g@	c #7F7361",
"h@	c #7D7160",
"i@	c #7C715F",
"j@	c #7C715E",
"k@	c #7D7260",
"l@	c #7C705F",
"m@	c #7B6F5E",
"n@	c #7F7564",
"o@	c #877F71",
"p@	c #91846F",
"q@	c #92846F",
"r@	c #928570",
"s@	c #91836E",
"t@	c #8F8069",
"u@	c #91816A",
"v@	c #7B7061",
"w@	c #75695B",
"x@	c #7C6E5D",
"y@	c #796F60",
"z@	c #877863",
"A@	c #867762",
"B@	c #867863",
"C@	c #867963",
"D@	c #8D7C62",
"E@	c #8B7A61",
"F@	c #847D71",
"G@	c #807462",
"H@	c #807461",
"I@	c #7D715F",
"J@	c #786D5C",
"K@	c #7B705E",
"L@	c #7D7363",
"M@	c #857E70",
"N@	c #897B66",
"O@	c #8C7E69",
"P@	c #887C6A",
"Q@	c #7C7468",
"R@	c #786D5E",
"S@	c #786C5D",
"T@	c #786F61",
"U@	c #877963",
"V@	c #877A64",
"W@	c #887B65",
"X@	c #887A64",
"Y@	c #897B64",
"Z@	c #8C7B63",
"`@	c #7D776B",
" #	c #7E7361",
".#	c #776C5B",
"+#	c #797061",
"@#	c #7C766A",
"##	c #8C7F6B",
"$#	c #8F816D",
"%#	c #90826E",
"&#	c #80786B",
"*#	c #878075",
"=#	c #898378",
"-#	c #7B7368",
";#	c #736C61",
">#	c #777065",
",#	c #766E63",
"'#	c #81786C",
")#	c #7F776A",
"!#	c #8B847A",
"~#	c #867E71",
"{#	c #847C6E",
"]#	c #7B7468",
"^#	c #867E70",
"/#	c #888379",
"(#	c #80796C",
"_#	c #7F776B",
":#	c #797267",
"<#	c #7A746A",
"[#	c #777165",
"}#	c #7F786B",
"|#	c #7E776A",
"1#	c #7B7467",
"2#	c #7F7A6F",
"3#	c #847F75",
"4#	c #857E71",
"5#	c #8A8376",
"6#	c #8A7B66",
"7#	c #8A7C67",
"8#	c #8B7D67",
"9#	c #90826C",
"0#	c #8B7C67",
"a#	c #837869",
"b#	c #8B7F6E",
"c#	c #988871",
"d#	c #998871",
"e#	c #9A8870",
"f#	c #97866F",
"g#	c #9B8971",
"h#	c #9E8D75",
"i#	c #9A8B76",
"j#	c #9A8B74",
"k#	c #9E8F76",
"l#	c #988872",
"m#	c #978771",
"n#	c #958773",
"o#	c #8F887C",
"p#	c #8A8070",
"q#	c #8A7F6F",
"r#	c #8D8372",
"s#	c #8C8271",
"t#	c #8D8272",
"u#	c #8D8474",
"v#	c #8D8374",
"w#	c #887E6E",
"x#	c #8A806F",
"y#	c #877D6D",
"z#	c #877E6E",
"A#	c #837C70",
"B#	c #888277",
"C#	c #8E826E",
"D#	c #8E816D",
"E#	c #8E816E",
"F#	c #8B7E6B",
"G#	c #8B7F6B",
"H#	c #8C806D",
"I#	c #8E8371",
"J#	c #8E826F",
"K#	c #8D806D",
"L#	c #928673",
"M#	c #948A78",
"N#	c #85755D",
"O#	c #86765E",
"P#	c #8C7B61",
"Q#	c #86755E",
"R#	c #87775F",
"S#	c #84735C",
"T#	c #86755D",
"U#	c #87765E",
"V#	c #827461",
"W#	c #847C70",
"X#	c #958269",
"Y#	c #97846A",
"Z#	c #968369",
"`#	c #958268",
" $	c #948168",
".$	c #938067",
"+$	c #948269",
"@$	c #96856C",
"#$	c #94826A",
"$$	c #928067",
"%$	c #918067",
"&$	c #8B8274",
"*$	c #857B6A",
"=$	c #847966",
"-$	c #857967",
";$	c #887C69",
">$	c #867B68",
",$	c #867A68",
"'$	c #867A67",
")$	c #827765",
"!$	c #837866",
"~$	c #817664",
"{$	c #807768",
"]$	c #837E73",
"^$	c #857A6A",
"/$	c #887963",
"($	c #8A7D67",
"_$	c #897C66",
":$	c #8A7C66",
"<$	c #8B7E68",
"[$	c #8D7F69",
"}$	c #8F836F",
"|$	c #8A7B62",
"1$	c #887860",
"2$	c #897961",
"3$	c #897860",
"4$	c #85745C",
"5$	c #837B6E",
"6$	c #96846A",
"7$	c #98856A",
"8$	c #98856B",
"9$	c #978469",
"0$	c #948167",
"a$	c #938168",
"b$	c #95846B",
"c$	c #918066",
"d$	c #958568",
"e$	c #8E8571",
"f$	c #827968",
"g$	c #847967",
"h$	c #92866B",
"i$	c #877B68",
"j$	c #827865",
"k$	c #857A69",
"l$	c #8B7D66",
"m$	c #897A64",
"n$	c #8D7F68",
"o$	c #90846F",
"p$	c #887961",
"q$	c #877860",
"r$	c #8A7A62",
"s$	c #807361",
"t$	c #898173",
"u$	c #948268",
"v$	c #958369",
"w$	c #928066",
"x$	c #8F7D65",
"y$	c #9C8B69",
"z$	c #857D6C",
"A$	c #817766",
"B$	c #827664",
"C$	c #7F7463",
"D$	c #817665",
"E$	c #7A7264",
"F$	c #857F74",
"G$	c #847968",
"H$	c #8E8069",
"I$	c #8D816D",
"J$	c #797266",
"K$	c #797165",
"L$	c #7A7265",
"M$	c #776E60",
"N$	c #7E7364",
"O$	c #7F7465",
"P$	c #837767",
"Q$	c #857C6F",
"R$	c #8A8173",
"S$	c #887D6C",
"T$	c #897E6D",
"U$	c #887D6D",
"V$	c #877C6C",
"W$	c #867B6B",
"X$	c #857969",
"Y$	c #7B7265",
"Z$	c #797063",
"`$	c #837969",
" %	c #908A79",
".%	c #847D6F",
"+%	c #81796C",
"@%	c #787267",
"#%	c #756F64",
"$%	c #746E63",
"%%	c #767065",
"&%	c #807A6F",
"*%	c #857966",
"=%	c #857A68",
"-%	c #897D67",
";%	c #7D7568",
">%	c #8C867C",
",%	c #8E887D",
"'%	c #908A7F",
")%	c #8C867B",
"!%	c #8A8479",
"~%	c #857F75",
"{%	c #807A70",
"]%	c #817A6F",
"^%	c #817769",
"/%	c #897E6E",
"(%	c #877D6F",
"_%	c #8A7F70",
":%	c #827A6D",
"<%	c #7F796E",
"[%	c #8B8071",
"}%	c #8C8273",
"|%	c #938A7B",
"1%	c #908778",
"2%	c #918879",
"3%	c #8F8576",
"4%	c #93897A",
"5%	c #928878",
"6%	c #8D8679",
"7%	c #8D8678",
"8%	c #908879",
"9%	c #8D8373",
"0%	c #8E8474",
"a%	c #8E8575",
"b%	c #8E8574",
"c%	c #8C8373",
"d%	c #847E73",
"e%	c #7F7768",
"f%	c #7D7466",
"g%	c #7C7365",
"h%	c #867F75",
"i%	c #796D5D",
"j%	c #807260",
"k%	c #7C7060",
"l%	c #7E7262",
"m%	c #7A6F5F",
"n%	c #7C756A",
"o%	c #7D776C",
"p%	c #867B6A",
"q%	c #877B6A",
"r%	c #887C6B",
"s%	c #8C806F",
"t%	c #8F8472",
"u%	c #8A7F6D",
"v%	c #8C8170",
"w%	c #8E8270",
"x%	c #8D8270",
"y%	c #8B806F",
"z%	c #8B7C65",
"A%	c #8C7D66",
"B%	c #8B7B64",
"C%	c #8C7C65",
"D%	c #8E7F67",
"E%	c #8D7D65",
"F%	c #8E7F66",
"G%	c #8C7D65",
"H%	c #8B7B63",
"I%	c #8D7E67",
"J%	c #847E71",
"K%	c #7D7566",
"L%	c #7B7264",
"M%	c #797163",
"N%	c #7F7667",
"O%	c #807868",
"P%	c #7E7566",
"Q%	c #7D7465",
"R%	c #7C7364",
"S%	c #7B7163",
"T%	c #7E776C",
"U%	c #7A7163",
"V%	c #837562",
"W%	c #817361",
"X%	c #7C7061",
"Y%	c #7E7363",
"Z%	c #7E7362",
"`%	c #7D766B",
" &	c #8D8271",
".&	c #8B806E",
"+&	c #8C816F",
"@&	c #8A7D69",
"#&	c #8C7C64",
"$&	c #8D7E66",
"%&	c #928166",
"&&	c #938267",
"*&	c #8C7D64",
"=&	c #8A7B63",
"-&	c #8A8172",
";&	c #827B6D",
">&	c #7A7263",
",&	c #797062",
"'&	c #7B7364",
")&	c #7C7465",
"!&	c #7B7263",
"~&	c #7A7063",
"{&	c #807362",
"]&	c #7B6F60",
"^&	c #796E5E",
"/&	c #827B71",
"(&	c #8A7E6D",
"_&	c #8A7E6A",
":&	c #8E7E66",
"<&	c #8B7C64",
"[&	c #817A6C",
"}&	c #7B7365",
"|&	c #7A7164",
"1&	c #787268",
"2&	c #746C61",
"3&	c #746A5C",
"4&	c #756A5C",
"5&	c #847662",
"6&	c #786D5F",
"7&	c #776E5F",
"8&	c #7A7061",
"9&	c #7C7263",
"0&	c #7F7362",
"a&	c #776D5F",
"b&	c #756C5F",
"c&	c #7E786D",
"d&	c #807667",
"e&	c #837867",
"f&	c #837868",
"g&	c #847A6A",
"h&	c #857B6B",
"i&	c #857A6B",
"j&	c #847A6C",
"k&	c #807767",
"l&	c #877A65",
"m&	c #867964",
"n&	c #857862",
"o&	c #847764",
"p&	c #7A7469",
"q&	c #7A7365",
"r&	c #797164",
"s&	c #8C8476",
"t&	c #8D8375",
"u&	c #908676",
"v&	c #8D8475",
"w&	c #8E8576",
"x&	c #938A7D",
"y&	c #8B8172",
"z&	c #8C8171",
"A&	c #988C78",
"B&	c #978B78",
"C&	c #928776",
"D&	c #8F8575",
"E&	c #8F8372",
"F&	c #8B8273",
"G&	c #898073",
"H&	c #817C72",
"I&	c #8C8577",
"J&	c #91897B",
"K&	c #958E82",
"L&	c #918A7D",
"M&	c #91897C",
"N&	c #928B7D",
"O&	c #928A7C",
"P&	c #8E8779",
"Q&	c #928C81",
"R&	c #8D877B",
"S&	c #898275",
"T&	c #877C6A",
"U&	c #8F806A",
"V&	c #8E7F68",
"W&	c #8F7F68",
"X&	c #8F8068",
"Y&	c #8D7C65",
"Z&	c #8E7D66",
"`&	c #8E7D65",
" *	c #8E7C64",
".*	c #968469",
"+*	c #8E7D64",
"@*	c #897760",
"#*	c #897A62",
"$*	c #887A63",
"%*	c #8E7F69",
"&*	c #8E806A",
"**	c #90816B",
"=*	c #8F816B",
"-*	c #90836D",
";*	c #91836D",
">*	c #93856F",
",*	c #958670",
"'*	c #93846D",
")*	c #94856F",
"!*	c #948670",
"~*	c #938774",
"{*	c #847761",
"]*	c #827560",
"^*	c #81745F",
"/*	c #7F725E",
"(*	c #7E715D",
"_*	c #7D705C",
":*	c #827663",
"<*	c #8F7F67",
"[*	c #908068",
"}*	c #8C7B64",
"|*	c #8D7C64",
"1*	c #907E66",
"2*	c #8F7D64",
"3*	c #8E7B63",
"4*	c #948063",
"5*	c #8D7C63",
"6*	c #8B7961",
"7*	c #8A7961",
"8*	c #88775F",
"9*	c #877961",
"0*	c #837C6F",
"a*	c #8F806B",
"b*	c #93856E",
"c*	c #94856E",
"d*	c #94866F",
"e*	c #918570",
"f*	c #837660",
"g*	c #857861",
"h*	c #81745E",
"i*	c #84765F",
"j*	c #7F725D",
"k*	c #80735D",
"l*	c #7E715C",
"m*	c #7E705B",
"n*	c #817561",
"o*	c #8A8171",
"p*	c #908169",
"q*	c #8D7B62",
"r*	c #917F66",
"s*	c #877D70",
"t*	c #8C7A62",
"u*	c #8D7B63",
"v*	c #87765F",
"w*	c #887A62",
"x*	c #847D70",
"y*	c #827B6F",
"z*	c #968871",
"A*	c #968770",
"B*	c #928671",
"C*	c #847B6D",
"D*	c #82755F",
"E*	c #80725D",
"F*	c #7D705B",
"G*	c #837B6D",
"H*	c #8D7D66",
"I*	c #927F66",
"J*	c #938066",
"K*	c #8A7962",
"L*	c #8B7960",
"M*	c #92836C",
"N*	c #92846E",
"O*	c #978972",
"P*	c #908470",
"Q*	c #80735E",
"R*	c #857761",
"S*	c #81735E",
"T*	c #868076",
"U*	c #8A857B",
"V*	c #7A7266",
"W*	c #837A6C",
"X*	c #82786A",
"Y*	c #837D71",
"Z*	c #8E8271",
"`*	c #857C6E",
" =	c #827A6C",
".=	c #7A7366",
"+=	c #827C72",
"@=	c #837B6F",
"#=	c #8A8375",
"$=	c #8B8376",
"%=	c #898379",
"&=	c #88837A",
"*=	c #797366",
"==	c #837C6E",
"-=	c #7C7569",
";=	c #928A7E",
">=	c #8F8678",
",=	c #938672",
"'=	c #958772",
")=	c #948570",
"!=	c #958671",
"~=	c #978872",
"{=	c #8F8679",
"]=	c #94897A",
"^=	c #998E7E",
"/=	c #968C7C",
"(=	c #998F80",
"_=	c #8E867A",
":=	c #877F74",
"<=	c #8A8071",
"[=	c #8A8072",
"}=	c #897F71",
"|=	c #887E70",
"1=	c #908B81",
"2=	c #887D6A",
"3=	c #877C69",
"4=	c #897D6A",
"5=	c #8C816D",
"6=	c #8C806C",
"7=	c #867F71",
"8=	c #8F8A80",
"9=	c #8E877A",
"0=	c #8F8675",
"a=	c #938E84",
"b=	c #908370",
"c=	c #92836D",
"d=	c #92826C",
"e=	c #918069",
"f=	c #93816A",
"g=	c #928069",
"h=	c #918675",
"i=	c #938877",
"j=	c #847969",
"k=	c #887D6B",
"l=	c #847865",
"m=	c #83755F",
"n=	c #81796B",
"o=	c #817767",
"p=	c #7F7666",
"q=	c #7E7565",
"r=	c #817868",
"s=	c #827969",
"t=	c #8A806D",
"u=	c #8C8270",
"v=	c #8A806E",
"w=	c #928879",
"x=	c #908677",
"y=	c #8E8475",
"z=	c #888075",
"A=	c #94846E",
"B=	c #93826C",
"C=	c #938169",
"D=	c #8B8070",
"E=	c #908574",
"F=	c #918574",
"G=	c #888276",
"H=	c #877C6B",
"I=	c #827868",
"J=	c #7F7566",
"K=	c #807666",
"L=	c #898377",
"M=	c #8B8271",
"N=	c #8E8471",
"O=	c #908673",
"P=	c #8F897C",
"Q=	c #91887B",
"R=	c #897F70",
"S=	c #928470",
"T=	c #93836D",
"U=	c #93826B",
"V=	c #867B6D",
"W=	c #8C7F6E",
"X=	c #8D8070",
"Y=	c #8D8170",
"Z=	c #8F8473",
"`=	c #948878",
" -	c #7D766A",
".-	c #827662",
"+-	c #82755E",
"@-	c #7E7668",
"#-	c #867C6B",
"$-	c #847F74",
"%-	c #8B8270",
"&-	c #8D8370",
"*-	c #92897A",
"=-	c #968874",
"--	c #968873",
";-	c #948571",
">-	c #93846E",
",-	c #8D7F6B",
"'-	c #837B71",
")-	c #857C70",
"!-	c #827C71",
"~-	c #777166",
"{-	c #817C71",
"]-	c #847C6F",
"^-	c #867B69",
"/-	c #837763",
"(-	c #867A66",
"_-	c #877B67",
":-	c #817B70",
"<-	c #847E72",
"[-	c #868075",
"}-	c #8E8A80",
"|-	c #8B877D",
"1-	c #8A847A",
"2-	c #908472",
"3-	c #8D816F",
"4-	c #8B7F6C",
"5-	c #887A66",
"6-	c #877966",
"7-	c #888176",
"8-	c #908473",
"9-	c #918471",
"0-	c #908371",
"a-	c #928573",
"b-	c #948775",
"c-	c #968A78",
"d-	c #908573",
"e-	c #8F8370",
"f-	c #888072",
"g-	c #7F7769",
"h-	c #80786A",
"i-	c #8B8476",
"j-	c #8C8474",
"k-	c #8B8374",
"l-	c #898171",
"m-	c #8B8272",
"n-	c #8D8576",
"o-	c #8C8475",
"p-	c #8F8777",
"q-	c #918979",
"r-	c #928D82",
"s-	c #938C7E",
"t-	c #938876",
"u-	c #918573",
"v-	c #887964",
"w-	c #847B6F",
"x-	c #8C7C67",
"y-	c #8C7C66",
"z-	c #8B7B65",
"A-	c #8D7D67",
"B-	c #897A65",
"C-	c #7E7667",
"D-	c #847C6C",
"E-	c #827866",
"F-	c #837967",
"G-	c #847A68",
"H-	c #857B69",
"I-	c #847B69",
"J-	c #837968",
"K-	c #827867",
"L-	c #867C6A",
"M-	c #887E6B",
"N-	c #847460",
"O-	c #827A6E",
"P-	c #8B7B66",
"Q-	c #7C7467",
"R-	c #787062",
"S-	c #7C7466",
"T-	c #837B6B",
"U-	c #847A67",
"V-	c #847A69",
"W-	c #857C69",
"X-	c #82735E",
"Y-	c #8A7A65",
"Z-	c #8D7E68",
"`-	c #877D6A",
" ;	c #857C6A",
".;	c #877E6B",
"+;	c #867D6A",
"@;	c #878174",
"#;	c #877C68",
"$;	c #817461",
"%;	c #857864",
"&;	c #847663",
"*;	c #857763",
"=;	c #7E715F",
"-;	c #766958",
";;	c #766A5B",
">;	c #7D705E",
",;	c #7C6F5E",
"';	c #7D705F",
");	c #7A6E5C",
"!;	c #787063",
"~;	c #756E61",
"{;	c #726B5F",
"];	c #746D61",
"^;	c #7B756B",
"/;	c #7C7568",
"(;	c #837A69",
"_;	c #837A6A",
":;	c #817969",
"<;	c #81786A",
"[;	c #807360",
"};	c #90887B",
"|;	c #8E8579",
"1;	c #8C857A",
"2;	c #918B7F",
"3;	c #8F8779",
"4;	c #90897A",
"5;	c #817B71",
"6;	c #878277",
"7;	c #958F84",
"8;	c #90897D",
"9;	c #90897C",
"0;	c #938C7F",
"a;	c #928B7E",
"b;	c #928C7F",
"c;	c #918A7E",
"d;	c #928B7F",
"e;	c #918B7E",
"f;	c #948E83",
"g;	c #8E897F",
"h;	c #9E988D",
"i;	c #979185",
"j;	c #887B68",
"k;	c #81796E",
"l;	c #827A6F",
"m;	c #837B70",
"n;	c #847C71",
"o;	c #7E7466",
"p;	c #837762",
"q;	c #877B66",
"r;	c #8A7D68",
"s;	c #8C8069",
"t;	c #857964",
"u;	c #827561",
"v;	c #817460",
"w;	c #837662",
"x;	c #878276",
"y;	c #8F8270",
"z;	c #8D816E",
"A;	c #908471",
"B;	c #948876",
"C;	c #978C79",
"D;	c #968F84",
"E;	c #908878",
"F;	c #887B67",
"G;	c #787064",
"H;	c #766D60",
"I;	c #776D60",
"J;	c #766D5F",
"K;	c #7A7062",
"L;	c #756B5E",
"M;	c #7D7365",
"N;	c #7B7367",
"O;	c #7C7262",
"P;	c #807460",
"Q;	c #877B65",
"R;	c #867A64",
"S;	c #887C66",
"T;	c #8A7E68",
"U;	c #80735F",
"V;	c #8E816F",
"W;	c #918572",
"X;	c #968A77",
"Y;	c #958976",
"Z;	c #8D8472",
"`;	c #897F6C",
" >	c #827564",
".>	c #837665",
"+>	c #766C5F",
"@>	c #796F62",
"#>	c #786E61",
"$>	c #827661",
"%>	c #847863",
"&>	c #847763",
"*>	c #7E715E",
"=>	c #7D705D",
"->	c #7F735F",
";>	c #807665",
">>	c #827D72",
",>	c #948875",
"'>	c #958A77",
")>	c #8F887A",
"!>	c #8C8371",
"~>	c #817564",
"{>	c #817563",
"]>	c #7F7567",
"^>	c #736B60",
"/>	c #7C7264",
"(>	c #7A7367",
"_>	c #7D715D",
":>	c #7D715E",
"<>	c #7E725F",
"[>	c #847F73",
"}>	c #8C806E",
"|>	c #8B7F6D",
"1>	c #8D806E",
"2>	c #8F826F",
"3>	c #938875",
"4>	c #8B806D",
"5>	c #847D73",
"6>	c #797369",
"7>	c #746D62",
"8>	c #878176",
"9>	c #797367",
"0>	c #7F786C",
"a>	c #858075",
"b>	c #7F7A70",
"c>	c #7E786E",
"d>	c #8D867A",
"e>	c #7B7469",
"f>	c #8B7E6C",
"g>	c #8B7D6C",
"h>	c #897B6A",
"i>	c #8E8372",
"j>	c #83796C",
"k>	c #847765",
"l>	c #877A68",
"m>	c #8F8471",
"n>	c #8E8473",
"o>	c #897F6F",
"p>	c #8A8170",
"q>	c #89806F",
"r>	c #897F6E",
"s>	c #857C6B",
"t>	c #857C6C",
"u>	c #8A7F6C",
"v>	c #8C816E",
"w>	c #978B75",
"x>	c #968C7A",
"y>	c #948D7E",
"z>	c #867763",
"A>	c #8A7C68",
"B>	c #857662",
"C>	c #837461",
"D>	c #807464",
"E>	c #7E705C",
"F>	c #82735F",
"G>	c #857A67",
"H>	c #837966",
"I>	c #877D69",
"J>	c #837865",
"K>	c #807563",
"L>	c #807869",
"M>	c #867A65",
"N>	c #8C7F69",
"O>	c #8E816A",
"P>	c #8B806C",
"Q>	c #827360",
"R>	c #857663",
"S>	c #7D7161",
"T>	c #7E6F5B",
"U>	c #7F715C",
"V>	c #80715D",
"W>	c #847864",
"X>	c #817764",
"Y>	c #857B68",
"Z>	c #7E7464",
"`>	c #897B63",
" ,	c #8E8169",
".,	c #887D69",
"+,	c #8B7E69",
"@,	c #8A7B67",
"#,	c #867A69",
"$,	c #7F705B",
"%,	c #80715C",
"&,	c #807664",
"*,	c #817663",
"=,	c #887B66",
"-,	c #857D6F",
";,	c #857867",
">,	c #847766",
",,	c #817463",
"',	c #897B69",
"),	c #878175",
"!,	c #756E62",
"~,	c #7A7267",
"{,	c #7A7368",
"],	c #7E796F",
"^,	c #817867",
"/,	c #7B7262",
"(,	c #7D7669",
"_,	c #807463",
":,	c #827767",
"<,	c #827766",
"[,	c #8A7F6E",
"},	c #877B6B",
"|,	c #887C6C",
"1,	c #887D6E",
"2,	c #7F786D",
"3,	c #8F8574",
"4,	c #908776",
"5,	c #918878",
"6,	c #8C8376",
"7,	c #7B6E5D",
"8,	c #796D5C",
"9,	c #7F7363",
"0,	c #7F705D",
"a,	c #817360",
"b,	c #7F705E",
"c,	c #7C6E5B",
"d,	c #92836B",
"e,	c #908067",
"f,	c #8F7F65",
"g,	c #8A7C65",
"h,	c #8D7F67",
"i,	c #8E8068",
"j,	c #8A7A63",
"k,	c #887962",
"l,	c #8A7B64",
"m,	c #796D5B",
"n,	c #7B6F5D",
"o,	c #84745E",
"p,	c #7C6F5C",
"q,	c #786C5A",
"r,	c #7A6D5B",
"s,	c #7A6D5C",
"t,	c #80725F",
"u,	c #80705D",
"v,	c #7D6E5C",
"w,	c #918167",
"x,	c #907F65",
"y,	c #908066",
"z,	c #8C7C63",
"A,	c #918268",
"B,	c #8D7D64",
"C,	c #8A7C64",
"D,	c #8C7E66",
"E,	c #897962",
"F,	c #897A63",
"G,	c #7F7360",
"H,	c #7E7360",
"I,	c #7A6F5D",
"J,	c #786C5B",
"K,	c #7D6F5C",
"L,	c #81705B",
"M,	c #786F63",
"N,	c #7C6E5C",
"O,	c #7D6F5D",
"P,	c #81725F",
"Q,	c #8B7B62",
"R,	c #938369",
"S,	c #8F7E64",
"T,	c #877A66",
"U,	c #8F8169",
"V,	c #877660",
"W,	c #796E5C",
"X,	c #7F725F",
"Y,	c #766B5B",
"Z,	c #756A5A",
"`,	c #736758",
" '	c #756D62",
".'	c #73695C",
"+'	c #776A5A",
"@'	c #796C5B",
"#'	c #776B5B",
"$'	c #7A6D5D",
"%'	c #837764",
"&'	c #7C6F5D",
"*'	c #7D7464",
"='	c #827562",
"-'	c #766F62",
";'	c #786E5E",
">'	c #786D5D",
",'	c #766C5C",
"''	c #908779",
")'	c #8C867A",
"!'	c #837D73",
"~'	c #888173",
"{'	c #898479",
"]'	c #817B6F",
"^'	c #817B72",
"/'	c #83735D",
"('	c #817666",
"_'	c #7F7464",
":'	c #8F897D",
"<'	c #7D6F5B",
"['	c #7E725E",
"}'	c #867861",
"|'	c #857865",
"1'	c #847664",
"2'	c #7C7363",
"3'	c #7A6D5A",
"4'	c #7C6F5B",
"5'	c #7D7366",
"6'	c #817462",
"7'	c #7B6F5F",
"8'	c #7F7565",
"9'	c #7B6F5C",
"0'	c #7B7161",
"a'	c #786F62",
"b'	c #7D766C",
"c'	c #80776B",
"d'	c #7E7569",
"e'	c #756D61",
"f'	c #7D7467",
"g'	c #827C6F",
"h'	c #756E63",
"i'	c #766F64",
"j'	c #7F796F",
"k'	c #807B70",
"l'	c #807B71",
"m'	c #8F826E",
"n'	c #8D867B",
"o'	c #867A6B",
"p'	c #837B6C",
"q'	c #877D6C",
"r'	c #8D887E",
"s'	c #7D7364",
"t'	c #7B6E5F",
"u'	c #806F58",
"v'	c #817059",
"w'	c #84755D",
"x'	c #87775D",
"y'	c #857D6E",
"z'	c #807562",
"A'	c #7B6E5C",
"B'	c #897964",
"C'	c #7F6E58",
"D'	c #817058",
"E'	c #83735B",
"F'	c #82735C",
"G'	c #786F60",
"H'	c #7A7162",
"I'	c #7E786C",
"J'	c #897A66",
"K'	c #7B7162",
"L'	c #7A6E5E",
"M'	c #786A58",
"N'	c #7D6C56",
"O'	c #7D6D57",
"P'	c #81715A",
"Q'	c #80725C",
"R'	c #756D60",
"S'	c #7B7569",
"T'	c #766E62",
"U'	c #7C776C",
"V'	c #787165",
"W'	c #766F63",
"X'	c #71695D",
"Y'	c #777064",
"Z'	c #7C7469",
"`'	c #766D62",
" )	c #776D5E",
".)	c #776C5E",
"+)	c #6D655A",
"@)	c #736B5F",
"#)	c #857968",
"$)	c #7C766C",
"%)	c #70695F",
"&)	c #736D63",
"*)	c #777167",
"=)	c #787368",
"-)	c #787164",
";)	c #7D776D",
">)	c #767066",
",)	c #797368",
"')	c #777267",
"))	c #8A8579",
"  . + @ # $ % & * = - ; > , ' ) ! ~ { ] ^ / ( ( _ : < [ [ } | 1 2 3 4 5 6 : 7 : 8 9 0 a , b c d e f g h . i j k . l m n o p m q ",
"r s t u v w x y z A y B C D E F G D H 3 I J K L M N O P Q R S T U V W X Y Z `  ... ...+.@...@.@.#.$.%.&.| 1 *.=.-.;.>.*.,.'.).!.",
"~.{.].^./.(.A _.:.<.[.}.|.1.E D 2.D 3.4.5.6.7.8.9.0.a.b.c.d.e.T U U f.g.h.i.` j.k.l.+.@.k.k.@.m.@.m.n.o.| p.r q.p.r.s | s.2 r.{.",
"!.t.u.v.w.x.z y._.y.z.z.[.:.A.E F :.B.C.K 6.7.D.E.9.F.b.e.d.S G.U U H.I.h.J.j.K.@.L.+.K.j.M.M.M.@.m.N.# r s 1 p.p.t.!.-.-.p.O.P.",
"Q.R.S.T.U.V.W.X.Y.Z.`.x  +.+++@+#+#+$+%+&+*+=+-+;+>+,+'+>+)+>+!+~+{+]+I.^+/+(+_+:+<+:+/+/+/+[+/+<+<+}+|+].1+2+v.].3+R.4+5+1+5+^.",
"6+7+8+9+0+a+b+c+d+e+f+g+h+i+j+k+l+i+m+$ n+i+o+p+q+r+s+,.,.' '.'.t+u+v+w+' x+e+4 6 y+w+z+z+A+z+[ e+B+% j g B+C+D+f+a+E+F+G+H+I+J+",
"N.N.K+z.N.L+M+w+N+O+P+Q+R+S+T+U+V+W+X+Y+V+Y+Z+`+ @.@R +@@@#@$@$@%@$@&@$@@@*@=@-@;@>@,@'@{+)@,@,@,@!@,@,@~@{@~.-@]@^@/@(@_@:@<@[@",
"}@<+|@1@K+2@3@4@5@O+Q+6@Y+7@S+W+6@Y+8@9@W+Y+0@1+a@*@b@@@@@c@@@d@*@%@d@d@e@@@(.f@{@g@h@h@i@j@i@k@l@l@i@m@i@k@n@o@p@q@p@r@p@r@s@N.",
"@.t@1@u@2@2@B 2+O+v@Q+Q+R+9@8@V+6@Y+V+w@V+x@y@O.z@z@A@b@e@B@B@B@B@C@*@@@D@E@(.F@G@H@h@H@)@h@'@h@k@I@l@J@K@i@L@M@n.(@<@_@p@r@p@^@",
"N@N@[.[.O@2@P@Q@P+5@R@R+Y+8@8@w@S@R@R+Y+Y+Q+T@O.^+U@c@*@*@z@V@W@X@^+_+^+Y@Z@V.`@ #~@i@k@)@H@i@i@h@l@m@.#J@K@+#@###$#/@p@%#r@q@K+",
"r.&#q+q+r+t *#=#o+l+n+k+-#;#>#,#l+l+'#)#k+l+*#!#~#' 3 {#q+2+]#g.t t u+^#~#( =#/#o+(#_#X l+:#<#[#}#k+|#Q@1#]#2#3#] 4#t z+[ 5#/ M@",
"6#/+|@7#8#O@9#$#O@0#0#0#|.a#`+b#c#d#c#e#f#g#h#i#j#k#j#l#m#n#o#/ p#q#r#s#s#t#u#v#w#x#y#w#z#A#B#^#C#D#E#F#G#z H#I#J#J#C#K#J#L#M#N.",
"N#O#P#Q#E.O#R#S#T#U#T#U#U#V#W#|.X#Y#Z#Z#`#Z# $.$+$@$@$#$$$%$&$*$=$-$;$>$;$,$'$'$V.)$X.!$~${$]$^$8#[+/+X@/$U@_+7#($_$(+:$<$[$}$|$",
"O#O#R#1$2$3$R#4$U#U#T#T#U#V#5$2@+$6$7$8$9$ $0$a$a$k.b$k.c$d$e$f$g$=$h$i$,$v V.'$V.)$!$)$j${$]$k$8#:+8#l$m$X@l$n$:$|@:$8#<+<+o$p$",
"q$2$2$|$r$2$R#N#O#T#4$S#T#s$t$|.u$X#v$v$.$w$0$$$J.x$M.` c$y$z$A$!$!$,$g$V.B$V.=$~$~$~$C$D$E$F$G$:+n$<+8#(+(+l$H$($<$:$:$8#<+I$0.",
"J$g.k+j+K$K$L$K$Q@M$N$O$P$Q$( R$S$T$U$V$W$G$X$^$Y$Z$a#^$`$;. %c+H.H..%W +%&#5$|#@%#%$%$%%%&%[ f.,$;$i$i$*%*%i$;$=$=%=$-%'$g$;%J$",
">%l n ,%'%)%!%~%{%]%].^%W$/%(%_%>.1 ).p.r.Q.O.:%X <%' [%[%}%|%1%2%3%|%4%5%4%4%1%F$c+o#6%F+F+7%8%9%0%u#a%b%c%b%G+q 3#d%d%c+d%3#4 ",
"e%P.!.t.{$f%g%3+h%Y$Y+i%j%j%@+@+k%l%U.5@v@m%P+R@n%o%p%q%q%r%s%s%t%u%v%s%M+w%x%y%v+u%z%z%A%B%C%D%E%F%G%D%D%H%G%I%6%J%K%L%E$M%L%f%",
"N%O%{$P%Q%R%L%S%T%U%R+i%V#V%W%l@X%Y%Z%g@O+m%Q+R@`%T%Y.r%r%r%s%y% &b#v%s%s%.&+&y%^ @&#&$&G%#&%&&&E%*&G%$&G%r$=&G%-&;&f%>&,&U%'&)&",
"{${$N%N%Q%g%R%!&`%~&R+6@A@z@{&]&k%C$Y%U.U.m%^&R@o+/&q%r%`.H v%y%v%b#y%b#(&+&y%y%z+_&G%:&:&#&E%:&:&E%F%$&E%G%<&B%'.[&K%E$L%>&Q%f%",
"v.E$}&L$L$L%|&%+1&2&3&4&5&V%l%6&3&7&8&9&0&h@a&b&c&o+d&e&f&g&| r N%N%p.h&i&T$y#j&c&k&l&X@_$U@X@(+m&$@N@N@W@W@n&o&<%p&q&r&M%r&r&L$",
"B#~%s&t&u&v&w&w&x&c y&z&A&B&C&t&m+[ a+u&D&E&0%F&G&( ,.| | v#v&< {%H&6 I&G+, 9 J&K&L&M&M&N&H+O&N&!%3#% 7 P&y+< y+Q&R&y+_ < [ v+S&",
"T&, U&V&D%W&X&Y&Z&Z&`& *0$.*v$` ~ ^ :&+*E@@*Z@R#F.F.S S S N #*$*^#5$N.%*&***9#9#=*-*;*>*,*'*)*!*~*e+%@C@{*]*^*/*d@]*^*(*/*,+(*_*",
":*y&W&<*W&[*<*}*|*x$1*2*3*.$$$1*,.Q$4*5*6*7*7*8*R#R#S 9.S q$p$9*0*@ a*%*U&&*U&%*L+;*b*)*b*c*d*d*e*{#f*g*f*h*'+(*i*i*^*j*k*d@l*m*",
"n*o*p*X&[*[*Z&#&|*x$2*2*q*$$r*1*s*3 t*u*t*E@3$3$v*1$R#N#S F.#*w*x*y*&*U&**=***9#;*;*>*,*z*z*A*A*B*C*f*d@^*'+f*h*e@f*d@'+D*D*E*F*",
"{@G*t@X&t@H*:&#&|*|* * *u*I*J*h.~#W#K*+*5*7*L*2$v*F.S S S 9*p$$*f@]+K+=*M*9#;*;*N*N*>*z*z*O*O*z*P*+%Q*Q*^*^*R*e@'+D*^*h*D*'+S*m*",
"T*U*f@o@{#V*)#W*>.j&j&p.O.g%X*~#] Y*~#R$h&Z*d&`*W* =W*2++%.=|#F@4 +=+ u+~#g.@=< < / F+, #=y*z+$=%=&=X [&;&*=|#G*.%5$==.%:%-=]#)#",
"M&;=G+>=H+U*c ,='=)=!=~=n#, {=]=^=/=f (=_=- :=v#<=[=}=|=E+. 5#a%c w&u#b%1%1=' 2=3=4=5=6=t%k -@o@( 7={#^##=8=9=u#a%0=0=0%c a=j 0+",
"v&w&}%y& &e+b=c=d=e=M.f=g=[%z&w%Z*E&h=i=t&B#q+=@^$W$g&j=s F@z#T$T$k=Z.=@.&9=l=m=^*h*g*c@c@5#n=o=p=Q%q=r=s=!%o*k=t=u=t%t=v=o#, x+",
"w=x=y=v#[%z=_@A=B=e=C=K.g=q#D=E=Z*Z*F=C&6+G=C*H=^$^$g&I=g&I.h&u%=@=@u%u%+&5#>@'+h*E*f*R*{*u+Q.J=p=K=p=s=s=L=M==@u=N=O=I#t%P=Q=c ",
"w=d D&s+R=d+S=c*T=u@U=K.e=p.V=W=X=Y=Z=`=' -@&#^$j=j=h&o={. -N%=@k==@u%.&y%F$.-+-'+S*m=e@R*~#@-r=k&J=k&s=#-$-%-k=u%&-t%&-u=B#F+*-",
"g y+v+`+m+&.=---;-c=)*>-,-l+'-)-Q$t u+f+!## !-I.l+i+i+j+~-{-{%x*W ]-~#z+A+p ^-/-l=l=(-(-_--@h c+] :-]+<-[-}-5 y*[ #=y+w+!-|-1-$ ",
"L#2-M+3-3-4-y.y.O@N@5-6-5+7-8-9-0-b=a-b-c-i=d-M+3-M+e-Z*7-~%f@4#]-]-f-z+u+( 1+].g-h-1+n=A+i-j-k-F&-&l-m-n-8%o-=.j-p-q-O&r-s-t-u-",
"(+U@U@*@A@c@m$v-m$P a@b@5$w-x-y-z-A%A-%*%*[$1@0#6#0#B-[+,.Q@}&g%E$M%Y$g%f%C-g%g%g%g%u.Z+Y*D-E-F-G-G$>$F-H-I-J-K-J-L-L-M-9=5=:$_+",
"U@A@U@B@z@v-m$X@/$a@N-@@:%O-A-y-z-P-[+:+%*%*<+0#:$I%N@7#|=Q-L%g%R%R-}&}&u.K%f%g%}&f%3+S-# T-A$G-G-H-U-G-V-G-H-G-L-W-H-V-y+4=_+*@",
"c@b@z@U@z@v-/+v-/$b@X-b@T$W#x-:+z-y-P-Y-Z-Z-<+<+8#1@:$|@-.S-}&f%f%E$f%3+u.f%S-E$Y$}&f%S-:-r.A$G-L-`-H-G-H-I-H-V- ;.;+;G-@;#;W@&@",
"$;$;w.%;%;V%o&&;*;=;-;;;5$^ ^&>;,;,;';);I@~@~@~@0&l@l@C$`@~-L$v..=L$u.^.u.L$r&%+!;~;{;];^;/;p=f$(;s=s=r=I=f$r=r=s=_;:;C-c+<;l=[;",
"6%, 8+7 9 8+};|;_=m+4#z+S&< w+m+# o.1;G=m+[-i [-=#A+G=:-2;6%F+I&, G+3;4;3;$=} t$< 5;6;~%7;8;9;0;a;b;b;c;c;d;L&e;; f;g;1=h;i;0;y+",
"-$-$,$Y.,$-$,$j;-$O.< k;k;l;m;k;I.F@{ u l;n;{ z=e+F$<-o;n*p;m&l&q;l&r;s;-%t;u;v;w;I=x;,.w%E#e-y;z;J#w%e-3-A;A;L#B;C;D;E;N=v==@W.",
"v v ,$-$-$V.V.F;3.~.A+G;H;b&I;J;M$,&K;K;L;T@U%M;o;N;F$O;P;u;#@t;Q;R;S;T;l&$@U;Q*e@-$$-(%z;3@z;J#E#V;e-z;H#e-W;L#X;Y;9;Z;`;T&>$X.",
"B$v ,$v v  >.>-$.>t.] %+I;+>I;a&I;@>N+#>b&M$S%M;M;V*F$O;v;$>%>#@#@&>m&l&%@U;*>=>->;>>>(%J#4-H#z;E#V;J#z;V;W;W;P*,>'>)>!>=@=%-$~>",
"{& >-$v *%G@{>*%.>]>w+^>L;+>#>I;M$,&#>I;M$@>/>g%M;(>=#R%%@w;#@p;.-%>%;%;$>(*_>:><>R%[>C*}>|>3-3-1>H#2>J#J#W;A;J#L#3>, 2 4>^-~$~@",
";%r.:%5$:%].5+)#+%5>A#6>1&7>j+f.].k+j+Q@Q@k+i+X I.8>F${%9>y*4#4#z+z+_ ( W }#_#}#0>4 a>b>c> -A+_ z+`+^ ^ _ _ _ _ S&d>a=T*e>g.)#;%",
"x f>3-y;w%g>f>h>f>8-i>q+`+j>f>A  +A  +3.k>l> +F#H#m>n>H+m o*o>p>q>q>O=Z;r>s>t>~.t>s.k-F@=#i+T$u%u>=@=@=@u>u>4>.&v>w>x>y>,%v%|> +",
"+@z>:.C A>z>B>C>z>F 5-P$n-D>R*b@d.a@d@E>;+X-F>@@n&V@#@G>[ H>=$U-H>G>>$I>J>K>K>{@K>K>)$L>5 Q%&>/-t;%>%>$>w;&>&>M>l&N>O>P>#=r;5-Q>",
"A.G 6#|@|@z>A.+@R>F N@e&i+S>@@R*b@Q R*;+T>U>V>>+$@#@{*W>0*)$U-U-X>U-Y>I>H>X>K>~$)$X>)$P.a>Z>/-p;t;&>%;v;`>#@%>l&r;N> ,.,-&+,:.&@",
"+@N@5-l.N@E R>A.*;F @,#,w+v@@@b@b@@@*@ @$,;+%,E>>+$@^*Z%g.)$=$&,K>!$H>.,U-j$*,j$j$X>X>N%5 p=t;%;Q;%;&>v;u;%@&>q;r;r;=,'$-,@&r;E ",
"B$,$-$-$;,>,,,{>l>',F#H ),] -.r+r+Q$`*C*Q.R.Z+!,~,{,:#:-],P%I=q=L@p=k&(;^,p=p=/,R%k&k&-=8>(,A$E-G-G-!$K>_,C$C$Z%)$=%g$L><%:,q%X.",
"q+,.! t+q+Q$u T%<,l=w k>x [,x%I#I#i>Y=[,},|,1,2,4#o#0 N&3;D&r#t#s#9%3,4,D&0%x+!-Y*E+7+9=z+8+w&c 1%2%5,D&}%R$6,a>[-/ / 7 c;/ < Q$",
"7,)@@+I@8,7,h@W#9,a@5&)+0,a,m&^+m&G 5&b,c,Q>V#l+z+d,e,L.L.f,5*|*5*Z e,e,Z F%:&k-4=Y@g,(+Y@g,l$n$h,i,h,z%j,k,l,F+;.G@>@>@h@)@g@{+",
"m,n,o,p,q,r,s,].k%~+t,~+~+,+G /$m&m&Q>u,v,a,V%i+5$w,x,y,i.i.5*z,z,e,A,L.Z B,z,T$q;C,m$Y@Y@C,l,A%D,D,E%j,R E,F,C*e&G,H,)@I,I@)@{+",
"J,m,7,m,m,K,L,M,i%N,O,0,P,a,V%#@:$G V#~+V>)+V%W#:%%$x,y,J.+*5*E@Q,Z +.R,f,O S,h&T,g,F,Y@g,l,F,A%I%U,G%j,F.V,d.<;X.=;{+m@W,I@@+X,",
"J@Y,Y,Z,;;Y,`, '.'+'@'+'#'$'I@G@%'G #+,;&'@+Z%l;W#F l,U@u;@@F,R*c@(+<+l$l,Q )+j+*'#@%@u;)@='B@l&_$_$B@@@S*'+U;(>-';'^&>'X+,'m%'@",
"G&o@! t+,.,.^#|;h+r+,.y*7-&%g+$=6%''6%8 v+8 - )%1;)'d>!'B#o+[ _ ( ~'5#< 4#~#z+R&_ o@~## {']',.' R$R$,.`*y#2 3 = e+( 7=f@^'d%/ } ",
"d./'/'/'e.e.J U L,o,N Y.> ].0&9,:,e&e&v ~>('('_'_'K=o= =i f%>@%@G,H@m$n*j@I@{+{+I@G,I@P.:'k&v;@@P;v;*>r,<'p,p,p,=>['X,<>_ '$P }'",
"q$b.E.E.9.E.D.S D.9.F.|'w+Z+S>U.1'~>;@D>U.X%~@X%v@L@K=f.q 2'.-w;H@G,c@<>{+{+);I@<>G,:>C.a>L@v;e@Q*^*/*3'3'4'(*p,~+*>['['G*%@b.d.",
"R q$E.o,E.G.8.9.9.9.q$F e+5'D>U.l%9,_,6'7'7'7'm%P+8'A$g-~%D$>@H@H@H@>@U;n,9');:><>G,U;Z>c+O;v;'+*>^*U;K,E>=>*>=>*>/*/*U;`*#@0.q$",
"R 2$9.S G.G.J /'N#O#d..+A+|&l%l%S>.+o&{&6@6@]&{&0'Y%Z>;%)%g%>@H@H@)@$;{+);m,m,(*P;G,)@L%G=S%U;^**>U;^*4'r,(**>=>/*X,['->|#G,9.0.",
"-.-.X*P.a'S-Q.X*!.P.1+i+6 b'_#c'd'j>2+j+;#e'Z+f'v.Q-;%o%L=],]'g'A#I.W  -h'i'Q@|#H.I.I.j'),k'W -,H.]-5$j+h']#X l+H.I.(#]'l'`%<;r.",
"]@]@m'u-n'6+V;2>]@V;m'd-o.n;r ^$}+o'i&|=7-q%G z>B-*;F `.F$& x+}%y=c%v#6+%=o+)#g- =p'G*u T*v+q'k=L-*$G$~.~%:-:%:%l++%&#_ r'6+E#m'",
":+8#m$/+'.4=0#1@:$7#N@|@,.s'0&t'i%l%Z%Z%l+;+u'v'D.w'x'x'y'*.y#U$T$S$U$T$F@E$y@y@9&9&s'!&Y*I=z'H@$>)@U;A'g.L$U%g%'&L%M%C-F$P@X@:+",
"Z-[+/$B'2 y.7#|@6#<+7#O@(%9&k%7'7'h@!@l%k+*+C'D'E'w'w'F';.w##-#-T$V$S$H=I.Z$+#G'H'R%*'9&I';>H@H@Q G,{+&'(,r&L%Q%g%U%U%N%<-;$m$(+",
"8#v-b@B>Q-;@G J'_+7#N@:.c'K'L'i%k%~@l%!@V*M'N'O'P'D.G.Q'/;1+*$k$q%H=V$W$`%R'G'+#!&2'*'!&S'8'H@>@R*H@:>I@Q@T'U%Q%R%,&M%f%U'<,X@z@",
"V'W'X'e'f@I.Y'N;Z'-=G;-=!-`' ).)P+v@0@+>{,,#+)@)J$J$(>J$5;{,^%t.#)P.f%L$$)1&%)&)1&@%*)=)b>-)O;C$C$n@0'7&;)c>>)@%,)')1&2#))]'V'!,"};
