/* XPM */
static char * Dehydrated_Earth_64x64_xpm[] = {
"64 64 3 1",
" 	c #0B1A08",
".	c #D28D42",
"+	c #DCB66C",
"  ..++++++++++++++++++++++..  ......++++++++..  ....++++++++..  ",
"   ..+++++++++++++++++++++..  .....+++++++++..  ...+++++++++..  ",
".   .++++++++++++++++++++..  ..+++++++++++++..  ...+++++++++..  ",
"..   ..+++++++++++++++++..  ..++++++++++++++..  ..++++++++++..  ",
"+..   .++++++++++++++++++.. ...+++++++++++++..  ..++++++++++..  ",
"+++.   ..+++++++++++++++++..  ..+++++++++++..   .++++++++++..   ",
"+++..   .+++++++++.........   ..+++++++++++.   ..++++++++++.   .",
"+++++.   ..+++++..........   .++++++++++++.   ..+++++++++..   ..",
"+++++..   .++++..          ..++++++++++++.   .+++++++++++.   ..+",
"+++++++.   .+++.          ..++++++++++++..  ..++++++++++..  .+++",
"+++++++..   ...   ......   ..+++++++++++..   .++++++++++..  ++++",
"+++++++++.  ..   .........  ..+++++++++.. .   ..+++++++..   ++++",
"+++++++++..    ..+++++....  ..+++++++++.       ..++++++.   .++++",
"+++++++++++.  ..++++++++..   ..+++++++.    ..   ..++++..  ..++++",
"++++++++++++.   .++++++++..   .++++++.   ..++..   .+++.   .+++++",
"++++++++++++..  ..+++++++++.   ..++..   .++++++.  .++..  ..+++++",
"+++++++++++++.  ..+++++++++..   ....   ..++++++..  ...   .++++++",
"+++++++++++++.   ..+++++++++..  ...   .+++++++++..  ..  ..++++++",
"++++++++++++++..  .+++++++++..  ..   ..+++++++++..  ..  ..++++++",
"++++++++++++++..  ..+++++++++.  ..  ..+++++++++..   .   ..++++++",
"++++++++++++++    ..++++++++++..    ..+++++++++..       ..++++++",
"++++++++++++..   . ..+++++++++..     ..++++++...        ..++++++",
"+++++++++++..  ..   ..........  ..    .++++++...   .    ...+++++",
"+++++++++++.  ....   ........   ...    ..++....   ...   ....++++",
"++++++++++..  ..++.            .++...   ....     ..+..     ..+++",
"++++++++++..  .++++.          .++++...   ..     .+++++.     ..++",
"++++++++...   .++++......   ..+++++...       ....++++++...   ...",
"++++++....   .+++++++.....  ..++++++..      ...+++++++++...   ..",
".......    ..+++++++++++++.   .+++++..  .....++++++++++++..   ..",
"......     ..+++++++++++++..  ..+++++.  ....+++++++++++++..   ..",
"        .   .++++++++++++...  ..+++++..   ..+++++++++++++.  .   ",
"       ...   ..++++++++....   .+++++++..  ..+++++++++++..  ...  ",
".......+++..  ..........     ..+++++++..  ..++++++++++.   .+++..",
".....++++++..   .......     .+++++++++..   ..++++++++.   ..++++.",
"++++++++++++. .         .....+++++++++....  .+++++++.   ..++++++",
"++++++++++++..          ....+++++++++.....  ...+++..   ..+++++++",
"++++++++++++..   ......   ..+++++++++.     ........   ..++++++++",
"+++++++++++..   ........  ..+++++++..     .. .....    ..++++++++",
"+++++++++...   ..++++...  ..+++++++.   ....           ..++++++++",
"++++++++...   .+++++++..  ..+++++..   ......          ..++++++++",
"+++++++.   .  .+++++++..  ..+++++.   ..++++..    ..   ..++++++++",
"++++++.      .+++++++++.   ..+++..  ..++++++..  ...   ..++++++++",
"+++++.   .   .+++++++++..   .+++..  ..++++++..  ....  ...+++++++",
"++++.   ...   .++++++++++.   .++..  ..++++++..  ....   ...++++++",
"+++..  ..++.  .++++++++++..   ....  ..++++++..  .....     .+++++",
"+++.   .+++..  ..++++++++++.   ...  ..+++++..   .....      .++++",
"++..  ..++++..  .++++++++++..   ..  ..+++++.   .++..  ...  ..+++",
"+..   ..++++..  ..+++++++++++.  ..  ...++...  ..++..  ...   ...+",
"..   ..+++++..  ..++++++++++++.     ........  ..++..  ....  ....",
".   ..++++++..  ..++++++++++++..     ......   .+++..  ....   ...",
"   ..+++++++..  ..+++.............          ..+++..   .+++.     ",
"  .+++++++++..  ....................       ..+++..   .+++++.    ",
"...+++++++++..  ....              ..........++++..  ..+++++.....",
".+++++++++++..  ...                .......++++++..  ..+++++++...",
"++++++++++++..  ..   ............   ..++++++++++++.   .+++++++++",
"+++++++++++...      ..............  ..+++++++++++++.   ..+++++++",
"+++++++........    .++++++++++++..  ..+++++++++++++..   .+++++++",
"+++++........ .. ..++++++++++++++.   ...++++++++++++..   ..+++++",
"+++++.         ...++++++++++++++++.   ......+++++++.....  .+++++",
"+++..         ..+++++++++++++++++...    ......++++.....    ..+++",
"+++.   .......++++++++++++++++..... .        ......         .+++",
"+..   .......++++++++++++++++.....  ..        ....           ..+",
"..   ..++++++++++++++++++++++..    . ...... .      ........   ..",
"..  ..++++++++++++++++++++++..      ........        ........  .."};
