/* XPM */
static char * Glowing_Square_Tile_64x64_xpm[] = {
"64 64 7 1",
" 	c #21383E",
".	c #162829",
"+	c #003133",
"@	c #19464B",
"#	c #006779",
"$	c #0E2F31",
"%	c #003437",
"  ..++++++++++++++++++++++++++++++++++++++++++++++++++++++++..  ",
"  ..++++++++++++++++++++++++++++++++++++++++++++++++++++++++..  ",
"....@@@@@@@@@@@@@@@@@@@@@@@@@@@@@@@@@@@@@@@@@@@@@@@@@@@@@@@@....",
"....@@@@@@@@@@@@@@@@@@@@@@@@@@@@@@@@@@@@@@@@@@@@@@@@@@@@@@@@....",
"++@@@@@@##########@@@@@@@@@@@@@@@@@@##################@@@@@@@@++",
"++@@@@##############@@@@@@@@@@@@@@#####################@@@@@@@++",
"++@@@#####....$$$$$$$$$$$$$$..$$$$$$........$$$$$$..$$$$@@@@@@++",
"++@@@###......$$$$$$$$$$$$$$..$$$$$........$$$$$$...$$$$@@@@@@++",
"++@@###.....$$$$$$$$$$$$$$$...$$$$$.......$$$$$$...$$$$$@@@@@@++",
"++@@###...$$$$$$$$$$$$$$$$...$$$$$......$$$$$$$...$$$$$$.@@@@@++",
"++@@##...$$$$$$$$$$$$$$$....$$$$$......$$$$$$$...$$$$$$$$$@@@@++",
"++@@##..$$$$$$$$$$$$$$.....$$$$$......$$$$$$$...$$$$$$$$$$@@@@++",
"++@@##$$$$$$$$$$$$$$$.....$$$$$......$$$$$$$...$$$$$$$$$$$@@@@++",
"++@@@#$$$$$$$$$$$$$$....$$$$$$......$$$$$$....$$$$$$$$$$$$@@@@++",
"++@@@@$$$$$$$$$$$......$$$$$$......$$$$$.....$$$$$$$$$$$..@@@@++",
"++@@@@$$$$$$$$$......$$$$$$......$$$$$$....$$$$$$$$$$$$...@@@@++",
"%%@@@@$$$$$$$$$......$$$$$$....$$$$$$$...$$$$$$$$$$$$$...$@@@@++",
"%%@@@@$$$$$$$$.....$$$$$$....$$$$$$$$...$$$$$$$$$$$$$...$$@@@@++",
"%%@@@@$$$$$$.......$$$$$$....$$$$$$$...$$$$$$$$$$$$$...$$$@@@@%%",
"%%@@@@$$$$.......$$$$$$....$$$$$$$$...$$$$$$$$$$$$$...$$$$@@@@%%",
"%%@@@@$$$......$$$$$$$.....$$$$$$....$$$$$..$$$$$$...$$$$$@@@@%%",
"%%@@@@$$......$$$$$$$....$$$$$$.....$$$$$...$$$$$...$$$$$$@@@@%%",
"++@@@@.......$$$$$$$...$$$$$$$$....$$$$$...$$$$$...$$$$$..@@@@%%",
"++@@@@......$$$$$$$...$$$$$$$....$$$$$$...$$$$$...$$$$$$..@@@@%%",
"++@@@@.....$$$$$$....$$$$$$$$....$$$$$...$$$$$...$$$$$$$$$@@@@++",
"++@@@@....$$$$$.....$$$$$$$....$$$$$$$..$$$$$...$$$$$$$$$$@@@@++",
"++@@@@...$$$$$$....$$$$$$......$$$$$$$$$$$$$...$$$$$$$$$$$@@@@++",
"++@@@@..$$$$$$...$$$$$$......$$$$$$$$$$$$$$...$$$$$$$$$$$$@@@@++",
"++@@@@$$$$$$$....$$$$$$....$$$$$$$$$$$$$$$...$$$$$$$$$$$..@@@@++",
"++@@@#$$$$$$...$$$$$$....$$$$$$$$$$$$$$$$$..$$$$$$$$$$$...#@@@++",
"++@@##$$$$$...$$$$$$$....$$$$$$$$$$$$$..$$$$$$$$$$$$$$...$##@@++",
"++@@##$$$$...$$$$$$....$$$$$$$$$$$$$$...$$$$$$$$$$$$$...$$##@@++",
"%%@@##.....$$$$$$$$....$$$$$..$$$$$$...$$$$$$$$$$$$...$$$$##@@++",
"%%@@##....$$$$$$$....$$$$$$...$$$$$...$$$$$$$$$$$$...$$$$$##@@++",
"%%@@##...$$$$$$......$$$$$...$$$$$...$$$$$..$$$$$$..$$$$$$#@@@%%",
"%%@@##.$$$$$$$.....$$$$$$...$$$$$...$$$$$...$$$$$..$$$$$$$@@@@%%",
"%%@@##$$$$$$$......$$$$$...$$$$$...$$$$$...$$$$$..$$$$$$..@@@@%%",
"%%@@##$$$$$$.....$$$$$$...$$$$$...$$$$$...$$$$$...$$$$$...@@@@%%",
"++@@@#$$$$$......$$$$$...$$$$$...$$$$$...$$$$$...$$$$$....@@@@%%",
"++@@@@$$$......$$$$$$...$$$$$...$$$$$...$$$$$...$$$$$.....@@@@%%",
"%%@@@@.......$$$$$$$...$$$$$...$$$$$...$$$$$...$$$$$....$$@@@@++",
"%%@@@@......$$$$$$$$..$$$$$...$$$$$...$$$$$...$$$$.....$$$@@@@++",
"%%@@@@.....$$$$$$$$$$$$$$$...$$$$$...$$$$$...$$$$$....$$$$@@@@%%",
"%%@@@@....$$$$$$$$$$$$$$$$..$$$$$...$$$$$...$$$$$...$$$$$$@@@@%%",
"%%@@@@...$$$$$..$$$$$$$$$$$$$$$$...$$$$$...$$$$$..$$$$$$$$@@@@%%",
"%%@@@@.$$$$$$...$$$$$$$$$$$$$$$...$$$$$...$$$$$...$$$$$$$$@@@@%%",
"++@@@@$$$$$$...$$$$$..$$$$$$$$...$$$$$...$$$$$...$$$$$$$$$@@@@%%",
"++@@@@$$$$$...$$$$$...$$$$$$$...$$$$$...$$$$$$..$$$$$$$$$$@@@@%%",
"++@@@@$$$$...$$$$$...$$$$$$....$$$$$...$$$$$$$$$$$$$.$$$$$#@@@++",
"++@@@@$$$...$$$$$...$$$$$.....$$$$$...$$$$$$$$$$$$$$.$$$$$#@@@++",
"++@@@@$$...$$$$$...$$$$$....$$$$$...$$$$$$$$$$$$$$$$$$$$$$##@@++",
"++@@@@$...$$$$$...$$$$$....$$$$$...$$$$$$$$$$$$$$$$$$$$$$$##@@++",
"%%@@@@...$$$$$...$$$$$....$$$$$$..$$$$$$$$$$$...$$$$$$$$..##@@++",
"%%@@@@..$$$$$...$$$$$....$$$$$$..$$$$$$$$$$$...$$$$$$$....##@@++",
"%%@@@@@$$$$$...$$$$$....$$$$$$..$$$$$$$$$$$...$$$$$$.....###@@++",
"%%@@@@@$$$$...$$$$$....$$$$$$...$$$$$$$$$$...$$$$$$......###@@++",
"++@@@@@@$$...$$$$$$....$$$$$...$$$$$$$$$...$.$$$$$......###@@@++",
"++@@@@@@$$..$$$$$$....$$$$$$..$$$$$$$$$$....$$$$$$....#####@@@++",
"++@@@@##########@@@@@@@@@@@@@@@@@@@@@@@@@@@@##############@@@@++",
"++@@@@@#######@@@@@@@@@@@@@@@@@@@@@@@@@@@@@@@@##########@@@@@@++",
"...$@@@@@@@@@@@@@@@@@@@@@@@@@@@@@@@@@@@@@@@@@@@@@@@@@@@@@@@@....",
"....@@@@@@@@@@@@@@@@@@@@@@@@@@@@@@@@@@@@@@@@@@@@@@@@@@@@@@@@....",
"  ..++++++++++++++++++++++++++++++++++++++++++++++++++++++++..  ",
"  ..++++++++++++++++++++++++++++++++++++++++++++++++++++++++..  "};
