/* XPM */
static char * Grass_64x64_xpm[] = {
"64 64 5 1",
" 	c #005F1A",
".	c #00980F",
"+	c #004F1C",
"@	c #007916",
"#	c #006913",
"  ..++    ....      ++@@@@..      @@@@@@@@..  @@@@@@    ..      ",
"  ..++    .....      +@@@@..      @@@@@@@@..  @@@@@@   ...      ",
"....      @@@..       @@@@##      @@@@@@@@@@  @@@@@+   .@..     ",
"..@@      @@@@..      @@@@##      ++@@@@@@@@  @@@@+   .@@@.     ",
"@@@@.     #@@@@..     @@@@++       ++@@@@@@@  +++++   @@#@@@    ",
"@@@@@.    ###@@@..   ##@@@++  ..    ++@@@@+   ++++    @@##@@    ",
"@@@@@@    +##@@@@@  ###@@@    ...    ++@@@      ..    @@##@@   .",
"@@@@@@     ++#@@@@  ####@@    @@..    +@@@     ...    @@##@@  ..",
"@@@@@@     ++##@@@  ######    @@@..     @@     ...    @@##@@  @@",
"@@@@++       +##@@   +#####   @@@@.     @@    ..@@    @@##@@  @@",
"@@@++   .    ++###   ++####   @@@@@@    @@   ..@@@    ++##++..@@",
"@@++   ...    ++##    ++####  ##@@@@    @@  ..@@@@    ++##++.@@@",
"+++   @@@@     +++    ++++++  ###@@@    ++  @@@@##  .   ##  @@@@",
"++    @@@@      ++  ....++++  ####@@..  ++  @@####  ..  ##  @@@@",
"      #@@@@..      ..@@@  ..  #######..    .@@####  ....+   @@@+",
"      ##@@@...    .@@@@@  ... #########.  .@@#####  @@..+   @+++",
".      +@@@@@@    @@@@@#  @...+#########  @@@####+.@@@@@    +++ ",
"...    +@@@@@@    @@@@##  @@@..++#######  @####+++.@@@@@    ++  ",
"@...    #@@@@@    @@@@++  @@@..+++++++++  #####++ @@#@@@        ",
"@@@.    ###@@@    @@@@+   @@@@@..++++++   ###++   @###@@        ",
"@@@@     #####....@@@#    @@@@@...        +++++   ####@@       #",
"@@@@     ++###...@@###    @@@@@@@.        ++++    ####@@     ###",
"@@@@      ++++@@@@@###    +@@@@@@@        .....   ####@@    ####",
"@@@@      ++++@@@#####    +++@@@@@        ......  ####@@    ####",
"#@@@@     ... #####+++    .++@@@@+   ..   @@@@@@  #####@@   ####",
"##@@@.    ... ###++++     ...+@@+   ..... @@@@@@  @####@@   +###",
"##@@@@    @...+++++       @..++++   @@@...++++++  ++####@@    ##",
"##@@@@    @@@..++         @@@..+    @@@@@.++++++  ++####@@    ##",
"##@@@@@   @@@@..          ++@...    @@@@@@    ...   ####@@    ##",
"##@@@@@.. @@@@@..         ++@@@.    @@@@@@   .....  ####@@    ##",
"###@@@@@..+@@@@..         @@@@@@    +@@@@@   ..@@@  ####@@    ++",
"###@@@@@@.+++@@@@..       @@@@@@     ++@@@  .@@@@@  +###@@    ++",
"####@@@@@@  ++@@@..       @@@@@@.    +++++  @@@@@@    ##@@  .   ",
"######@@@@    @@@@@.      @@@@@@...   ++++  @@@@@@    ##@@  ..  ",
"++########    @@@@@@      @@@@@@#..   @@..  @@@@@+    #++   @@  ",
"+++#######    @@@@@@      @@@@@###... @@@.. @@@+++    +++   @@  ",
"  ++#####+    +@@@@@      @@@@@###@...@@@...+++++..   ++  .@@@..",
"   +++#+++     +@@@@     @@@@#####@@..@@@@..++++....  +   @@@@@.",
"..  +++++..     @@@+     @@@@#####@@@@  @@##    @@@..     @@@@@@",
"..    +....     @++     @@@#######@@@@  @@##    @@@@@     @@@@@@",
"##    ..@@@.    +++     #########++@@@  @@##    @@@@@@    @@@@@@",
"##    .@@@@@    ++     ########+++++@@  @@##    @@@@@@    @@@@@@",
"@@    @@@@@@    ...    ########++   @@  @@##    +++....   +@@@##",
"@@    @@@@@@    ....  #######++     @@  @@##     +.....   +@####",
"##     +@@@@@.  @@@@  +######++ ..  ++  @@##      ..@@@@  ######",
"##     ++@@@@@  @@@@   ++##++  ...  ++  @@##      @@@@@@  ######",
"##      ++@@@@  +@@@.  ++++++  ..@     .@@##      @@@@@@  +#####",
"##       ++@@@   +@@@.   ++  ..@@@    .@@@##      @@@@@@  ++####",
"++   ..   ++@@    @@@@       ..@@+    @@@@##      @@@@+    ++###",
"+   ...     @@    @@@@      .@@++     @@@###      @@@@      +++#",
"    @@..    @@   ..+++      @@++      ####++...   ++..    .. +++",
"    @@@@    @@  ....        +++       ##++++....   +...   ..  ++",
"    @@@@    ++  @@..   ...  +++ ...   ++++  @@@@    @..   @@ ...",
"    @@@@     +  @@@@  .....    .....        @@@@    @@@.. @@....",
"   .@@@@@.     .@@@@  @@@@..   .@@@@        @@@@.   @@@...@@..@@",
"  ..@@@@@@    @@@@@@  @@@@@@  @@@@@@        @@@@@@  @@@@.@@@.@@@",
"  ####@@@@    @@@@@+  @@@@@@  @@@@@@      .@@@@@@@  +@@@@@++@@@@",
"  #####@@@    @@@@    @@@@@@  @@@@@@     ..@@@@@@@   +@@@@+++@@@",
"  ######@@   .@@@@    ++@@@@  @@@@+     ..@@@@++++    @@@@ +++@@",
"  ########  .@@@@@    ++++@@  @@+++     @@@@@+++++    @@@@  +++@",
"  ########  @@@@++   ...++++   +++      @@@@++ ...    +@@@  @@++",
"  ########  @@+++   ......              @@+++  ....    ++@  @+++",
"  ++###+++  +++++   @@@@..        ........++  ..@@.    +++  ++  ",
"  ++##++++  ++++    @@@@..        ........++  ..@@..    ++  ++  "};
