/* XPM */
static char * MDk_512x512_xpm[] = {
"512 512 257 2",
"  	c None",
". 	c #000000",
"+ 	c #D4AA7F",
"@ 	c #EBB089",
"# 	c #E8B185",
"$ 	c #E3A277",
"% 	c #B4693C",
"& 	c #EEC295",
"* 	c #DE9B72",
"= 	c #DC966E",
"- 	c #D48B64",
"; 	c #C67850",
"> 	c #F0C396",
", 	c #DC9571",
"' 	c #C77554",
") 	c #B25F40",
"! 	c #CC7C58",
"~ 	c #D18062",
"{ 	c #C77751",
"] 	c #C26D4D",
"^ 	c #B66141",
"/ 	c #B35939",
"( 	c #BE6D4D",
"_ 	c #B46648",
": 	c #AD6043",
"< 	c #D98E6B",
"[ 	c #B66441",
"} 	c #A95B3F",
"| 	c #AC5435",
"1 	c #BD6847",
"2 	c #B46C4E",
"3 	c #CC8362",
"4 	c #B76F47",
"5 	c #A34E31",
"6 	c #96462C",
"7 	c #964C32",
"8 	c #9F5339",
"9 	c #AA5536",
"0 	c #8E4028",
"a 	c #83321B",
"b 	c #BD7456",
"c 	c #8F381F",
"d 	c #823D27",
"e 	c #85432C",
"f 	c #8C462F",
"g 	c #B27159",
"h 	c #F1C199",
"i 	c #B86442",
"j 	c #A25F48",
"k 	c #AA654D",
"l 	c #AA6B57",
"m 	c #9E5133",
"n 	c #9C4B2F",
"o 	c #762C17",
"p 	c #773420",
"q 	c #7C3924",
"r 	c #935136",
"s 	c #8A4B38",
"t 	c #A2593D",
"u 	c #9B5846",
"v 	c #703220",
"w 	c #6B2D1C",
"x 	c #914F3F",
"y 	c #834637",
"z 	c #773C2C",
"A 	c #C4704F",
"B 	c #70382A",
"C 	c #7C4031",
"D 	c #C67755",
"E 	c #693327",
"F 	c #622F23",
"G 	c #572316",
"H 	c #64291A",
"I 	c #59271D",
"J 	c #95563D",
"K 	c #5A2C23",
"L 	c #6F3F35",
"M 	c #7B4A41",
"N 	c #BD7D66",
"O 	c #844F44",
"P 	c #774439",
"Q 	c #4F2016",
"R 	c #8E5548",
"S 	c #602515",
"T 	c #571E10",
"U 	c #61200F",
"V 	c #46180F",
"W 	c #471D15",
"X 	c #3D1109",
"Y 	c #451107",
"Z 	c #340C05",
"` 	c #3E0C04",
" .	c #350702",
"..	c #4E1B0F",
"+.	c #55180A",
"@.	c #4F251D",
"#.	c #E5A37F",
"$.	c #320200",
"%.	c #371009",
"&.	c #40160D",
"*.	c #4C1509",
"=.	c #673930",
"-.	c #914429",
";.	c #3E0400",
">.	c #D19277",
",.	c #DF9674",
"'.	c #AE5E3B",
").	c #994C31",
"!.	c #9E4D32",
"~.	c #7C331E",
"{.	c #571004",
"].	c #4B0A01",
"^.	c #2B0200",
"/.	c #9B6457",
"(.	c #8B3E23",
"_.	c #81331C",
":.	c #240200",
"<.	c #2B0703",
"[.	c #D98B66",
"}.	c #6E2411",
"|.	c #C48976",
"1.	c #925C51",
"2.	c #EFBE97",
"3.	c #AE7768",
"4.	c #5F352D",
"5.	c #3D1B15",
"6.	c #4F2A25",
"7.	c #371611",
"8.	c #2B0C07",
"9.	c #44221D",
"0.	c #CB7C59",
"a.	c #56312C",
"b.	c #621907",
"c.	c #1D0100",
"d.	c #CC7250",
"e.	c #BF6240",
"f.	c #A64326",
"g.	c #210805",
"h.	c #9F5032",
"i.	c #81331C",
"j.	c #692511",
"k.	c #8B3C22",
"l.	c #2F110D",
"m.	c #623E38",
"n.	c #D49D84",
"o.	c #F5B287",
"p.	c #FFC396",
"q.	c #FFCD9F",
"r.	c #FFDEAF",
"s.	c #FFE9B8",
"t.	c #FFD6A8",
"u.	c #FFC699",
"v.	c #E3B69F",
"w.	c #FFC193",
"x.	c #FFEFBF",
"y.	c #FFFAC9",
"z.	c #FFD0A3",
"A.	c #DAA892",
"B.	c #FFD3A6",
"C.	c #FFCA9C",
"D.	c #FFDBAC",
"E.	c #F4C8A1",
"F.	c #FAC4A5",
"G.	c #FFE4B4",
"H.	c #E9AF8B",
"I.	c #E9AC87",
"J.	c #FFBE90",
"K.	c #F7CDAB",
"L.	c #EA9269",
"M.	c #EF9F75",
"N.	c #E48D65",
"O.	c #FFE1B3",
"P.	c #F8AB7F",
"Q.	c #E1835B",
"R.	c #FFDCB1",
"S.	c #DA754F",
"T.	c #E0936B",
"U.	c #E7976E",
"V.	c #F1A77C",
"W.	c #E08861",
"X.	c #A9867D",
"Y.	c #DB7C56",
"Z.	c #D8815B",
"`.	c #FFD8AC",
" +	c #EC9B71",
".+	c #D16F4B",
"++	c #D78560",
"@+	c #C76B47",
"#+	c #CF7552",
"$+	c #D27955",
"%+	c #D27E59",
"&+	c #BB5B39",
"*+	c #C96541",
"=+	c #D26A44",
"-+	c #FBCCAE",
";+	c #FFBB8D",
">+	c #CC5C34",
",+	c #FFB88A",
"'+	c #FFB587",
")+	c #FFB284",
"!+	c #C74722",
"~+	c #D4C0BA",
"{+	c #FFAE81",
"]+	c #FDA77B",
"^+	c #F5A377",
"/+	c #FFF6F2",
"(+	c #F59B70",
"_+	c #F99F73",
":+	c #F0966C",
"<+	c #F7DACC",
"[+	c #F18F63",
"}+	c #BCA39C",
"|+	c #EA885F",
"1+	c #B4948B",
"2+	c #996E65",
"3+	c #9C7972",
"4+	c #8A635D",
"5+	c #825851",
"6+	c #76514B",
"7+	c #6C4640",
"8+	c #FEAA7E",
"9+	c #140100",
"0+	c #080000",
"a+	c #C4B2AC",
"b+	c #FCA377",
"c+	c #E1CEC8",
"d+	c #E9DAD6",
"e+	c #F2E5E0",
"f+	c #FFFFFE",
"g+	c #FBEFEA",
"h+	c #FF7F37",
"i+	c #B5230E",
"j+	c #7C0301",
"k+	c #940502",
"l+	c #AA0902",
"m+	c #C30601",
"n+	c #E61A03",
"o+	c #FD591D",
"p+	c #EB0401",
"q+	c #D80501",
"r+	c #E02E06",
"s+	c #FC6B22",
"t+	c #C66D81",
"u+	c #FC3B12",
"v+	c #FD4A18",
"w+	c #FC2D11",
"x+	c #FB1209",
"y+	c #FC200E",
"z+	c #FB0403",
"A+	c #ED9106",
"B+	c #5D1F0F",
"C+	c #652514",
"D+	c #662312",
"E+	c #F4B503",
"F+	c #FCD302",
"G+	c #FFF908",
"H+	c #FEE704",
"0 0 0 0 0 0 0 0 0 0 0 0 0 0 0 0 0 0 0 0 0 0 0 0 0 0 0 0 0 0 0 0 0 0 0 0 0 0 0 0 0 0 0 0 0 0 0 0 0 0 0 0 0 0 0 0 0 0 0 0 0 0 0 0 0 0 0 0 0 0 0 0 0 0 0 0 0 0 0 0 0 0 0 0 0 0 0 0 0 0 0 0 0 0 0 0 0 0 0 0 0 0 0 0 0 0 0 0 0 0 0 0 0 0 0 0 0 0 0 0 0 0 0 0 0 0 0 0 0 0 0 0 0 0 0 0 0 0 0 0 0 0 0 0 0 0 0 0 0 0 0 0 0 0 0 0 0 0 0 0 0 0 0 0 0 0 0 0 0 0 0 0 0 0 0 0 0 0 0 0 0 0 0 0 0 0 0 0 0 0 0 0 0 0 0 0 0 0 0 0 0 0 0 0 0 0 0 0 0 0 0 0 0 0 0 0 0 0 0 0 0 0 0 0 0 0 0 0 0 0 0 0 0 0 0 0 0 0 0 0 0 0 0 0 0 0 0 0 0 0 0 0 0 0 0 0 0 0 0 0 0 0 0 0 0 0 0 0 0 0 0 0 0 0 0 0 0 0 0 0 0 0 0 0 0 0 0 0 0 0 0 0 0 0 0 0 0 0 0 0 0 0 0 0 0 0 0 0 0 0 0 0 0 0 0 0 0 0 0 0 0 0 0 0 0 0 0 0 0 0 0 0 0 0 0 0 0 0 0 0 0 0 0 0 0 0 0 0 0 0 0 0 0 0 0 0 0 0 0 0 0 0 0 0 0 0 0 0 0 0 0 0 0 0 0 0 0 0 0 0 0 0 0 0 0 0 0 0 0 0 0 0 0 0 0 0 0 0 0 0 0 0 0 0 0 0 0 0 0 0 0 0 0 0 0 0 0 0 0 0 0 0 0 0 0 0 0 0 0 0 0 0 0 0 0 0 0 0 0 0 0 0 0 0 0 0 0 0 0 0 0 0 0 0 0 0 0 0 0 0 0 0 0 0 0 0 0 0 0 0 0 0 0 0 0 0 0 0 0 0 0 0 0 0 0 0 0 0 0 0 0 0 0 0 0 0 0 0 0 0 0 0 0 0 0 0 0 0 0 0 0 0 ",
"0 0 0 0 0 0 0 0 0 0 0 0 0 0 0 0 0 0 0 0 0 0 0 0 0 0 0 0 0 0 0 0 0 0 0 0 0 0 0 0 0 0 0 0 0 0 0 0 0 0 0 0 0 0 0 0 0 0 0 0 0 0 0 0 0 0 0 0 0 0 0 0 0 0 0 0 0 0 0 0 0 0 0 0 0 0 0 0 0 0 0 0 0 0 0 0 0 0 0 0 0 0 0 0 0 0 0 0 0 0 0 0 0 0 0 0 0 0 0 0 0 0 0 0 0 0 0 0 0 0 0 0 0 0 0 0 0 0 0 0 0 0 0 0 0 0 0 0 0 0 0 0 0 0 0 0 0 0 0 0 0 0 0 0 0 0 0 0 0 0 0 0 0 0 0 0 0 0 0 0 0 0 0 0 0 0 0 0 0 0 0 0 0 0 0 0 0 0 0 0 0 0 0 0 0 0 0 0 0 0 0 0 7 d r g t -.0 0 0 0 0 0 0 0 0 0 0 0 0 0 0 0 0 0 0 0 0 0 0 0 0 0 0 0 0 0 0 0 0 0 0 0 0 0 0 0 0 0 0 0 0 0 0 0 0 0 0 0 0 0 0 0 0 0 0 0 0 0 0 0 0 0 0 0 0 0 0 0 0 0 0 0 0 0 0 0 0 0 0 0 0 0 0 0 0 0 0 0 0 0 0 0 0 0 0 0 0 0 0 0 0 0 0 0 0 0 0 0 0 0 0 0 0 0 0 0 0 0 0 0 0 0 0 0 0 0 0 0 0 0 0 0 0 0 0 0 0 0 0 0 0 0 0 0 0 0 0 0 0 0 0 0 0 0 0 0 0 0 0 0 0 0 0 0 0 0 0 0 0 0 0 0 0 0 0 0 0 0 0 0 0 0 0 0 0 0 0 0 0 0 0 0 0 0 0 0 0 0 0 0 0 0 0 0 0 0 0 0 0 0 0 0 0 0 0 0 0 0 0 0 0 0 0 0 0 0 0 0 0 0 0 0 0 0 0 0 0 0 0 0 0 0 0 0 0 0 0 0 0 0 0 0 0 0 0 0 0 0 0 0 0 0 0 0 0 0 0 0 0 0 0 0 0 0 0 0 0 0 0 0 0 0 0 0 0 0 0 0 0 0 ",
"0 0 0 0 0 0 0 0 0 0 0 0 0 0 0 0 0 0 0 0 0 0 0 0 0 0 0 0 0 0 0 0 0 0 0 0 0 0 0 0 0 0 0 0 0 0 0 0 0 0 0 0 0 0 0 0 0 0 0 0 0 0 0 0 0 0 0 0 0 0 0 0 0 0 0 0 0 0 0 0 0 0 0 0 0 0 0 0 0 0 0 0 0 0 0 0 0 0 0 0 0 0 0 0 0 0 0 0 0 0 0 0 0 0 0 0 0 0 0 0 0 0 0 0 0 0 0 0 0 0 0 0 0 0 0 0 0 0 0 0 0 0 0 0 0 0 0 0 0 0 0 0 0 0 0 0 0 0 0 0 0 0 0 0 0 0 0 0 0 0 0 0 0 0 0 0 0 0 0 0 0 0 0 0 0 0 0 0 0 0 0 0 0 0 0 0 0 0 0 0 0 0 0 0 0 0 0 0 0 0 0 d   0.  0.] A 2 r 0 0 0 0 0 0 0 0 0 0 0 0 0 0 0 0 0 0 0 0 0 0 0 0 0 0 0 0 0 0 0 0 0 0 0 0 0 0 0 0 0 0 0 0 0 0 0 0 0 0 0 0 0 0 0 0 0 0 0 0 0 0 0 0 0 0 0 0 0 0 0 0 0 0 0 0 0 0 0 0 0 0 0 0 0 0 0 0 0 0 0 0 0 0 0 0 0 0 0 0 0 0 0 0 0 0 0 0 0 0 0 0 0 0 0 0 0 0 0 0 0 0 0 0 0 0 0 0 0 0 0 0 0 0 0 0 0 0 0 0 0 0 0 0 0 0 0 0 0 0 0 0 0 0 0 0 0 0 0 0 0 0 0 0 0 0 0 0 0 0 0 0 0 0 0 0 0 0 0 0 0 0 0 0 0 0 0 0 0 0 0 0 0 0 0 0 0 0 0 0 0 0 0 0 0 0 0 0 0 0 0 0 0 0 0 0 0 0 0 0 0 0 0 0 0 0 0 0 0 0 0 0 0 0 0 0 0 0 0 0 0 0 0 0 0 0 0 0 0 0 0 0 0 0 0 0 0 0 0 0 0 0 0 0 0 0 0 0 0 0 0 0 0 0 0 0 0 0 0 0 0 0 0 0 0 0 0 0 0 0 0 0 ",
"0 0 0 0 0 0 0 0 0 0 0 0 0 0 0 0 0 0 0 0 0 0 0 0 0 0 0 0 0 0 0 0 0 0 0 0 0 0 0 0 0 0 0 0 0 0 0 0 0 0 0 0 0 0 0 0 0 0 0 0 0 0 0 0 0 0 0 0 0 0 0 0 0 0 0 0 0 0 0 0 0 0 0 0 0 0 0 0 0 0 0 0 0 0 0 0 0 0 0 0 0 0 0 0 0 0 0 0 0 0 0 0 0 0 0 0 0 0 0 0 0 0 0 0 0 0 0 0 0 0 0 0 0 0 0 0 0 0 0 0 0 0 0 0 0 0 0 0 0 0 0 0 0 0 0 0 0 0 0 0 0 0 0 0 0 0 0 0 0 0 0 0 0 0 0 0 0 0 0 0 0 0 0 0 0 0 0 0 0 0 0 0 0 0 0 0 0 0 0 0 0 0 0 0 0 0 0 0 0 0 0 0 f ( ) '._ _ _ D _ : 6 0 0 0 0 0 0 0 0 0 0 0 0 0 0 0 0 0 0 0 0 0 0 0 0 0 0 0 0 0 0 0 0 0 0 0 0 0 0 0 0 0 0 0 0 0 0 0 0 0 0 0 0 0 0 0 0 0 0 0 0 0 0 0 0 0 0 0 0 0 0 0 0 0 0 0 0 0 0 0 0 0 0 0 0 0 0 0 0 0 0 0 0 0 0 0 0 0 0 0 0 0 0 0 0 0 0 0 0 0 0 0 0 0 0 0 0 0 0 0 0 0 0 0 0 0 0 0 0 0 0 0 0 0 0 0 0 0 0 0 0 0 0 0 0 0 0 0 0 0 0 0 0 0 0 0 0 0 0 0 0 0 0 0 0 0 0 0 0 0 0 0 0 0 0 0 0 0 0 0 0 0 0 0 0 0 0 0 0 0 0 0 0 0 0 0 0 0 0 0 0 0 0 0 0 0 0 0 0 0 0 0 0 0 0 0 0 0 0 0 0 0 0 0 0 0 0 0 0 0 0 0 0 0 0 0 0 0 0 0 0 0 0 0 0 0 0 0 0 0 0 0 0 0 0 0 0 0 0 0 0 0 0 0 0 0 0 0 0 0 0 0 0 0 0 0 0 0 0 0 0 0 0 0 0 0 0 0 0 0 ",
"0 0 0 0 0 0 0 0 0 0 0 0 0 0 0 0 0 0 0 0 0 0 0 0 0 0 0 0 0 0 0 0 0 0 0 0 0 0 0 0 0 0 0 0 0 0 0 0 0 0 0 0 0 0 0 0 0 0 0 0 0 0 0 0 0 0 0 0 0 0 0 0 0 0 0 0 0 0 0 0 0 0 0 0 0 0 0 0 0 0 0 0 0 0 0 0 0 0 0 0 0 0 0 0 0 0 0 0 0 0 0 0 0 0 0 0 0 0 0 0 0 0 0 0 0 0 0 0 0 0 0 0 0 0 0 0 0 0 0 0 0 0 0 0 0 0 0 0 0 0 0 0 0 0 0 0 0 0 0 0 0 0 0 0 0 0 0 0 0 0 0 0 0 0 0 0 0 0 0 0 0 0 0 0 0 0 0 0 0 0 0 0 0 0 0 0 0 0 0 0 0 0 0 0 0 0 0 0 0 0 0 0 0 e ) n -.n ).m } i D : j t 0 0 0 0 0 0 0 0 0 0 0 0 0 0 0 0 0 0 0 0 0 0 0 0 0 0 0 0 0 0 0 0 0 0 0 0 0 0 0 0 0 0 0 0 0 0 0 0 0 0 0 0 0 0 0 0 0 0 0 0 0 0 0 0 0 0 0 0 0 0 0 0 0 0 0 0 0 0 0 0 0 0 0 0 0 0 0 0 0 0 0 0 0 0 0 0 0 0 0 0 0 0 0 0 0 0 0 0 0 0 0 0 0 0 0 0 0 0 0 0 0 0 0 0 0 0 0 0 0 0 0 0 0 0 0 0 0 0 0 0 0 0 0 0 0 0 0 0 0 0 0 0 0 0 0 0 0 0 0 0 0 0 0 0 0 0 0 0 0 0 0 0 0 0 0 0 0 0 0 0 0 0 0 0 0 0 0 0 0 0 0 0 0 0 0 0 0 0 0 0 0 0 0 0 0 0 0 0 0 0 0 0 0 0 0 0 0 0 0 0 0 0 0 0 0 0 0 0 0 0 0 0 0 0 0 0 0 0 0 0 0 0 0 0 0 0 0 0 0 0 0 0 0 0 0 0 0 0 0 0 0 0 0 0 0 0 0 0 0 0 0 0 0 0 0 0 0 0 0 0 0 0 0 0 0 0 ",
"0 0 0 0 0 0 0 0 0 0 0 0 0 0 0 0 0 0 0 0 0 0 0 0 0 0 0 0 0 0 0 0 0 0 0 0 0 0 0 0 0 0 0 0 0 0 0 0 0 0 0 0 0 0 0 0 0 0 0 0 0 0 0 0 0 0 0 0 0 0 0 0 0 0 0 0 0 0 0 0 0 0 0 0 0 0 0 0 0 0 0 0 0 0 0 0 0 0 0 0 0 0 0 0 0 0 0 0 0 0 0 0 0 0 0 0 0 0 0 0 0 0 0 0 0 0 0 0 0 0 0 0 0 0 0 0 0 0 0 0 0 0 0 0 0 0 0 0 0 0 0 0 0 0 0 0 0 0 0 0 0 0 0 0 0 0 0 0 0 0 0 0 0 0 0 0 0 0 0 0 0 0 0 0 0 0 0 0 0 0 0 0 0 0 0 0 0 0 0 0 6 t : 8 t 8 J k u t 8 8 t e m ) 0 d d e f e 7 j ( - k -.0 0 0 0 0 0 0 0 0 0 0 0 0 0 0 0 0 0 0 0 0 0 0 0 0 0 0 0 0 0 0 0 0 0 0 0 0 0 0 0 0 0 0 0 0 0 0 0 0 0 0 0 0 0 0 0 0 0 0 0 0 0 0 0 0 0 0 0 0 0 0 0 0 0 0 0 0 0 0 0 0 0 0 0 0 0 0 0 0 0 0 0 0 0 0 0 0 0 0 0 0 0 0 0 0 0 0 0 0 0 0 0 0 0 0 0 0 0 0 0 0 0 0 0 0 0 0 0 0 0 0 0 0 0 0 0 0 0 0 0 0 0 0 0 0 0 0 0 0 0 0 0 0 0 0 0 0 0 0 0 0 0 0 0 0 0 0 0 0 0 0 0 0 0 0 0 0 0 0 0 0 0 0 0 0 0 0 0 0 0 0 0 0 0 0 0 0 0 0 0 0 0 0 0 0 0 0 0 0 0 0 0 0 0 0 0 0 0 0 0 0 0 0 0 0 0 0 0 0 0 0 0 0 0 0 0 0 0 0 0 0 0 0 0 0 0 0 0 0 0 0 0 0 0 0 0 0 0 0 0 0 0 0 0 0 0 0 0 0 0 0 0 0 0 0 0 0 0 0 0 0 0 0 0 ",
"0 0 0 0 0 0 0 0 0 0 0 0 0 0 0 0 0 0 0 0 0 0 0 0 0 0 0 0 0 0 0 0 0 0 0 0 0 0 0 0 0 0 0 0 0 0 0 0 0 0 0 0 0 0 0 0 0 0 0 0 0 0 0 0 0 0 0 0 0 0 0 0 0 0 0 0 0 0 0 0 0 0 0 0 0 0 0 0 0 0 0 0 0 0 0 0 0 0 0 0 0 0 0 0 0 0 0 0 0 0 0 0 0 0 0 0 0 0 0 0 0 0 0 0 0 0 0 0 0 0 0 0 0 0 0 0 0 0 0 0 0 0 0 0 0 0 0 0 0 0 0 0 0 0 0 0 0 0 0 0 0 0 0 0 0 0 0 0 0 0 0 0 0 0 0 0 0 0 0 0 0 0 0 0 0 0 0 0 0 0 0 0 0 0 0 0 0 -.t : 2 k j j u 8 u u J J x r J J j 2 k u x x e C C C y 8 2 ( 7 0 0 0 0 0 0 0 0 0 0 0 0 0 0 0 0 0 0 0 0 0 0 0 0 0 0 0 0 0 0 0 0 0 0 0 0 0 0 0 0 0 0 0 0 0 0 0 0 0 0 0 0 0 0 0 0 0 0 0 0 0 0 0 0 0 0 0 0 0 0 0 0 0 0 0 0 0 0 0 0 0 0 0 0 0 0 0 0 0 0 0 0 0 0 0 0 0 0 0 0 0 0 0 0 0 0 0 0 0 0 0 0 0 0 0 0 0 0 0 0 0 0 0 0 0 0 0 0 0 0 0 0 0 0 0 0 0 0 0 0 0 0 0 0 0 0 0 0 0 0 0 0 0 0 0 0 0 0 0 0 0 0 0 0 0 0 0 0 0 0 0 0 0 0 0 0 0 0 0 0 0 0 0 0 0 0 0 0 0 0 0 0 0 0 0 0 0 0 0 0 0 0 0 0 0 0 0 0 0 0 0 0 0 0 0 0 0 0 0 0 0 0 0 0 0 0 0 0 0 0 0 0 0 0 0 0 0 0 0 0 0 0 0 0 0 0 0 0 0 0 0 0 0 0 0 0 0 0 0 0 0 0 0 0 0 0 0 0 0 0 0 0 0 0 0 0 0 0 0 0 0 0 0 ",
"0 0 0 0 0 0 0 0 0 0 0 0 0 0 0 0 0 0 0 0 0 0 0 0 0 0 0 0 0 0 0 0 0 0 0 0 0 0 0 0 0 0 0 0 0 0 0 0 0 0 0 0 0 0 0 0 0 0 0 0 0 0 0 0 0 0 0 0 0 0 0 0 0 0 0 0 0 0 0 0 0 0 0 0 0 0 0 0 0 0 0 0 0 0 0 0 0 0 0 0 0 0 0 0 0 0 0 0 0 0 0 0 0 0 0 0 0 0 0 0 0 0 0 0 0 0 0 0 0 0 0 0 0 0 0 0 0 0 0 0 0 0 0 0 0 0 0 0 0 0 0 0 0 0 0 0 0 0 0 0 0 0 0 0 0 0 0 0 0 0 0 0 0 0 0 0 0 0 0 0 0 0 0 0 0 0 0 0 0 0 0 0 0 0 -.t _ ( _ : t 8 f f s s s C y y s s s y z B C x u u u J y C z z z 6 2 2 6 0 0 0 0 0 0 0 0 0 0 0 0 0 0 0 0 7   8 0 0 0 0 0 0 0 0 0 0 0 0 0 0 0 0 0 0 0 0 0 0 0 0 0 0 0 0 0 0 0 0 0 0 0 0 0 0 0 0 0 0 0 0 0 0 0 0 0 0 0 0 0 0 0 0 0 0 0 0 0 0 0 0 0 0 0 0 0 0 0 0 0 0 0 0 0 0 0 0 0 0 0 0 0 0 0 0 0 0 0 0 0 0 0 0 0 0 0 0 0 0 0 0 0 0 0 0 0 0 0 0 0 0 0 0 0 0 0 0 0 0 0 0 0 0 0 0 0 0 0 0 0 0 0 0 0 0 0 0 0 0 0 0 0 0 0 0 0 0 0 0 0 0 0 0 0 0 0 0 0 0 0 0 0 0 0 0 0 0 0 0 0 0 0 0 0 0 0 0 0 0 0 0 0 0 0 0 0 0 0 0 0 0 0 0 0 0 0 0 0 0 0 0 0 0 0 0 0 0 0 0 0 0 0 0 0 0 0 0 0 0 0 0 0 0 0 0 0 0 0 0 0 0 0 0 0 0 0 0 0 0 0 0 0 0 0 0 0 0 0 0 0 0 0 0 0 0 0 0 0 0 ",
"0 0 0 0 0 0 0 0 0 0 0 0 0 0 0 0 0 0 0 0 0 0 0 0 0 0 0 0 0 0 0 0 0 0 0 0 0 0 0 0 0 0 0 0 0 0 0 0 0 0 0 0 0 0 0 0 0 0 0 0 0 0 0 0 0 0 0 0 0 0 0 0 0 0 0 0 0 0 0 0 0 0 0 0 0 0 0 0 0 0 0 0 0 0 0 0 0 0 0 0 0 0 0 0 0 0 0 0 0 0 0 0 0 0 0 0 0 0 0 0 0 0 0 0 0 0 0 0 0 0 0 0 0 0 0 0 0 0 0 0 0 0 0 0 0 0 0 0 0 0 0 0 0 0 0 0 0 0 0 0 0 0 0 0 0 0 0 0 0 0 0 0 0 0 0 0 0 0 0 0 0 0 0 0 0 0 0 0 0 0 0 0 0 k ( ) } 9 m 6 e q v v v E E E F I K F B y s u J x x s s J j 8 s C z E q } ( 8   -.0 0 0 0 0 0 0 0 0 0 0 0 7     3 0 0 0 0 0 0 0 0 0 0 0 0 0 0 0 0 0 0 0 0 0 0 0 0 0 0 0 0 0 0 0 0 0 0 0 0 0 0 0 0 0 0 0 0 0 0 0 0 0 0 0 0 0 0 0 0 0 0 0 0 0 0 0 0 0 0 0 0 0 0 0 0 0 0 0 0 0 0 0 0 0 0 0 0 0 0 0 0 0 0 0 0 0 0 0 0 0 0 0 0 0 0 0 0 0 0 0 0 0 0 0 0 0 0 0 0 0 0 0 0 0 0 0 0 0 0 0 0 0 0 0 0 0 0 0 0 0 0 0 0 0 0 0 0 0 0 0 0 0 0 0 0 0 0 0 0 0 0 0 0 0 0 0 0 0 0 0 0 0 0 0 0 0 0 0 0 0 0 0 0 0 0 0 0 0 0 0 0 0 0 0 0 0 0 0 0 0 0 0 0 0 0 0 0 0 0 0 0 0 0 0 0 0 0 0 0 0 0 0 0 0 0 0 0 0 0 0 0 0 0 0 0 0 0 0 0 0 0 0 0 0 0 0 0 0 0 0 0 0 0 0 0 0 0 0 0 0 0 0 0 0 0 ",
"0 0 0 0 0 0 0 0 0 0 0 0 0 0 0 0 0 0 0 0 0 0 0 0 0 0 0 0 0 0 0 0 0 0 0 0 0 0 0 0 0 0 0 0 0 0 0 0 0 0 0 0 0 0 0 0 0 0 0 0 0 0 0 0 0 0 0 0 0 0 0 0 0 0 0 0 0 0 0 0 0 0 0 0 0 0 0 0 0 0 0 0 0 0 0 0 0 0 0 0 0 0 0 0 0 0 0 0 0 0 0 0 0 0 0 0 0 0 0 0 0 0 0 0 0 0 0 0 0 0 0 0 0 0 0 0 0 0 0 0 0 0 0 0 0 0 0 0 0 0 0 0 0 0 0 0 0 0 0 0 0 0 0 0 0 0 0 0 0 0 0 0 0 0 0 0 0 0 0 0 0 0 0 0 0 0 0 0 0 0 0 0   - 1 } m -.f d q v S .. . .%.Y ..G F F E E B z y s r u x y s x t 8 J s z q 8 2   0.7 0 0 0 0 0 0 0 0 0 0 7     #.= -.0 0 0 0 0 0 0 0 0 0 0 0 0 0 0 0 0 0 0 0 0 0 0 0 0 0 0 0 0 0 0 0 0 0 0 0 0 0 0 0 0 0 0 0 0 0 0 0 0 0 0 0 0 0 0 0 0 0 0 0 0 0 0 0 0 0 0 0 0 0 0 0 0 0 0 0 0 0 0 0 0 0 0 0 0 0 0 0 0 0 0 0 0 0 0 0 0 0 0 0 0 0 0 0 0 0 0 0 0 0 0 0 0 0 0 0 0 0 0 0 0 0 0 0 0 0 0 0 0 0 0 0 0 0 0 0 0 0 0 0 0 0 0 0 0 0 0 0 0 0 0 0 0 0 0 0 0 0 0 0 0 0 0 0 0 0 0 0 0 0 0 0 0 0 0 0 0 0 0 0 0 0 0 0 0 0 0 0 0 0 0 0 0 0 0 0 0 0 0 0 0 0 0 0 0 0 0 0 0 0 0 0 0 0 0 0 0 0 0 0 0 0 0 0 0 0 0 0 0 0 0 0 0 0 0 0 0 0 0 0 0 0 0 0 0 0 0 0 0 0 0 0 0 0 0 0 0 0 0 0 0 ",
"0 0 0 0 0 0 0 0 0 0 0 0 0 0 0 0 0 0 0 0 0 0 0 0 0 0 0 0 0 0 0 0 0 0 0 0 0 0 0 0 0 0 0 0 0 0 0 0 0 0 0 0 0 0 0 0 0 0 0 0 0 0 0 0 0 0 0 0 0 0 0 0 0 0 0 0 0 0 0 0 0 0 0 0 0 0 0 0 0 0 0 0 0 0 0 0 0 0 0 0 0 0 0 0 0 0 0 0 0 0 0 0 0 0 0 0 0 0 0 0 0 0 0 0 0 0 0 0 0 0 0 0 0 0 0 0 0 0 0 0 0 0 0 0 0 0 0 0 0 0 0 0 0 0 0 0 0 0 0 0 0 0 0 0 0 0 0 0 0 0 0 0 0 0 0 0 0 0 0 0 0 0 0 0 0 0 0 0 0 0 0 0 7 7 2 9 t 8 m 0 C++.`  .$.$.^. .X W Q V &.I F L y y y y y x u R J J r 8 J J C 8 _ 3   t 0 7 -.0 0 0 7 0 -.    , < 3 2 0 0 0 0 0 0 0 0 0 0 0 0 0 0 0 0 0 0 0 0 0 0 0 0 0 0 0 0 0 0 0 0 0 0 0 0 0 0 0 0 0 0 0 0 0 0 0 0 0 0 0 0 0 0 0 0 0 0 0 0 0 0 0 0 0 0 0 0 0 0 0 0 0 0 0 0 0 0 0 0 0 0 0 0 0 0 0 0 0 0 0 0 0 0 0 0 0 0 0 0 0 0 0 0 0 0 0 0 0 0 0 0 0 0 0 0 0 0 0 0 0 0 0 0 0 0 0 0 0 0 0 0 0 0 0 0 0 0 0 0 0 0 0 0 0 0 0 0 0 0 0 0 0 0 0 0 0 0 0 0 0 0 0 0 0 0 0 0 0 0 0 0 0 0 0 0 0 0 0 0 0 0 0 0 0 0 0 0 0 0 0 0 0 0 0 0 0 0 0 0 0 0 0 0 0 0 0 0 0 0 0 0 0 0 0 0 0 0 0 0 0 0 0 0 0 0 0 0 0 0 0 0 0 0 0 0 0 0 0 0 0 0 0 0 0 0 0 0 0 0 0 0 0 0 0 0 0 0 0 0 0 ",
"0 0 0 0 0 0 0 0 0 0 0 0 0 0 0 0 0 0 0 0 0 0 0 0 0 0 0 0 0 0 0 0 0 0 0 0 0 0 0 0 0 0 0 0 0 0 0 0 0 0 0 0 0 0 0 0 0 0 0 0 0 0 0 0 0 0 0 0 0 0 0 0 0 0 0 0 0 0 0 0 0 0 0 0 0 0 0 0 0 0 0 0 0 0 0 0 0 0 0 0 0 0 0 0 0 0 0 0 0 0 0 0 0 0 0 0 0 0 0 0 0 0 0 0 0 0 0 0 0 0 0 0 0 0 0 0 0 0 0 0 0 0 0 0 0 0 0 0 0 0 0 0 0 0 0 0 0 0 0 0 0 0 0 0 0 0 0 0 0 0 0 0 0 0 0 0 0 0 0 0 0 0 0 0 0 0 0 0 0 0 0 0 0 0 0 0 0 0 0 0 d q o B+..V Q @.G F B B F F I @.I B y s s O y s J R x J x J t t 8 _ ' - t       -.t 6 0 b   < - 3 N * 8 0 0 0 0 0 0 0 0 0 0 0 0 0 0 0 0 0 0 0 0 0 0 0 0 0 0 0 0 0 0 0 0 0 0 0 0 0 0 0 0 0 0 0 0 0 0 0 0 0 0 0 0 0 0 0 0 0 0 0 0 0 0 0 0 0 0 0 0 0 0 0 0 0 0 0 0 0 0 0 0 0 0 0 0 0 0 0 0 0 0 0 0 0 0 0 0 0 0 0 0 0 0 0 0 0 0 0 0 0 0 0 0 0 0 0 0 0 0 0 0 0 0 0 0 0 0 0 0 0 0 0 0 0 0 0 0 0 0 0 0 0 0 0 0 0 0 0 0 0 0 0 0 0 0 0 0 0 0 0 0 0 0 0 0 0 0 0 0 0 0 0 0 0 0 0 0 0 0 0 0 0 0 0 0 0 0 0 0 0 0 0 0 0 0 0 0 0 0 0 0 0 0 0 0 0 0 0 0 0 0 0 0 0 0 0 0 0 0 0 0 0 0 0 0 0 0 0 0 0 0 0 0 0 0 0 0 0 0 0 0 0 0 0 0 0 0 0 0 0 0 0 0 0 0 0 0 0 0 0 0 ",
"0 0 0 0 0 0 0 0 0 0 0 0 0 0 0 0 0 0 0 0 0 0 0 0 0 0 0 0 0 0 0 0 0 0 0 0 0 0 0 0 0 0 0 0 0 0 0 0 0 0 0 0 0 0 0 0 0 0 0 0 0 0 0 0 0 0 0 0 0 0 0 0 0 0 0 0 0 0 0 0 0 0 0 0 0 0 0 0 0 0 0 0 0 0 0 0 0 0 0 0 0 0 0 0 0 0 0 0 0 0 0 0 0 0 0 0 0 0 0 0 0 0 0 0 0 0 0 0 0 0 0 0 0 0 0 0 0 0 0 0 0 0 0 0 0 0 0 0 0 0 0 0 0 0 0 0 0 0 0 0 0 0 0 0 0 0 0 0 0 0 0 0 0 0 0 0 0 0 0 0 0 0 0 0 0 0 0 0 0 0 0 0 0 0 0 0 0 0 0 0 d     t 8 t } : : : : j u u u u x y y s J 8 J x x x x x x J x J j t k ] !             g , < - D N g 3   f 7 -.  f 0 0 0 0 0 0 0 0 0 0 0 0 0 0 0 0 0 0 0 0 0 0 0 0 0 0 0 0 0 0 0 0 0 0 0 0 0 0 0 0 0 0 0 0 0 0 0 0 0 0 0 0 0 0 0 0 0 0 0 0 0 0 0 0 0 0 0 0 0 0 0 0 0 0 0 0 0 0 0 0 0 0 0 0 0 0 0 0 0 0 0 0 0 0 0 0 0 0 0 0 0 0 0 0 0 0 0 0 0 0 0 0 0 0 0 0 0 0 0 0 0 0 0 0 0 0 0 0 0 0 0 0 0 0 0 0 0 0 0 0 0 0 0 0 0 0 0 0 0 0 0 0 0 0 0 0 0 0 0 0 0 0 0 0 0 0 0 0 0 0 0 0 0 0 0 0 0 0 0 0 0 0 0 0 0 0 0 0 0 0 0 0 0 0 0 0 0 0 0 0 0 0 0 0 0 0 0 0 0 0 0 0 0 0 0 0 0 0 0 0 0 0 0 0 0 0 0 0 0 0 0 0 0 0 0 0 0 0 0 0 0 0 0 0 0 0 0 0 0 0 0 0 0 0 0 ",
"0 0 0 0 0 0 0 0 0 0 0 0 0 0 0 0 0 0 0 0 0 0 0 0 0 0 0 0 0 0 0 0 0 0 0 0 0 0 0 0 0 0 0 0 0 0 0 0 0 0 0 0 0 0 0 0 0 0 0 0 0 0 0 0 0 0 0 0 0 0 0 0 0 0 0 0 0 0 0 0 0 0 0 0 0 0 0 0 0 0 0 0 0 0 0 0 0 0 0 0 0 0 0 0 0 0 0 0 0 0 0 0 0 0 0 0 0 0 0 0 0 0 0 0 0 0 0 0 0 0 0 0 0 0 0 0 0 0 0 0 0 0 0 0 0 0 0 0 0 0 0 0 0 0 0 0 0 0 0 0 0 0 0 0 0 0 0 0 0 0 0 0 0 0 0 0 0 0 0 0 0 0 0 0 0 0 0 0 0 0 0 0 0 0 0 0 0 0 0 8 } : j j j j k j j u j J x x s s C z z z C e f J u J x x s x x u J k k k ( 0.          , < 0.D 2 g l 2 - 2 7 t     7 0 0 0 0 0 0 0 0 0 0 0 0 0 0 0 0 0 0 0 0 0 0 0 0 0 0 0 0 0 0 0 0 0 0 0 0 0 0 0 0 0 0 0 0 0 0 0 0 0 0 0 0 0 0 0 0 0 0 0 0 0 0 0 0 0 0 0 0 0 0 0 0 0 0 0 0 0 0 0 0 0 0 0 0 0 0 0 0 0 0 0 0 0 0 0 0 0 0 0 0 0 0 0 0 0 0 0 0 0 0 0 0 0 0 0 0 0 0 0 0 0 0 0 0 0 0 0 0 0 0 0 0 0 0 0 0 0 0 0 0 0 0 0 0 0 0 0 0 0 0 0 0 0 0 0 0 0 0 0 0 0 0 0 0 0 0 0 0 0 0 0 0 0 0 0 0 0 0 0 0 0 0 0 0 0 0 0 0 0 0 0 0 0 0 0 0 0 0 0 0 0 0 0 0 0 0 0 0 0 0 0 0 0 0 0 0 0 0 0 0 0 0 0 0 0 0 0 0 0 0 0 0 0 0 0 0 0 0 0 0 0 0 0 0 0 0 0 0 0 0 0 0 0 0 ",
"0 0 0 0 0 0 0 0 0 0 0 0 0 0 0 0 0 0 0 0 0 0 0 0 0 0 0 0 0 0 0 0 0 0 0 0 0 0 0 0 0 0 0 0 0 0 0 0 0 0 0 0 0 0 0 0 0 0 0 0 0 0 0 0 0 0 0 0 0 0 0 0 0 0 0 0 0 0 0 0 0 0 0 0 0 0 0 0 0 0 0 0 0 0 0 0 0 0 0 0 0 0 0 0 0 0 0 0 0 0 0 0 0 0 0 0 0 0 0 0 0 0 0 0 0 0 0 0 0 0 0 0 0 0 0 0 0 0 0 0 0 0 0 0 0 0 0 0 0 0 0 0 0 0 0 0 0 0 0 0 0 0 0 0 0 0 0 0 0 0 0 0 0 0 0 0 0 0 0 0 0 0 0 0 0 0 0 0 0 0 0 0 0 0 0 0 0 7 k j J u u u j j j : t J x s y y s x s s y z E F I F B y x u u u R R u J j k k ( D         - - ' b g g /.k 2 3 m         0 0 0 0 0 0 0 0 0 0 0 0 0 0 0 0 0 0 0 0 0 0 0 0 0 0 0 0 0 0 0 0 0 0 0 0 0 0 0 0 0 0 0 0 0 0 0 0 0 0 0 0 0 0 0 0 0 0 0 0 0 0 0 0 0 0 0 0 0 0 0 0 0 0 0 0 0 0 0 0 0 0 0 0 0 0 0 0 0 0 0 0 0 0 0 0 0 0 0 0 0 0 0 0 0 0 0 0 0 0 0 0 0 0 0 0 0 0 0 0 0 0 0 0 0 0 0 0 0 0 0 0 0 0 0 0 0 0 0 0 0 0 0 0 0 0 0 0 0 0 0 0 0 0 0 0 0 0 0 0 0 0 0 0 0 0 0 0 0 0 0 0 0 0 0 0 0 0 0 0 0 0 0 0 0 0 0 0 0 0 0 0 0 0 0 0 0 0 0 0 0 0 0 0 0 0 0 0 0 0 0 0 0 0 0 0 0 0 0 0 0 0 0 0 0 0 0 0 0 0 0 0 0 0 0 0 0 0 0 0 0 0 0 0 0 0 0 0 0 0 0 0 0 0 ",
"0 0 0 0 0 0 0 0 0 0 0 0 0 0 0 0 0 0 0 0 0 0 0 0 0 0 0 0 0 0 0 0 0 0 0 0 0 0 0 0 0 0 0 0 0 0 0 0 0 0 0 0 0 0 0 0 0 0 0 0 0 0 0 0 0 0 0 0 0 0 0 0 0 0 0 0 0 0 0 0 0 0 0 0 0 0 0 0 0 0 0 0 0 0 0 0 0 0 0 0 0 0 0 0 0 0 0 0 0 0 0 0 0 0 0 0 0 0 0 0 0 0 0 0 0 0 0 0 0 0 0 0 0 0 0 0 0 0 0 0 0 0 0 0 0 0 0 0 0 0 0 0 0 0 0 0 0 0 0 0 0 0 0 0 0 0 0 0 0 0 0 0 0 0 0 0 0 0 0 0 0 0 0 0 0 0 0 0 0 0 0 0 0 0 0 -.8 2 J s J j k j t 7 7 m r s y C z C C z =.B z C C C z B E F E C x x J u u j u u j k : D     0.3 D ' g g l /.j k g 2         t 0 0 0 0 0 0 0 0 0 0 0 0 0 0 0 0 0 0 0 0 0 0 0 0 0 0 0 0 0 0 0 0 0 0 0 0 0 0 0 0 0 0 0 0 0 0 0 0 0 0 0 0 0 0 0 0 0 0 0 0 0 0 0 0 0 0 0 0 0 0 0 0 0 0 0 0 0 0 0 0 0 0 0 0 0 0 0 0 0 0 0 0 0 0 0 0 0 0 0 0 0 0 0 0 0 0 0 0 0 0 0 0 0 0 0 0 0 0 0 0 0 0 0 0 0 0 0 0 0 0 0 0 0 0 0 0 0 0 0 0 0 0 0 0 0 0 0 0 0 0 0 0 0 0 0 0 0 0 0 0 0 0 0 0 0 0 0 0 0 0 0 0 0 0 0 0 0 0 0 0 0 0 0 0 0 0 0 0 0 0 0 0 0 0 0 0 0 0 0 0 0 0 0 0 0 0 0 0 0 0 0 0 0 0 0 0 0 0 0 0 0 0 0 0 0 0 0 0 0 0 0 0 0 0 0 0 0 0 0 0 0 0 0 0 0 0 0 0 0 0 0 0 0 ",
"0 0 0 0 0 0 0 0 0 0 0 0 0 0 0 0 0 0 0 0 0 0 0 0 0 0 0 0 0 0 0 0 0 0 0 0 0 0 0 0 0 0 0 0 0 0 0 0 0 0 0 0 0 0 0 0 0 0 0 0 0 0 0 0 0 0 0 0 0 0 0 0 0 0 0 0 0 0 0 0 0 0 0 0 0 0 0 0 0 0 0 0 0 0 0 0 0 0 0 0 0 0 0 0 0 0 0 0 0 0 0 0 0 0 0 0 0 0 0 0 0 0 0 0 0 0 0 0 0 0 0 0 0 0 0 0 0 0 0 0 0 0 0 0 0 0 0 0 0 0 0 0 0 0 0 0 0 0 0 0 0 0 0 0 0 0 0 0 0 0 0 0 0 0 0 0 0 0 0 0 0 0 0 0 0 0 0 0 0 0 0 0 0 6 _ 2 2 r J J j j 8 r r d z E F E z C y s y y C B B B B C C d d z q C z s s s x u j j j j j : 2 0.D A 2 b g l l /.1.1.j 2           e 0 0 0 0 0 0 0 0 0 0 0 0 0 0 0 0 0 0 0 0 0 0 0 0 0 0 0 0 0 0 0 0 0 0 0 0 0 0 0 0 0 0 0 0 0 0 0 0 0 0 0 0 0 0 0 0 0 0 0 0 0 0 0 0 0 0 0 0 0 0 0 0 0 0 0 0 0 0 0 0 0 0 0 0 0 0 0 0 0 0 0 0 0 0 0 0 0 0 0 0 0 0 0 0 0 0 0 0 0 0 0 0 0 0 0 0 0 0 0 0 0 0 0 0 0 0 0 0 0 0 0 0 0 0 0 0 0 0 0 0 0 0 0 0 0 0 0 0 0 0 0 0 0 0 0 0 0 0 0 0 0 0 0 0 0 0 0 0 0 0 0 0 0 0 0 0 0 0 0 0 0 0 0 0 0 0 0 0 0 0 0 0 0 0 0 0 0 0 0 0 0 0 0 0 0 0 0 0 0 0 0 0 0 0 0 0 0 0 0 0 0 0 0 0 0 0 0 0 0 0 0 0 0 0 0 0 0 0 0 0 0 0 0 0 0 0 0 0 0 0 0 0 ",
"0 0 0 0 0 0 0 0 0 0 0 0 0 0 0 0 0 0 0 0 0 0 0 0 0 0 0 0 0 0 0 0 0 0 0 0 0 0 0 0 0 0 0 0 0 0 0 0 0 0 0 0 0 0 0 0 0 0 0 0 0 0 0 0 0 0 0 0 0 0 0 0 0 0 0 0 0 0 0 0 0 0 0 0 0 0 0 0 0 0 0 0 0 0 0 0 0 0 0 0 0 0 0 0 0 0 0 0 0 0 0 0 0 0 0 0 0 0 0 0 0 0 0 0 0 0 0 0 0 0 0 0 0 0 0 0 0 0 0 0 0 0 0 0 0 0 0 0 0 0 0 0 0 0 0 0 0 0 0 0 0 0 0 0 0 0 0 0 0 0 0 0 0 0 0 0 0 0 0 0 0 0 0 0 0 0 0 0 0 0 0 6 } ( _ _ t t J J s s s e C s s 7 s s r e d z B z B B z C z E B z B d z z e e s C y y s x u u j j j k 2 b ( b l k k l R 1.u j (     -   1.q 0 0 0 0 0 0 0 0 0 0 0 0 0 0 0 0 0 0 0 0 0 0 0 0 0 0 0 0 0 0 0 0 0 0 0 0 0 0 0 0 0 0 0 0 0 0 0 0 0 0 0 0 0 0 0 0 0 0 0 0 0 0 0 0 0 0 0 0 0 0 0 0 0 0 0 0 0 0 0 0 0 0 0 0 0 0 0 0 0 0 0 0 0 0 0 0 0 0 0 0 0 0 0 0 0 0 0 0 0 0 0 0 0 0 0 0 0 0 0 0 0 0 0 0 0 0 0 0 0 0 0 0 0 0 0 0 0 0 0 0 0 0 0 0 0 0 0 0 0 0 0 0 0 0 0 0 0 0 0 0 0 0 0 0 0 0 0 0 0 0 0 0 0 0 0 0 0 0 0 0 0 0 0 0 0 0 0 0 0 0 0 0 0 0 0 0 0 0 0 0 0 0 0 0 0 0 0 0 0 0 0 0 0 0 0 0 0 0 0 0 0 0 0 0 0 0 0 0 0 0 0 0 0 0 0 0 0 0 0 0 0 0 0 0 0 0 0 0 0 0 0 ",
"0 0 0 0 0 0 0 0 0 0 0 0 0 0 0 0 0 0 0 0 0 0 0 0 0 0 0 0 0 0 0 0 0 0 0 0 0 0 0 0 0 0 0 0 0 0 0 0 0 0 0 0 0 0 0 0 0 0 0 0 0 0 0 0 0 0 0 0 0 0 0 0 0 0 0 0 0 0 0 0 0 0 0 0 0 0 0 0 0 0 0 0 0 0 0 0 0 0 0 0 0 0 0 0 0 0 0 0 0 0 0 0 0 0 0 0 0 0 0 0 0 0 0 0 0 0 0 0 0 0 0 0 0 0 0 0 0 0 0 0 0 0 0 0 0 0 0 0 0 0 0 0 0 0 0 0 0 0 0 0 0 0 0 0 0 0 0 0 0 0 0 0 0 0 0 0 0 0 0 0 0 0 0 0 0 0 0 0 0 0 f :     D } } t r C y s r u r s e C z B z B B E E B B B B B B z E E E v p q q z v y s y C s s x x u j k k k 2 g l j l l l R O j : 0.  0.<     (.0 -.0 0 0 0 0 0 0 0 0 0 0 0 0 0 0 0 0 0 0 0 0 0 0 0 0 0 0 0 0 0 0 0 0 0 0 0 0 0 0 0 0 0 0 0 0 0 0 0 0 0 0 0 0 0 0 0 0 0 0 0 0 0 0 0 0 0 0 0 0 0 0 0 0 0 0 0 0 0 0 0 0 0 0 0 0 0 0 0 0 0 0 0 0 0 0 0 0 0 0 0 0 0 0 0 0 0 0 0 0 0 0 0 0 0 0 0 0 0 0 0 0 0 0 0 0 0 0 0 0 0 0 0 0 0 0 0 0 0 0 0 0 0 0 0 0 0 0 0 0 0 0 0 0 0 0 0 0 0 0 0 0 0 0 0 0 0 0 0 0 0 0 0 0 0 0 0 0 0 0 0 0 0 0 0 0 0 0 0 0 0 0 0 0 0 0 0 0 0 0 0 0 0 0 0 0 0 0 0 0 0 0 0 0 0 0 0 0 0 0 0 0 0 0 0 0 0 0 0 0 0 0 0 0 0 0 0 0 0 0 0 0 0 0 0 0 0 0 0 ",
"0 0 0 0 0 0 0 0 0 0 0 0 0 0 0 0 0 0 0 0 0 0 0 0 0 0 0 0 0 0 0 0 0 0 0 0 0 0 0 0 0 0 0 0 0 0 0 0 0 0 0 0 0 0 0 0 0 0 0 0 0 0 0 0 0 0 0 0 0 0 0 0 0 0 0 0 0 0 0 0 0 0 0 0 0 0 0 0 0 0 0 0 0 0 0 0 0 0 0 0 0 0 0 0 0 0 0 0 0 0 0 0 0 0 0 0 0 0 0 0 0 0 0 0 0 0 0 0 0 0 0 0 0 0 0 0 0 0 0 0 0 0 0 0 0 0 0 0 0 0 0 0 0 0 0 0 0 0 0 0 0 0 0 0 0 0 0 0 0 0 0 0 0 0 0 0 0 0 0 0 0 0 0 0 0 0 0 0 0 0 0 -.  3 : : j J x u : t f p H G G Q W Q Q I F F I Q @.K F F E B z B E B E F F B q B z e s s s s s x J u j j k g g l g j j l /.x u : ( { ! ~ 2 q 0 t -.-.0 0 0 0 0 0 0 0 0 0 0 0 0 0 0 0 0 0 0 0 0 0 0 0 0 0 0 0 0 0 0 0 0 0 0 0 0 0 0 0 0 0 0 0 0 0 0 0 0 0 0 0 0 0 0 0 0 0 0 0 0 0 0 0 0 0 0 0 0 0 0 0 0 0 0 0 0 0 0 0 0 0 0 0 0 0 0 0 0 0 0 0 0 0 0 0 0 0 0 0 0 0 0 0 0 0 0 0 0 0 0 0 0 0 0 0 0 0 0 0 0 0 0 0 0 0 0 0 0 0 0 0 0 0 0 0 0 0 0 0 0 0 0 0 0 0 0 0 0 0 0 0 0 0 0 0 0 0 0 0 0 0 0 0 0 0 0 0 0 0 0 0 0 0 0 0 0 0 0 0 0 0 0 0 0 0 0 0 0 0 0 0 0 0 0 0 0 0 0 0 0 0 0 0 0 0 0 0 0 0 0 0 0 0 0 0 0 0 0 0 0 0 0 0 0 0 0 0 0 0 0 0 0 0 0 0 0 0 0 0 0 0 0 0 0 0 ",
"0 0 0 0 0 0 0 0 0 0 0 0 0 0 0 0 0 0 0 0 0 0 0 0 0 0 0 0 0 0 0 0 0 0 0 0 0 0 0 0 0 0 0 0 0 0 0 0 0 0 0 0 0 0 0 0 0 0 0 0 0 0 0 0 0 0 0 0 0 0 0 0 0 0 0 0 0 0 0 0 0 0 0 0 0 0 0 0 0 0 0 0 0 0 0 0 0 0 0 0 0 0 0 0 0 0 0 0 0 0 0 0 0 0 0 0 0 0 0 0 0 0 0 0 0 0 0 0 0 0 0 0 0 0 0 0 0 0 0 0 0 0 0 0 0 0 0 0 0 0 0 0 0 0 0 0 0 0 0 0 0 0 0 0 0 0 0 0 0 0 0 0 0 0 0 0 0 0 0 0 0 0 0 0 0 0 0 0 0 0 -.} N : t j s J t 8 e w H S F I G ..W W I I S H I Q @.Q G I I G F B z C C C C B z z z z B e y x y s x J u j k j k k g g j k l x u j } 1 A ' D   -.8   J 8 0 0 0 0 0 0 0 0 0 0 0 0 0 0 0 0 0 0 0 0 0 0 0 0 0 0 0 0 0 0 0 0 0 0 0 0 0 0 0 0 0 0 0 0 0 0 0 0 0 0 0 0 0 0 0 0 0 0 0 0 0 0 0 0 0 0 0 0 0 0 0 0 0 0 0 0 0 0 0 0 0 0 0 0 0 0 0 0 0 0 0 0 0 0 0 0 0 0 0 0 0 0 0 0 0 0 0 0 0 0 0 0 0 0 0 0 0 0 0 0 0 0 0 0 0 0 0 0 0 0 0 0 0 0 0 0 0 0 0 0 0 0 0 0 0 0 0 0 0 0 0 0 0 0 0 0 0 0 0 0 0 0 0 0 0 0 0 0 0 0 0 0 0 0 0 0 0 0 0 0 0 0 0 0 0 0 0 0 0 0 0 0 0 0 0 0 0 0 0 0 0 0 0 0 0 0 0 0 0 0 0 0 0 0 0 0 0 0 0 0 0 0 0 0 0 0 0 0 0 0 0 0 0 0 0 0 0 0 0 0 0 0 0 0 0 ",
"0 0 0 0 0 0 0 0 0 0 0 0 0 0 0 0 0 0 0 0 0 0 0 0 0 0 0 0 0 0 0 0 0 0 0 0 0 0 0 0 0 0 0 0 0 0 0 0 0 0 0 0 0 0 0 0 0 0 0 0 0 0 0 0 0 0 0 0 0 0 0 0 0 0 0 0 0 0 0 0 0 0 0 0 0 0 0 0 0 0 0 0 0 0 0 0 0 0 0 0 0 0 0 0 0 0 0 0 0 0 0 0 0 0 0 0 0 0 0 0 0 0 0 0 0 0 0 0 0 0 0 0 0 0 0 0 0 0 0 0 0 0 0 0 0 0 0 0 0 0 0 0 0 0 0 0 0 0 0 0 0 0 0 0 0 0 0 0 0 0 0 0 0 0 0 0 0 0 0 0 0 0 0 0 0 0 0 0 0 -.g b k 8 k 8 } t (.v T G G I T G G K F F I Q V G H F G V &.V Q K I I E e s s s s C z C C C z B z C z z y r J j j t j k k g g g k j k u t } _ D     0       8 0 0 0 0 0 0 0 0 0 0 0 0 0 0 0 0 0 0 0 0 0 0 0 0 0 0 0 0 0 0 0 0 0 0 0 0 0 0 0 0 0 0 0 0 0 0 0 0 0 0 0 0 0 0 0 0 0 0 0 0 0 0 0 0 0 0 0 0 0 0 0 0 0 0 0 0 0 0 0 0 0 0 0 0 0 0 0 0 0 0 0 0 0 0 0 0 0 0 0 0 0 0 0 0 0 0 0 0 0 0 0 0 0 0 0 0 0 0 0 0 0 0 0 0 0 0 0 0 0 0 0 0 0 0 0 0 0 0 0 0 0 0 0 0 0 0 0 0 0 0 0 0 0 0 0 0 0 0 0 0 0 0 0 0 0 0 0 0 0 0 0 0 0 0 0 0 0 0 0 0 0 0 0 0 0 0 0 0 0 0 0 0 0 0 0 0 0 0 0 0 0 0 0 0 0 0 0 0 0 0 0 0 0 0 0 0 0 0 0 0 0 0 0 0 0 0 0 0 0 0 0 0 0 0 0 0 0 0 0 0 0 0 0 0 ",
"0 0 0 0 0 0 0 0 0 0 0 0 0 0 0 0 0 0 0 0 0 0 0 0 0 0 0 0 0 0 0 0 0 0 0 0 0 0 0 0 0 0 0 0 0 0 0 0 0 0 0 0 0 0 0 0 0 0 0 0 0 0 0 0 0 0 0 0 0 0 0 0 0 0 0 0 0 0 0 0 0 0 0 0 0 0 0 0 0 0 0 0 0 0 0 0 0 0 0 0 0 0 0 0 0 0 0 0 0 0 0 0 0 0 0 0 0 0 0 0 0 0 0 0 0 0 0 0 0 0 0 0 0 0 0 0 0 0 0 0 0 0 0 0 0 0 0 0 0 0 0 0 0 0 0 0 0 0 0 0 0 0 0 0 0 0 0 0 0 0 0 0 0 0 0 0 0 0 0 0 0 0 0 0 0 0 0 0 -._ 2 g j k j } ).p G G F E E F I F v q v C+w E I Q V ..H F I Q W @.F 4.F F z y f s s s C z y y z z z E y C B e s j j u j j k l l 2 l 2 2 u j ( i b   (.          0 0 0 0 0 0 0 0 0 0 0 0 0 0 0 0 0 0 0 0 0 0 0 0 0 0 0 0 0 0 0 0 0 0 0 0 0 0 0 0 0 0 0 0 0 0 0 0 0 0 0 0 0 0 0 0 0 0 0 0 0 0 0 0 0 0 0 0 0 0 0 0 0 0 0 0 0 0 0 0 0 0 0 0 0 0 0 0 0 0 0 0 0 0 0 0 0 0 0 0 0 0 0 0 0 0 0 0 0 0 0 0 0 0 0 0 0 0 0 0 0 0 0 0 0 0 0 0 0 0 0 0 0 0 0 0 0 0 0 0 0 0 0 0 0 0 0 0 0 0 0 0 0 0 0 0 0 0 0 0 0 0 0 0 0 0 0 0 0 0 0 0 0 0 0 0 0 0 0 0 0 0 0 0 0 0 0 0 0 0 0 0 0 0 0 0 0 0 0 0 0 0 0 0 0 0 0 0 0 0 0 0 0 0 0 0 0 0 0 0 0 0 0 0 0 0 0 0 0 0 0 0 0 0 0 0 0 0 0 0 0 0 0 ",
"0 0 0 0 0 0 0 0 0 0 0 0 0 0 0 0 0 0 0 0 0 0 0 0 0 0 0 0 0 0 0 0 0 0 0 0 0 0 0 0 0 0 0 0 0 0 0 0 0 0 0 0 0 0 0 0 0 0 0 0 0 0 0 0 0 0 0 0 0 0 0 0 0 0 0 0 0 0 0 0 0 0 0 0 0 0 0 0 0 0 0 0 0 0 0 0 0 0 0 0 0 0 0 0 0 0 0 0 0 0 0 0 0 0 0 0 0 0 0 0 0 0 0 0 0 0 0 0 0 0 0 0 0 0 0 0 0 0 0 0 0 0 0 0 0 0 0 0 0 0 0 0 0 0 0 0 0 0 0 0 0 0 0 0 0 0 0 0 0 0 0 0 0 0 0 0 0 0 0 0 0 0 0 0 0 0 0 0 2 ( 2 2 j j f v H w E B w H Q G H w H *.` ` Y *.......V V I @.I F K K K 4.F E B C y y r x y z C y C z E E z C C B s j u j j u k k l l 2 2 g l g _ 2 b t s         6 0 0 0 0 0 0 0 0 0 0 0 0 0 0 0 0 0 0 0 0 0 0 0 0 0 0 0 0 0 0 0 0 0 0 0 0 0 0 0 0 0 0 0 0 0 0 0 0 0 0 0 0 0 0 0 0 0 0 0 0 0 0 0 0 0 0 0 0 0 0 0 0 0 0 0 0 0 0 0 0 0 0 0 0 0 0 0 0 0 0 0 0 0 0 0 0 0 0 0 0 0 0 0 0 0 0 0 0 0 0 0 0 0 0 0 0 0 0 0 0 0 0 0 0 0 0 0 0 0 0 0 0 0 0 0 0 0 0 0 0 0 0 0 0 0 0 0 0 0 0 0 0 0 0 0 0 0 0 0 0 0 0 0 0 0 0 0 0 0 0 0 0 0 0 0 0 0 0 0 0 0 0 0 0 0 0 0 0 0 0 0 0 0 0 0 0 0 0 0 0 0 0 0 0 0 0 0 0 0 0 0 0 0 0 0 0 0 0 0 0 0 0 0 0 0 0 0 0 0 0 0 0 0 0 0 0 0 0 0 0 0 0 ",
"0 0 0 0 0 0 0 0 0 0 0 0 0 0 0 0 0 0 0 0 0 0 0 0 0 0 0 0 0 0 0 0 0 0 0 0 0 0 0 0 0 0 0 0 0 0 0 0 0 0 0 0 0 0 0 0 0 0 0 0 0 0 0 0 0 0 0 0 0 0 0 0 0 0 0 0 0 0 0 0 0 0 0 0 0 0 0 0 0 0 0 0 0 0 0 0 0 0 0 0 0 0 0 0 0 0 0 0 0 0 0 0 0 0 0 0 0 0 0 0 0 0 0 0 0 0 0 0 0 0 0 0 0 0 0 0 0 0 0 0 0 0 0 0 0 0 0 0 0 0 0 0 0 0 0 0 0 0 0 0 0 0 0 0 0 0 0 0 0 0 0 0 0 0 0 0 0 0 0 0 0 0 0 0 0 0 0 8 D : 2 : } s B B p v v B+*.V T H T *.*.V ....V W ..Q W V &.%.I I I E E B E F K F z y z B s x s C z y s C F I B y y C J u u u j j k j l k k 2 2 b N _ b D r         b 0 0 0 0 0 0 0 0 0 0 0 0 0 0 0 0 0 0 0 0 0 0 0 0 0 0 0 0 0 0 0 0 0 0 0 0 0 0 0 0 0 0 0 0 0 0 0 0 0 0 0 0 0 0 0 0 0 0 0 0 0 0 0 0 0 0 0 0 0 0 0 0 0 0 0 0 0 0 0 0 0 0 0 0 0 0 0 0 0 0 0 0 0 0 0 0 0 0 0 0 0 0 0 0 0 0 0 0 0 0 0 0 0 0 0 0 0 0 0 0 0 0 0 0 0 0 0 0 0 0 0 0 0 0 0 0 0 0 0 0 0 0 0 0 0 0 0 0 0 0 0 0 0 0 0 0 0 0 0 0 0 0 0 0 0 0 0 0 0 0 0 0 0 0 0 0 0 0 0 0 0 0 0 0 0 0 0 0 0 0 0 0 0 0 0 0 0 0 0 0 0 0 0 0 0 0 0 0 0 0 0 0 0 0 0 0 0 0 0 0 0 0 0 0 0 0 0 0 0 0 0 0 0 0 0 0 0 0 0 0 0 0 ",
"0 0 0 0 0 0 0 0 0 0 0 0 0 0 0 0 0 0 0 0 0 0 0 0 0 0 0 0 0 0 0 0 0 0 0 0 0 0 0 0 0 0 0 0 0 0 0 0 0 0 0 0 0 0 0 0 0 0 0 0 0 0 0 0 0 0 0 0 0 0 0 0 0 0 0 0 0 0 0 0 0 0 0 0 0 0 0 0 0 0 0 0 0 0 0 0 0 0 0 0 0 0 0 0 0 0 0 0 0 0 0 0 0 0 0 0 0 0 0 0 0 0 0 0 0 0 0 0 0 0 0 0 0 0 0 0 0 0 0 0 0 0 0 0 0 0 0 0 0 0 0 0 0 0 0 0 0 0 0 0 0 0 0 0 0 0 0 0 0 0 0 0 0 0 0 0 0 0 0 0 0 0 0 0 0 0 0 b _ k : J J e s y v H {.T w o o j.S H H H w H G G G G I K K @.@.I I K H B z C F 4.F E y C E y x s C z y y s z G v s s x J J J J j j j t u j j k k b g g b D   <   = < t d 0 0 0 0 0 0 0 0 0 0 0 0 0 0 0 0 0 0 0 0 0 0 0 0 0 0 0 0 0 0 0 0 0 0 0 0 0 0 0 0 0 0 0 0 0 0 0 0 0 0 0 0 0 0 0 0 0 0 0 0 0 0 0 0 0 0 0 0 0 0 0 0 0 0 0 0 0 0 0 0 0 0 0 0 0 0 0 0 0 0 0 0 0 0 0 0 0 0 0 0 0 0 0 0 0 0 0 0 0 0 0 0 0 0 0 0 0 0 0 0 0 0 0 0 0 0 0 0 0 0 0 0 0 0 0 0 0 0 0 0 0 0 0 0 0 0 0 0 0 0 0 0 0 0 0 0 0 0 0 0 0 0 0 0 0 0 0 0 0 0 0 0 0 0 0 0 0 0 0 0 0 0 0 0 0 0 0 0 0 0 0 0 0 0 0 0 0 0 0 0 0 0 0 0 0 0 0 0 0 0 0 0 0 0 0 0 0 0 0 0 0 0 0 0 0 0 0 0 0 0 0 0 0 0 0 0 0 0 0 0 ",
"0 0 0 0 0 0 0 0 0 0 0 0 0 0 0 0 0 0 0 0 0 0 0 0 0 0 0 0 0 0 0 0 0 0 0 0 0 0 0 0 0 0 0 0 0 0 0 0 0 0 0 0 0 0 0 0 0 0 0 0 0 0 0 0 0 0 0 0 0 0 0 0 0 0 0 0 0 0 0 0 0 0 0 0 0 0 0 0 0 0 0 0 0 0 0 0 0 0 0 0 0 0 0 0 0 0 0 0 0 0 0 0 0 0 0 0 0 0 0 0 0 0 0 0 0 0 0 0 0 0 0 0 0 0 0 0 0 0 0 0 0 0 0 0 0 0 0 0 0 0 0 0 0 0 0 0 0 0 0 0 0 0 0 0 0 0 0 0 0 0 0 0 0 0 0 0 0 0 0 0 0 0 0 0 0 0 t b u _ s r 8 8 e v U +.+.j.B+Y  . . .` Y *.*.*.T I w F G I I I I F F F K I E z C B E 4.E z C B y s s y B y O s s E E y s u u J J J j j j u u u j k k g g l 3 3 3 [.< ,     -.0 0 0 0 0 0 0 0 0 0 0 0 0 0 0 0 0 0 0 0 0 0 0 0 0 0 0 0 0 0 0 0 0 0 0 0 0 0 0 0 0 0 0 0 0 0 0 0 0 0 0 0 0 0 0 0 0 0 0 0 0 0 0 0 0 0 0 0 0 0 0 0 0 0 0 0 0 0 0 0 0 0 0 0 0 0 0 0 0 0 0 0 0 0 0 0 0 0 0 0 0 0 0 0 0 0 0 0 0 0 0 0 0 0 0 0 0 0 0 0 0 0 0 0 0 0 0 0 0 0 0 0 0 0 0 0 0 0 0 0 0 0 0 0 0 0 0 0 0 0 0 0 0 0 0 0 0 0 0 0 0 0 0 0 0 0 0 0 0 0 0 0 0 0 0 0 0 0 0 0 0 0 0 0 0 0 0 0 0 0 0 0 0 0 0 0 0 0 0 0 0 0 0 0 0 0 0 0 0 0 0 0 0 0 0 0 0 0 0 0 0 0 0 0 0 0 0 0 0 0 0 0 0 0 0 0 0 0 0 ",
"0 0 0 0 0 0 0 0 0 0 0 0 0 0 0 0 0 0 0 0 0 0 0 0 0 0 0 0 0 0 0 0 0 0 0 0 0 0 0 0 0 0 0 0 0 0 0 0 0 0 0 0 0 0 0 0 0 0 0 0 0 0 0 0 0 0 0 0 0 0 0 0 0 0 0 0 0 0 0 0 0 0 0 0 0 0 0 0 0 0 0 0 0 0 0 0 0 0 0 0 0 0 0 0 0 0 0 0 0 0 0 0 0 0 0 0 0 0 0 0 0 0 0 0 0 0 0 0 0 0 0 0 0 0 0 0 0 0 0 0 0 0 0 0 0 0 0 0 0 0 0 0 0 0 0 0 0 0 0 0 0 0 0 0 0 0 0 0 0 0 0 0 0 0 0 0 0 0 0 0 0 0 0 0 0 -.0.j t t C : r d w {.*.].+.Y ].].].;.;.Y *.G H v v H I F E B z E I I E E z F @.F C z B E B F z C L y s s y z C s s y C z z y J x x J u u j j k u u j k j l g g N 3 %+~ < -   j -.0 0 0 0 0 0 0 0 0 0 0 0 0 0 0 0 0 0 0 0 0 0 0 0 0 0 0 0 0 0 0 0 0 0 0 0 0 0 0 0 0 0 0 0 0 0 0 0 0 0 0 0 0 0 0 0 0 0 0 0 0 0 0 0 0 0 0 0 0 0 0 0 0 0 0 0 0 0 0 0 0 0 0 0 0 0 0 0 0 0 0 0 0 0 0 0 0 0 0 0 0 0 0 0 0 0 0 0 0 0 0 0 0 0 0 0 0 0 0 0 0 0 0 0 0 0 0 0 0 0 0 0 0 0 0 0 0 0 0 0 0 0 0 0 0 0 0 0 0 0 0 0 0 0 0 0 0 0 0 0 0 0 0 0 0 0 0 0 0 0 0 0 0 0 0 0 0 0 0 0 0 0 0 0 0 0 0 0 0 0 0 0 0 0 0 0 0 0 0 0 0 0 0 0 0 0 0 0 0 0 0 0 0 0 0 0 0 0 0 0 0 0 0 0 0 0 0 0 0 0 0 0 0 0 0 0 0 0 ",
"0 0 0 0 0 0 0 0 0 0 0 0 0 0 0 0 0 0 0 0 0 0 0 0 0 0 0 0 0 0 0 0 0 0 0 0 0 0 0 0 0 0 0 0 0 0 0 0 0 0 0 0 0 0 0 0 0 0 0 0 0 0 0 0 0 0 0 0 0 0 0 0 0 0 0 0 0 0 0 0 0 0 0 0 0 0 0 0 0 0 0 0 0 0 0 0 0 0 0 0 0 0 0 0 0 0 0 0 0 0 0 0 0 0 0 0 0 0 0 0 0 0 0 0 0 0 0 0 0 0 0 0 0 0 0 0 0 0 0 0 0 0 0 0 0 0 0 0 0 0 0 0 0 0 0 0 0 0 0 0 0 0 0 0 0 0 0 0 0 0 0 0 0 0 0 0 0 0 0 0 0 0 0 0 0 m b t : 0 8 e o b.{.].{.{.{.].].;.;.Y ....G H ......S v d C E v z z E Q I B B E I B z B B K L E B C C y s y C z s x x y C y z s x s s u j u u u j k u j k j l g g N 0.0.N - 3     -.0 0 0 0 0 0 0 0 0 0 0 0 0 0 0 0 0 0 0 0 0 0 0 0 0 0 0 0 0 0 0 0 0 0 0 0 0 0 0 0 0 0 0 0 0 0 0 0 0 0 0 0 0 0 0 0 0 0 0 0 0 0 0 0 0 0 0 0 0 0 0 0 0 0 0 0 0 0 0 0 0 0 0 0 0 0 0 0 0 0 0 0 0 0 0 0 0 0 0 0 0 0 0 0 0 0 0 0 0 0 0 0 0 0 0 0 0 0 0 0 0 0 0 0 0 0 0 0 0 0 0 0 0 0 0 0 0 0 0 0 0 0 0 0 0 0 0 0 0 0 0 0 0 0 0 0 0 0 0 0 0 0 0 0 0 0 0 0 0 0 0 0 0 0 0 0 0 0 0 0 0 0 0 0 0 0 0 0 0 0 0 0 0 0 0 0 0 0 0 0 0 0 0 0 0 0 0 0 0 0 0 0 0 0 0 0 0 0 0 0 0 0 0 0 0 0 0 0 0 0 0 0 0 0 0 0 0 ",
"0 0 0 0 0 0 0 0 0 0 0 0 0 0 0 0 0 0 0 0 0 0 0 0 0 0 0 0 0 0 0 0 0 0 0 0 0 0 0 0 0 0 0 0 0 0 0 0 0 0 0 0 0 0 0 0 0 0 0 0 0 0 0 0 0 0 0 0 0 0 0 0 0 0 0 0 0 0 0 0 0 0 0 0 0 0 0 0 0 0 0 0 0 0 0 0 0 0 0 0 0 0 0 0 0 0 0 0 0 0 0 0 0 0 0 0 0 0 0 0 0 0 0 0 0 0 0 0 0 0 0 0 0 0 0 0 0 0 0 0 0 0 0 0 0 0 0 0 0 0 0 0 0 0 0 0 0 0 0 0 0 0 0 0 0 0 0 0 0 0 0 0 0 0 0 0 0 0 0 0 0 0 0 0 0 6 b t ) m k.j.b.{.{.{.b.{.].;.;.$.$.$.*.H S H v w I I S ..I q z B F B B G W F B F K L B E B E =.E B C y y C y C z s s s y C C z x y s y u j u u u j j j k j j k g b N N N N 3 3     -.p 0 0 0 0 0 0 0 0 0 0 0 0 0 0 0 0 0 0 0 0 0 0 0 0 0 0 0 0 0 0 0 0 0 0 0 0 0 0 0 0 0 0 0 0 0 0 0 0 0 0 0 0 0 0 0 0 0 0 0 0 0 0 0 0 0 0 0 0 0 0 0 0 0 0 0 0 0 0 0 0 0 0 0 0 0 0 0 0 0 0 0 0 0 0 0 0 0 0 0 0 0 0 0 0 0 0 0 0 0 0 0 0 0 0 0 0 0 0 0 0 0 0 0 0 0 0 0 0 0 0 0 0 0 0 0 0 0 0 0 0 0 0 0 0 0 0 0 0 0 0 0 0 0 0 0 0 0 0 0 0 0 0 0 0 0 0 0 0 0 0 0 0 0 0 0 0 0 0 0 0 0 0 0 0 0 0 0 0 0 0 0 0 0 0 0 0 0 0 0 0 0 0 0 0 0 0 0 0 0 0 0 0 0 0 0 0 0 0 0 0 0 0 0 0 0 0 0 0 0 0 0 0 0 0 0 ",
"0 0 0 0 0 0 0 0 0 0 0 0 0 0 0 0 0 0 0 0 0 0 0 0 0 0 0 0 0 0 0 0 0 0 0 0 0 0 0 0 0 0 0 0 0 0 0 0 0 0 0 0 0 0 0 0 0 0 0 0 0 0 0 0 0 0 0 0 0 0 0 0 0 0 0 0 0 0 0 0 0 0 0 0 0 0 0 0 0 0 0 0 0 0 0 0 0 0 0 0 0 0 0 0 0 0 0 0 0 0 0 0 0 0 0 0 0 0 0 0 0 0 0 0 0 0 0 0 0 0 0 0 0 0 0 0 0 0 0 0 0 0 0 0 0 0 0 0 0 0 0 0 0 0 0 0 0 0 0 0 0 0 0 0 0 0 0 0 0 0 0 0 0 0 0 0 0 0 0 0 0 0 0 0 0 e b _ / 6 }.+.{.+.b.b.U b.+.{.]. .^.:.<.Y S w S w p F ..I G F F C C v E v F Q I F F z z B B E L B B P C y y P P C y s y y y y C s s s x s r u u J u u j j k j j k 2 2 g g g N N -     -.v 0 0 0 0 0 0 0 0 0 0 0 0 0 0 0 0 0 0 0 0 0 0 0 0 0 0 0 0 0 0 0 0 0 0 0 0 0 0 0 0 0 0 0 0 0 0 0 0 0 0 0 0 0 0 0 0 0 0 0 0 0 0 0 0 0 0 0 0 0 0 0 0 0 0 0 0 0 0 0 0 0 0 0 0 0 0 0 0 0 0 0 0 0 0 0 0 0 0 0 0 0 0 0 0 0 0 0 0 0 0 0 0 0 0 0 0 0 0 0 0 0 0 0 0 0 0 0 0 0 0 0 0 0 0 0 0 0 0 0 0 0 0 0 0 0 0 0 0 0 0 0 0 0 0 0 0 0 0 0 0 0 0 0 0 0 0 0 0 0 0 0 0 0 0 0 0 0 0 0 0 0 0 0 0 0 0 0 0 0 0 0 0 0 0 0 0 0 0 0 0 0 0 0 0 0 0 0 0 0 0 0 0 0 0 0 0 0 0 0 0 0 0 0 0 0 0 0 0 0 0 0 0 0 0 ",
"0 0 0 0 0 0 0 0 0 0 0 0 0 0 0 0 0 0 0 0 0 0 0 0 0 0 0 0 0 0 0 0 0 0 0 0 0 0 0 0 0 0 0 0 0 0 0 0 0 0 0 0 0 0 0 0 0 0 0 0 0 0 0 0 0 0 0 0 0 0 0 0 0 0 0 0 0 0 0 0 0 0 0 0 0 0 0 0 0 0 0 0 0 0 0 0 0 0 0 0 0 0 0 0 0 0 0 0 0 0 0 0 0 0 0 0 0 0 0 0 0 0 0 0 0 0 0 0 0 0 0 0 0 0 0 0 0 0 0 0 0 0 0 0 0 0 0 0 0 0 0 0 0 0 0 0 0 0 0 0 0 0 0 0 0 0 0 0 0 0 0 0 0 0 0 0 0 0 0 0 0 0 0 0 0 0 ( ) / c b.+.D+o ~.(.d ~.o }.U +.;.;.` ..&.S v G H q w ....Q F B e s f z z B E K K E z L =.B L B P E z y y y y B P y y y z e s y s y s x f r u u x J u j j j j u t _ 2 l l g N 3 3       8 0 0 0 0 0 0 0 0 0 0 0 0 0 0 0 0 0 0 0 0 0 0 0 0 0 0 0 0 0 0 0 0 0 0 0 0 0 0 0 0 0 0 0 0 0 0 0 0 0 0 0 0 0 0 0 0 0 0 0 0 0 0 0 0 0 0 0 0 0 0 0 0 0 0 0 0 0 0 0 0 0 0 0 0 0 0 0 0 0 0 0 0 0 0 0 0 0 0 0 0 0 0 0 0 0 0 0 0 0 0 0 0 0 0 0 0 0 0 0 0 0 0 0 0 0 0 0 0 0 0 0 0 0 0 0 0 0 0 0 0 0 0 0 0 0 0 0 0 0 0 0 0 0 0 0 0 0 0 0 0 0 0 0 0 0 0 0 0 0 0 0 0 0 0 0 0 0 0 0 0 0 0 0 0 0 0 0 0 0 0 0 0 0 0 0 0 0 0 0 0 0 0 0 0 0 0 0 0 0 0 0 0 0 0 0 0 0 0 0 0 0 0 0 0 0 0 0 0 0 0 0 0 0 ",
"0 0 0 0 0 0 0 0 0 0 0 0 0 0 0 0 0 0 0 0 0 0 0 0 0 0 0 0 0 0 0 0 0 0 0 0 0 0 0 0 0 0 0 0 0 0 0 0 0 0 0 0 0 0 0 0 0 0 0 0 0 0 0 0 0 0 0 0 0 0 0 0 0 0 0 0 0 0 0 0 0 0 0 0 0 0 0 0 0 0 0 0 0 0 0 0 0 0 0 0 0 0 0 0 0 0 0 0 0 0 0 0 0 0 0 0 0 0 0 0 0 0 0 0 0 0 0 0 0 0 0 0 0 0 0 0 0 0 0 0 0 0 0 0 0 0 0 0 0 0 0 0 0 0 0 0 0 0 0 0 0 0 0 0 0 0 0 0 0 0 0 0 0 0 0 0 0 0 0 0 0 0 0 0 0 0 ( ) 5 }.b.o -.  9 8 } h.h.6 k.d ~.U *.+.H ..B+H H C+z E V Q I F ..S p e e e z z F E z B L =.B B L B L C y y y P z C y s C z C C s s y s x f s J u x J J j j j j u J t k k l l b 0.3           0 0 0 0 0 0 0 0 0 0 0 0 0 0 0 0 0 0 0 0 0 0 0 0 0 0 0 0 0 0 0 0 0 0 0 0 0 0 0 0 0 0 0 0 0 0 0 0 0 0 0 0 0 0 0 0 0 0 0 0 0 0 0 0 0 0 0 0 0 0 0 0 0 0 0 0 0 0 0 0 0 0 0 0 0 0 0 0 0 0 0 0 0 0 0 0 0 0 0 0 0 0 0 0 0 0 0 0 0 0 0 0 0 0 0 0 0 0 0 0 0 0 0 0 0 0 0 0 0 0 0 0 0 0 0 0 0 0 0 0 0 0 0 0 0 0 0 0 0 0 0 0 0 0 0 0 0 0 0 0 0 0 0 0 0 0 0 0 0 0 0 0 0 0 0 0 0 0 0 0 0 0 0 0 0 0 0 0 0 0 0 0 0 0 0 0 0 0 0 0 0 0 0 0 0 0 0 0 0 0 0 0 0 0 0 0 0 0 0 0 0 0 0 0 0 0 0 0 0 0 0 ",
"0 0 0 0 0 0 0 0 0 0 0 0 0 0 0 0 0 0 0 0 0 0 0 0 0 0 0 0 0 0 0 0 0 0 0 0 0 0 0 0 0 0 0 0 0 0 0 0 0 0 0 0 0 0 0 0 0 0 0 0 0 0 0 0 0 0 0 0 0 0 0 0 0 0 0 0 0 0 0 0 0 0 0 0 0 0 0 0 0 0 0 0 0 0 0 0 0 0 0 0 0 0 0 0 0 0 0 0 0 0 0 0 0 0 0 0 0 0 0 0 0 0 0 0 0 0 0 0 0 0 0 0 0 0 0 0 0 0 0 0 0 0 0 0 0 0 0 0 0 0 0 0 0 0 0 0 0 0 0 0 0 0 0 0 0 0 0 0 0 0 0 0 0 0 0 0 0 0 0 0 0 0 0 0 0 f ( '.-.o _.    8 7 f 0 -.d   (.j.o o o S S v T T G F H p F ..Q E B ..G I z z B C B F B B B L =.4.z B L B y y P C B C z y y E B z C s s y s s s x x x x J J j j j j u u u u l k g g N 3 < <         0 0 0 0 0 0 0 0 0 0 0 0 0 0 0 0 0 0 0 0 0 0 0 0 0 0 0 0 0 0 0 0 0 0 0 0 0 0 0 0 0 0 0 0 0 0 0 0 0 0 0 0 0 0 0 0 0 0 0 0 0 0 0 0 0 0 0 0 0 0 0 0 0 0 0 0 0 0 0 0 0 0 0 0 0 0 0 0 0 0 0 0 0 0 0 0 0 0 0 0 0 0 0 0 0 0 0 0 0 0 0 0 0 0 0 0 0 0 0 0 0 0 0 0 0 0 0 0 0 0 0 0 0 0 0 0 0 0 0 0 0 0 0 0 0 0 0 0 0 0 0 0 0 0 0 0 0 0 0 0 0 0 0 0 0 0 0 0 0 0 0 0 0 0 0 0 0 0 0 0 0 0 0 0 0 0 0 0 0 0 0 0 0 0 0 0 0 0 0 0 0 0 0 0 0 0 0 0 0 0 0 0 0 0 0 0 0 0 0 0 0 0 0 0 0 0 0 0 0 ",
"0 0 0 0 0 0 0 0 0 0 0 0 0 0 0 0 0 0 0 0 0 0 0 0 0 0 0 0 0 0 0 0 0 0 0 0 0 0 0 0 0 0 0 0 0 0 0 0 0 0 0 0 0 0 0 0 0 0 0 0 0 0 0 0 0 0 0 0 0 0 0 0 0 0 0 0 0 0 0 0 0 0 0 0 0 0 0 0 0 0 0 0 0 0 0 0 0 0 0 0 0 0 0 0 0 0 0 0 0 0 0 0 0 0 0 0 0 0 0 0 0 0 0 0 0 0 0 0 0 0 0 0 0 0 0 0 0 0 0 0 0 0 0 0 0 0 0 0 0 0 0 0 0 0 0 0 0 0 0 0 0 0 0 0 0 0 0 0 0 0 0 0 0 0 0 0 0 0 0 0 0 0 0 0 0 } b 9 6 6 d -.0 q       [ '.'.n k.o }.}.j.S H p T ..G w w B F V Q B E G G I B v E B B z E B L B =.E z L B C y y L C L z B z C E B B C s C y y y y x x s J u J u j j u u k u j k l l g N 0.~ |.<     8 0 0 0 0 0 0 0 0 0 0 0 0 0 0 0 0 0 0 0 0 0 0 0 0 0 0 0 0 0 0 0 0 0 0 0 0 0 0 0 0 0 0 0 0 0 0 0 0 0 0 0 0 0 0 0 0 0 0 0 0 0 0 0 0 0 0 0 0 0 0 0 0 0 0 0 0 0 0 0 0 0 0 0 0 0 0 0 0 0 0 0 0 0 0 0 0 0 0 0 0 0 0 0 0 0 0 0 0 0 0 0 0 0 0 0 0 0 0 0 0 0 0 0 0 0 0 0 0 0 0 0 0 0 0 0 0 0 0 0 0 0 0 0 0 0 0 0 0 0 0 0 0 0 0 0 0 0 0 0 0 0 0 0 0 0 0 0 0 0 0 0 0 0 0 0 0 0 0 0 0 0 0 0 0 0 0 0 0 0 0 0 0 0 0 0 0 0 0 0 0 0 0 0 0 0 0 0 0 0 0 0 0 0 0 0 0 0 0 0 0 0 0 0 0 0 0 0 0 ",
"0 0 0 0 0 0 0 0 0 0 0 0 0 0 0 0 0 0 0 0 0 0 0 0 0 0 0 0 0 0 0 0 0 0 0 0 0 0 0 0 0 0 0 0 0 0 0 0 0 0 0 0 0 0 0 0 0 0 0 0 0 0 0 0 0 0 0 0 0 0 0 0 0 0 0 0 0 0 0 0 0 0 0 0 0 0 0 0 0 0 0 0 0 0 0 0 0 0 0 0 0 0 0 0 0 0 0 0 0 0 0 0 0 0 0 0 0 0 0 0 0 0 0 0 0 0 0 0 0 0 0 0 0 0 0 0 0 0 0 0 0 0 0 0 0 0 0 0 0 0 0 0 0 0 0 0 0 0 0 0 0 0 0 0 0 0 0 0 0 0 0 0 0 0 0 0 0 0 0 0 0 0 0 0 0 2 ( '.9 0 0 0 0 0 -.7 7 6 ).  1 [ k.j.b.j.C+B+w v G ..S H v E I V I z F Q I K E E E H B z E z P L =.B z z B C y L y L P P B C C C z z C y C y y y s x s s x J J x j j J j j j l k l l g N N 3 < 3     -.0 0 0 0 0 0 0 0 0 0 0 0 0 0 0 0 0 0 0 0 0 0 0 0 0 0 0 0 0 0 0 0 0 0 0 0 0 0 0 0 0 0 0 0 0 0 0 0 0 0 0 0 0 0 0 0 0 0 0 0 0 0 0 0 0 0 0 0 0 0 0 0 0 0 0 0 0 0 0 0 0 0 0 0 0 0 0 0 0 0 0 0 0 0 0 0 0 0 0 0 0 0 0 0 0 0 0 0 0 0 0 0 0 0 0 0 0 0 0 0 0 0 0 0 0 0 0 0 0 0 0 0 0 0 0 0 0 0 0 0 0 0 0 0 0 0 0 0 0 0 0 0 0 0 0 0 0 0 0 0 0 0 0 0 0 0 0 0 0 0 0 0 0 0 0 0 0 0 0 0 0 0 0 0 0 0 0 0 0 0 0 0 0 0 0 0 0 0 0 0 0 0 0 0 0 0 0 0 0 0 0 0 0 0 0 0 0 0 0 0 0 0 0 0 0 0 0 ",
"0 0 0 0 0 0 0 0 0 0 0 0 0 0 0 0 0 0 0 0 0 0 0 0 0 0 0 0 0 0 0 0 0 0 0 0 0 0 0 0 0 0 0 0 0 0 0 0 0 0 0 0 0 0 0 0 0 0 0 0 0 0 0 0 0 0 0 0 0 0 0 0 0 0 0 0 0 0 0 0 0 0 0 0 0 0 0 0 0 0 0 0 0 0 0 0 0 0 0 0 0 0 0 0 0 0 0 0 0 0 0 0 0 0 0 0 0 0 0 0 0 0 0 0 0 0 0 0 0 0 0 0 0 0 0 0 0 0 0 0 0 0 0 0 0 0 0 0 0 0 0 0 0 0 0 0 0 0 0 0 0 0 0 0 0 0 0 0 0 0 0 0 0 0 0 0 0 0 0 0 0 0 0 0 0 0.A A 6 0 0 0 0 0 0 0 0 0 0       ) o j.D+D+B+S p w ..V F w E F Q V E z F Q Q F B B I E E z B M L P L L z E y y C y P L M z z y C z z C y C C z z z y s s y x x x J u u u k j k g l k l g N N 3 |.3   j 0 0 0 0 0 0 0 0 0 0 0 0 0 0 0 0 0 0 0 0 0 0 0 0 0 0 0 0 0 0 0 0 0 0 0 0 0 0 0 0 0 0 0 0 0 0 0 0 0 0 0 0 0 0 0 0 0 0 0 0 0 0 0 0 0 0 0 0 0 0 0 0 0 0 0 0 0 0 0 0 0 0 0 0 0 0 0 0 0 0 0 0 0 0 0 0 0 0 0 0 0 0 0 0 0 0 0 0 0 0 0 0 0 0 0 0 0 0 0 0 0 0 0 0 0 0 0 0 0 0 0 0 0 0 0 0 0 0 0 0 0 0 0 0 0 0 0 0 0 0 0 0 0 0 0 0 0 0 0 0 0 0 0 0 0 0 0 0 0 0 0 0 0 0 0 0 0 0 0 0 0 0 0 0 0 0 0 0 0 0 0 0 0 0 0 0 0 0 0 0 0 0 0 0 0 0 0 0 0 0 0 0 0 0 0 0 0 0 0 0 0 0 0 0 0 0 0 ",
"0 0 0 0 0 0 0 0 0 0 0 0 0 0 0 0 0 0 0 0 0 0 0 0 0 0 0 0 0 0 0 0 0 0 0 0 0 0 0 0 0 0 0 0 0 0 0 0 0 0 0 0 0 0 0 0 0 0 0 0 0 0 0 0 0 0 0 0 0 0 0 0 0 0 0 0 0 0 0 0 0 0 0 0 0 0 0 0 0 0 0 0 0 0 0 0 0 0 0 0 0 0 0 0 0 0 0 0 0 0 0 0 0 0 0 0 0 0 0 0 0 0 0 0 0 0 0 0 0 0 0 0 0 0 0 0 0 0 0 0 0 0 0 0 0 0 0 0 0 0 0 0 0 0 0 0 0 0 0 0 0 0 0 0 0 0 0 0 0 0 0 0 0 0 0 0 0 0 0 0 0 0 0 0 0     t 0 0 0 0 0 0 0 0 0 0 0   [ { i _.o }.B+B+S w B I Q I G H F Q W Q B B F K K E B K F E E z y L L B P P B z C P C O C L P L B C C z z C C C y C z z s s y y x y s s u j j j j k l k l g N N 3 3 N - < 6 0 0 0 0 0 0 0 0 0 0 0 0 0 0 0 0 0 0 0 0 0 0 0 0 0 0 0 0 0 0 0 0 0 0 0 0 0 0 0 0 0 0 0 0 0 0 0 0 0 0 0 0 0 0 0 0 0 0 0 0 0 0 0 0 0 0 0 0 0 0 0 0 0 0 0 0 0 0 0 0 0 0 0 0 0 0 0 0 0 0 0 0 0 0 0 0 0 0 0 0 0 0 0 0 0 0 0 0 0 0 0 0 0 0 0 0 0 0 0 0 0 0 0 0 0 0 0 0 0 0 0 0 0 0 0 0 0 0 0 0 0 0 0 0 0 0 0 0 0 0 0 0 0 0 0 0 0 0 0 0 0 0 0 0 0 0 0 0 0 0 0 0 0 0 0 0 0 0 0 0 0 0 0 0 0 0 0 0 0 0 0 0 0 0 0 0 0 0 0 0 0 0 0 0 0 0 0 0 0 0 0 0 0 0 0 0 0 0 0 0 0 0 0 0 0 0 ",
"0 0 0 0 0 0 0 0 0 0 0 0 0 0 0 0 0 0 0 0 0 0 0 0 0 0 0 0 0 0 0 0 0 0 0 0 0 0 0 0 0 0 0 0 0 0 0 0 0 0 0 0 0 0 0 0 0 0 0 0 0 0 0 0 0 0 0 0 0 0 0 0 0 0 0 0 0 0 0 0 0 0 0 0 0 0 0 0 0 0 0 0 0 0 0 0 0 0 0 0 0 0 0 0 0 0 0 0 0 0 0 0 0 0 0 0 0 0 0 0 0 0 0 0 0 0 0 0 0 0 0 0 0 0 0 0 0 0 0 0 0 0 0 0 0 0 0 0 0 0 0 0 0 0 0 0 0 0 0 0 0 0 0 0 0 0 0 0 0 0 0 0 0 0 0 0 0 0 0 0 0 0 0 0 6 t 0 0 0 0 0 0 0 0 0 0 0 0 7   1 i } 0 ~.o B++.S w E F Q I F I w K Q W E z B F @.E B F F E =.B y z B B =.y B E C C B s y y y y B P z z z z y C C C E B C s s C y x s s x u u j u j l k l g g N N N 3 3 >.< 7 0 0 0 0 0 0 0 0 0 0 0 0 0 0 0 0 0 0 0 0 0 0 0 0 0 0 0 0 0 0 0 0 0 0 0 0 0 0 0 0 0 0 0 0 0 0 0 0 0 0 0 0 0 0 0 0 0 0 0 0 0 0 0 0 0 0 0 0 0 0 0 0 0 0 0 0 0 0 0 0 0 0 0 0 0 0 0 0 0 0 0 0 0 0 0 0 0 0 0 0 0 0 0 0 0 0 0 0 0 0 0 0 0 0 0 0 0 0 0 0 0 0 0 0 0 0 0 0 0 0 0 0 0 0 0 0 0 0 0 0 0 0 0 0 0 0 0 0 0 0 0 0 0 0 0 0 0 0 0 0 0 0 0 0 0 0 0 0 0 0 0 0 0 0 0 0 0 0 0 0 0 0 0 0 0 0 0 0 0 0 0 0 0 0 0 0 0 0 0 0 0 0 0 0 0 0 0 0 0 0 0 0 0 0 0 0 0 0 0 0 0 0 0 0 0 ",
"0 0 0 0 0 0 0 0 0 0 0 0 0 0 0 0 0 0 0 0 0 0 0 0 0 0 0 0 0 0 0 0 0 0 0 0 0 0 0 0 0 0 0 0 0 0 0 0 0 0 0 0 0 0 0 0 0 0 0 0 0 0 0 0 0 0 0 0 0 0 0 0 0 0 0 0 0 0 0 0 0 0 0 0 0 0 0 0 0 0 0 0 0 0 0 0 0 0 0 0 0 0 0 0 0 0 0 0 0 0 0 0 0 0 0 0 0 0 0 0 0 0 0 0 0 0 0 0 0 0 0 0 0 0 0 0 0 0 0 0 0 0 0 0 0 0 0 0 0 0 0 0 0 0 0 0 0 0 0 0 0 0 0 0 0 0 0 0 0 0 0 0 0 0 0 0 0 0 0 0 0 0 0 0 0 0 0 0 0 0 0 0 0 0 0 0 0 0     i ) 9 d ~.o U +.G H H E G Q H I F F Q Q F E z F @.K z E 4.F B L y P P B L z B F C y B C y s y x s L B z z C C y y y =.E C C s y z y y s y x u x j u j k k k g g N N b N N < 3 0 p 0 0 0 0 0 0 0 0 0 0 0 0 0 0 0 0 0 0 0 0 0 0 0 0 0 0 0 0 0 0 0 0 0 0 0 0 0 0 0 0 0 0 0 0 0 0 0 0 0 0 0 0 0 0 0 0 0 0 0 0 0 0 0 0 0 0 0 0 0 0 0 0 0 0 0 0 0 0 0 0 0 0 0 0 0 0 0 0 0 0 0 0 0 0 0 0 0 0 0 0 0 0 0 0 0 0 0 0 0 0 0 0 0 0 0 0 0 0 0 0 0 0 0 0 0 0 0 0 0 0 0 0 0 0 0 0 0 0 0 0 0 0 0 0 0 0 0 0 0 0 0 0 0 0 0 0 0 0 0 0 0 0 0 0 0 0 0 0 0 0 0 0 0 0 0 0 0 0 0 0 0 0 0 0 0 0 0 0 0 0 0 0 0 0 0 0 0 0 0 0 0 0 0 0 0 0 0 0 0 0 0 0 0 0 0 0 0 0 0 0 0 0 0 ",
"0 0 0 0 0 0 0 0 0 0 0 0 0 0 0 0 0 0 0 0 0 0 0 0 0 0 0 0 0 0 0 0 0 0 0 0 0 0 0 0 0 0 0 0 0 0 0 0 0 0 0 0 0 0 0 0 0 0 0 0 0 0 0 0 0 0 0 0 0 0 0 0 0 0 0 0 0 0 0 0 0 0 0 0 0 0 0 0 0 0 0 0 0 0 0 0 0 0 0 0 0 0 0 0 0 0 0 0 0 0 0 0 0 0 0 0 0 0 0 0 0 0 0 0 0 0 0 0 0 0 0 0 0 0 0 0 0 0 0 0 0 0 0 0 0 0 0 0 0 0 0 0 0 0 0 0 0 0 0 0 0 0 0 0 0 0 0 0 0 0 0 0 0 0 0 0 0 0 0 0 0 0 0 0 0 0 0 0 0 0 0 0 0 0 0 0 0 7     ) } ).(.p }.U +.S H H w H ..F I F H I Q Q F B E K F B E =.E =.B y C P B L C C E z C C C s C y e s s C z z z z C y C C =.B C y O L C y y C s J u x u J j j j l k g N N b b b N b m   d -.0 0 0 0 0 0 0 0 0 0 0 0 0 0 0 0 0 0 0 0 0 0 0 0 0 0 0 0 0 0 0 0 0 0 0 0 0 0 0 0 0 0 0 0 0 0 0 0 0 0 0 0 0 0 0 0 0 0 0 0 0 0 0 0 0 0 0 0 0 0 0 0 0 0 0 0 0 0 0 0 0 0 0 0 0 0 0 0 0 0 0 0 0 0 0 0 0 0 0 0 0 0 0 0 0 0 0 0 0 0 0 0 0 0 0 0 0 0 0 0 0 0 0 0 0 0 0 0 0 0 0 0 0 0 0 0 0 0 0 0 0 0 0 0 0 0 0 0 0 0 0 0 0 0 0 0 0 0 0 0 0 0 0 0 0 0 0 0 0 0 0 0 0 0 0 0 0 0 0 0 0 0 0 0 0 0 0 0 0 0 0 0 0 0 0 0 0 0 0 0 0 0 0 0 0 0 0 0 0 0 0 0 0 0 0 0 0 0 0 0 ",
"0 0 0 0 0 0 0 0 0 0 0 0 0 0 0 0 0 0 0 0 0 0 0 0 0 0 0 0 0 0 0 0 0 0 0 0 0 0 0 0 0 0 0 0 0 0 0 0 0 0 0 0 0 0 0 0 0 0 0 0 0 0 0 0 0 0 0 0 0 0 0 0 0 0 0 0 0 0 0 0 0 0 0 0 0 0 0 0 0 0 0 0 0 0 0 0 0 0 0 0 0 0 0 0 0 0 0 0 0 0 0 0 0 0 0 0 0 0 0 0 0 0 0 0 0 0 0 0 0 0 0 0 0 0 0 0 0 0 0 0 0 0 0 0 0 0 0 0 0 0 0 0 0 0 0 0 0 0 0 0 0 0 0 0 0 0 0 0 0 0 0 0 0 0 0 0 0 0 0 0 0 0 0 0 0 0 0 0 0 0 0 0 0 0 0 0 0 f     ) 9 (.~.q p H G S S H w w ..I I E F I @.@.E E C =.4.z L E =.L L C L L E P z C B E C z y y C z d y s y z C y C B y s e z B C y s y L C y y z x J s J J j j J j j k l N b b N N N     t f 0 0 0 0 0 0 0 0 0 0 0 0 0 0 0 0 0 0 0 0 0 0 0 0 0 0 0 0 0 0 0 0 0 0 0 0 0 0 0 0 0 0 0 0 0 0 0 0 0 0 0 0 0 0 0 0 0 0 0 0 0 0 0 0 0 0 0 0 0 0 0 0 0 0 0 0 0 0 0 0 0 0 0 0 0 0 0 0 0 0 0 0 0 0 0 0 0 0 0 0 0 0 0 0 0 0 0 0 0 0 0 0 0 0 0 0 0 0 0 0 0 0 0 0 0 0 0 0 0 0 0 0 0 0 0 0 0 0 0 0 0 0 0 0 0 0 0 0 0 0 0 0 0 0 0 0 0 0 0 0 0 0 0 0 0 0 0 0 0 0 0 0 0 0 0 0 0 0 0 0 0 0 0 0 0 0 0 0 0 0 0 0 0 0 0 0 0 0 0 0 0 0 0 0 0 0 0 0 0 0 0 0 0 0 0 0 0 0 0 0 ",
"0 0 0 0 0 0 0 0 0 0 0 0 0 0 0 0 0 0 0 0 0 0 0 0 0 0 0 0 0 0 0 0 0 0 0 0 0 0 0 0 0 0 0 0 0 0 0 0 0 0 0 0 0 0 0 0 0 0 0 0 0 0 0 0 0 0 0 0 0 0 0 0 0 0 0 0 0 0 0 0 0 0 0 0 0 0 0 0 0 0 0 0 0 0 0 0 0 0 0 0 0 0 0 0 0 0 0 0 0 0 0 0 0 0 0 0 0 0 0 0 0 0 0 0 0 0 0 0 0 0 0 0 0 0 0 0 0 0 0 0 0 0 0 0 0 0 0 0 0 0 0 0 0 0 0 0 0 0 0 0 0 0 0 0 0 0 0 0 0 0 0 0 0 0 0 0 0 0 0 0 0 0 0 0 0 0 0 0 0 0 0 0 0 0 0 0 0 0     9 5 _.o p p S w S H H w H Q G H F E K I K E F z L F L z =.=.=.C C L =.=.L z P B z z z y C y B B C y e C E E C y z C e f C C z y s y C y y z y J x J u J u u J j u k g g b b N N 3 0.D     0 0 0 0 0 0 0 0 0 0 0 0 0 0 0 0 0 0 0 0 0 0 0 0 0 0 0 0 0 0 0 0 0 0 0 0 0 0 0 0 0 0 0 0 0 0 0 0 0 0 0 0 0 0 0 0 0 0 0 0 0 0 0 0 0 0 0 0 0 0 0 0 0 0 0 0 0 0 0 0 0 0 0 0 0 0 0 0 0 0 0 0 0 0 0 0 0 0 0 0 0 0 0 0 0 0 0 0 0 0 0 0 0 0 0 0 0 0 0 0 0 0 0 0 0 0 0 0 0 0 0 0 0 0 0 0 0 0 0 0 0 0 0 0 0 0 0 0 0 0 0 0 0 0 0 0 0 0 0 0 0 0 0 0 0 0 0 0 0 0 0 0 0 0 0 0 0 0 0 0 0 0 0 0 0 0 0 0 0 0 0 0 0 0 0 0 0 0 0 0 0 0 0 0 0 0 0 0 0 0 0 0 0 0 0 0 0 0 0 ",
"0 0 0 0 0 0 0 0 0 0 0 0 0 0 0 0 0 0 0 0 0 0 0 0 0 0 0 0 0 0 0 0 0 0 0 0 0 0 0 0 0 0 0 0 0 0 0 0 0 0 0 0 0 0 0 0 0 0 0 0 0 0 0 0 0 0 0 0 0 0 0 0 0 0 0 0 0 0 0 0 0 0 0 0 0 0 0 0 0 0 0 0 0 0 0 0 0 0 0 0 0 0 0 0 0 0 0 0 0 0 0 0 0 0 0 0 0 0 0 0 0 0 0 0 0 0 0 0 0 0 0 0 0 0 0 0 0 0 0 0 0 0 0 0 0 0 0 0 0 0 0 0 0 0 0 0 0 0 0 0 0 0 0 0 0 0 0 0 0 0 0 0 0 0 0 0 0 0 0 0 0 0 0 0 0 0 0 0 0 0 0 0 0 0 0 0 0 ).    h.-.~.C+p z H H S H H H H F G H I I E K F F F E z E =.z =.4.P C L =.=.=.z z B z C B B C C y y z B z C y z K F C C C B z z C C C y P y s C P y s x J J J x R s j u u k l g g b b N 0.'     6 0 0 0 0 0 0 0 0 0 0 0 0 0 0 0 0 0 0 0 0 0 0 0 0 0 0 0 0 0 0 0 0 0 0 0 0 0 0 0 0 0 0 0 0 0 0 0 0 0 0 0 0 0 0 0 0 0 0 0 0 0 0 0 0 0 0 0 0 0 0 0 0 0 0 0 0 0 0 0 0 0 0 0 0 0 0 0 0 0 0 0 0 0 0 0 0 0 0 0 0 0 0 0 0 0 0 0 0 0 0 0 0 0 0 0 0 0 0 0 0 0 0 0 0 0 0 0 0 0 0 0 0 0 0 0 0 0 0 0 0 0 0 0 0 0 0 0 0 0 0 0 0 0 0 0 0 0 0 0 0 0 0 0 0 0 0 0 0 0 0 0 0 0 0 0 0 0 0 0 0 0 0 0 0 0 0 0 0 0 0 0 0 0 0 0 0 0 0 0 0 0 0 0 0 0 0 0 0 0 0 0 0 0 0 0 0 0 0 ",
"0 0 0 0 0 0 0 0 0 0 0 0 0 0 0 0 0 0 0 0 0 0 0 0 0 0 0 0 0 0 0 0 0 0 0 0 0 0 0 0 0 0 0 0 0 0 0 0 0 0 0 0 0 0 0 0 0 0 0 0 0 0 0 0 0 0 0 0 0 0 0 0 0 0 0 0 0 0 0 0 0 0 0 0 0 0 0 0 0 0 0 0 0 0 0 0 0 0 0 0 0 0 0 0 0 0 0 0 0 0 0 0 0 0 0 0 0 0 0 0 0 0 0 0 0 0 0 0 0 0 0 0 0 0 0 0 0 0 0 0 0 0 0 0 0 0 0 0 0 0 0 0 0 0 0 0 0 0 0 0 0 0 0 0 0 0 0 0 0 0 0 0 0 0 0 0 0 0 0 0 0 0 0 0 0 0 0 0 0 0 0 0 0 0 0 0 -.    i 6 d w S p p v w H H w H H F I H K I I F F F E F B =.B z =.4.C L z =.L L B z C C y P B B y z s C C C z z y C K E C P E B F B C C C C C y y y s s s x J J x x x s j u j k k l l g g b g (     0 0 0 0 0 0 0 0 0 0 0 0 0 0 0 0 0 0 0 0 0 0 0 0 0 0 0 0 0 0 0 0 0 0 0 0 0 0 0 0 0 0 0 0 0 0 0 0 0 0 0 0 0 0 0 0 0 0 0 0 0 0 0 0 0 0 0 0 0 0 0 0 0 0 0 0 0 0 0 0 0 0 0 0 0 0 0 0 0 0 0 0 0 0 0 0 0 0 0 0 0 -.0 -.0 0 0 0 0 0 0 0 0 0 0 0 0 0 0 0 0 0 0 0 0 0 0 0 0 0 0 0 0 0 0 0 0 0 0 0 0 0 0 0 0 0 0 0 0 0 0 0 0 0 0 0 0 0 0 0 0 0 0 0 0 0 0 0 0 0 0 0 0 0 0 0 0 0 0 0 0 0 0 0 0 0 0 0 0 0 0 0 0 0 0 0 0 0 0 0 0 0 0 0 0 0 0 0 0 0 0 0 0 0 0 0 0 0 ",
"0 0 0 0 0 0 0 0 0 0 0 0 0 0 0 0 0 0 0 0 0 0 0 0 0 0 0 0 0 0 0 0 0 0 0 0 0 0 0 0 0 0 0 0 0 0 0 0 0 0 0 0 0 0 0 0 0 0 0 0 0 0 0 0 0 0 0 0 0 0 0 0 0 0 0 0 0 0 0 0 0 0 0 0 0 0 0 0 0 0 0 0 0 0 0 0 0 0 0 0 0 0 0 0 0 0 0 0 0 0 0 0 0 0 0 0 0 0 0 0 0 0 0 0 0 0 0 0 0 0 0 0 0 0 0 0 0 0 0 0 0 0 0 0 0 0 0 0 0 0 0 0 0 0 0 0 0 0 0 0 0 0 0 0 0 0 0 0 0 0 0 0 0 0 0 0 0 0 0 0 0 0 0 0 0 0 0 0 0 0 0 0 0 0 0 0     1   (.p C+H B v w w w H F H H E F H H I F E E E =.E B z z L C 4.P L L B z L z B B C z C C C C z F z B z L z B C s F B C L B =.E B L C C y y y C s y y y x s x x s x x J j j j j k k l 2 g l D 4 6 0 0 0 0 0 0 0 0 0 0 0 0 0 0 0 0 0 0 0 0 0 0 0 0 0 0 0 0 0 0 0 0 0 0 0 0 0 0 0 0 0 0 0 0 0 0 0 0 0 0 0 0 0 0 0 0 0 0 0 0 0 0 0 0 0 0 0 0 0 0 0 0 0 0 0 0 0 0 0 0 0 0 0 0 0 0 0 0 -.0 0 0 0 0 0 0 0 0 0 0 J 7 J 0 0 0 0 0 0 0 0 0 0 0 0 0 0 0 0 0 0 0 0 0 0 0 0 0 0 0 0 0 0 0 0 0 0 0 0 0 0 0 0 0 0 0 0 0 0 0 0 0 0 0 0 0 0 0 0 0 0 0 0 0 0 0 0 0 0 0 0 0 0 0 0 0 0 0 0 0 0 0 0 0 0 0 0 0 0 0 0 0 0 0 0 0 0 0 0 0 0 0 0 0 0 0 0 0 0 0 0 0 0 0 0 0 0 ",
"0 0 0 0 0 0 0 0 0 0 0 0 0 0 0 0 0 0 0 0 0 0 0 0 0 0 0 0 0 0 0 0 0 0 0 0 0 0 0 0 0 0 0 0 0 0 0 0 0 0 0 0 0 0 0 0 0 0 0 0 0 0 0 0 0 0 0 0 0 0 0 0 0 0 0 0 0 0 0 0 0 0 0 0 0 0 0 0 0 0 0 0 0 0 0 0 0 0 0 0 0 0 0 0 0 0 0 0 0 0 0 0 0 0 0 0 0 0 0 0 0 0 0 0 0 0 0 0 0 0 0 0 0 0 0 0 0 0 0 0 0 0 0 0 0 0 0 0 0 0 0 0 0 0 0 0 0 0 0 0 0 0 0 0 0 0 0 0 0 0 0 0 0 0 0 0 0 0 0 0 0 0 0 0 0 0 0 0 0 0 0 0 0 0 0 0 t   ) n 0 v B+w z B v S F F E F F F I H H F F B F E E E 4.B z B L 4.P L P B z P /.N + v.E.D.O.G.O.K.E.v.+ 3.O B F z y P C y L z z =.F B B P z y y z C s s y s s s x s y O J u j j j j u j j l k g ]   -.0 0 0 0 0 0 0 0 0 0 0 0 0 0 0 0 0 0 0 0 0 0 0 0 0 0 0 0 0 0 0 0 0 0 0 0 0 0 0 0 0 0 0 0 0 0 0 0 0 0 0 0 0 0 0 0 0 0 0 0 0 0 0 0 0 0 0 0 0 0 0 0 0 0 0 0 0 0 0 0 0 0 0 -.-.7 0 r -.0 0 0 0 0 0 0 0 0 r l 7 u 0 6 7 0 0 0 0 0 0 0 0 0 0 0 0 f f 0 0 0 0 0 0 0 0 0 0 0 0 0 0 0 0 0 0 0 0 0 0 0 0 0 0 0 0 0 0 0 0 0 0 0 0 0 0 0 0 0 0 0 0 0 0 0 0 0 0 0 0 0 0 0 0 0 0 0 0 0 0 0 0 0 0 0 0 0 0 0 0 0 0 0 0 0 0 0 0 0 0 0 0 0 0 0 0 0 0 0 0 0 0 0 0 0 ",
"0 0 0 0 0 0 0 0 0 0 0 0 0 0 0 0 0 0 0 0 0 0 0 0 0 0 0 0 0 0 0 0 0 0 0 0 0 0 0 0 0 0 0 0 0 0 0 0 0 0 0 0 0 0 0 0 0 0 0 0 0 0 0 0 0 0 0 0 0 0 0 0 0 0 0 0 0 0 0 0 0 0 0 0 0 0 0 0 0 0 0 0 0 0 0 0 0 0 0 0 0 0 0 0 0 0 0 0 0 0 0 0 0 0 0 0 0 0 0 0 0 0 0 0 0 0 0 0 0 0 0 0 0 0 0 0 0 0 0 0 0 0 0 0 0 0 0 0 0 0 0 0 0 0 0 0 0 0 0 0 0 0 0 0 0 0 0 0 0 0 0 0 0 0 0 0 0 0 0 0 0 0 0 0 0 0 0 0 0 0 0 0 0 0 0 -.r ) h.n d H G H B B B H F F B w E I E w w F I E F 4.F E E z L F B =.E E 1.>.v.O.x.x.x.x.x.x.x.x.x.x.x.x.x.x.s.K.A.3.y C y C L B L L E =.L L C z y y z y y s y x y s s s x s J j u j j j j u u k k _     f 0 0 0 0 0 0 0 0 0 0 0 0 0 0 0 0 0 0 0 0 0 0 0 0 0 0 0 0 0 0 0 0 0 0 0 0 0 0 0 0 0 0 0 0 0 0 0 0 0 0 0 0 0 0 0 0 0 0 0 0 0 0 0 0 0 0 0 0 0 0 0 0 0 0 0 0 0 0 0 0 0 0 t 8   6 f   -.0 0 0 0 0 0 0 0   g l N r e   7 0 0 0 0 0 0 0 0 0 0 0 j   r 7 0 0 0 0 0 0 0 0 0 0 0 0 0 0 0 0 0 0 0 0 0 0 0 0 0 0 0 0 0 0 0 0 0 0 0 0 0 0 0 0 0 0 0 0 0 0 0 0 0 0 0 0 0 0 0 0 0 0 0 0 0 0 0 0 0 0 0 0 0 0 0 0 0 0 0 0 0 0 0 0 0 0 0 0 0 0 0 0 0 0 0 0 0 0 0 ",
"0 0 0 0 0 0 0 0 0 0 0 0 0 0 0 0 0 0 0 0 0 0 0 0 0 0 0 0 0 0 0 0 0 0 0 0 0 0 0 0 0 0 0 0 0 0 0 0 0 0 0 0 0 0 0 0 0 0 0 0 0 0 0 0 0 0 0 0 0 0 0 0 0 0 0 0 0 0 0 0 0 0 0 0 0 0 0 0 0 0 0 0 0 0 0 0 0 0 0 0 0 0 0 0 0 0 0 0 0 0 0 0 0 0 0 0 0 0 0 0 0 0 0 0 0 0 0 0 0 0 0 0 0 0 0 0 0 0 0 0 0 0 0 0 0 0 0 0 0 0 0 0 0 0 0 0 0 0 0 0 0 0 0 0 0 0 0 0 0 0 0 0 0 0 0 0 0 0 0 0 0 0 0 0 0 0 0 0 0 0 0 0 0 0 0 f   !.n 0 q H S v B z v F F H v E E I F w F w F E F E F K K B z 4.F 1.+ K.x.x.x.x.x.x.s.x.x.x.x.x.x.x.x.x.s.s.x.x.x.x.r.A.l C C =.=.L L F B z y z z y C C C y s y s y y s x J x u u u j u j j u j k k '.    0 0 0 0 0 0 0 0 0 0 0 0 0 0 0 0 0 0 0 0 0 0 0 0 0 0 0 0 0 0 0 0 0 0 0 0 0 0 0 0 0 0 0 0 0 0 0 0 0 0 0 0 0 0 0 0 0 0 0 0 0 0 0 0 0 0 0 0 0 0 0 0 0 0 0 0 0 0 0 0 J 0 0               -.0 0 0 0 0 7         k f g   7 7 0 0 0 0 0 0 0 0           J 7 0 0 0 0 0 0 0 0 0 0 0 0 0 0 0 0 0 0 0 0 0 0 0 0 0 0 0 0 0 0 0 0 0 0 0 0 0 0 0 0 0 0 0 0 0 0 0 0 0 0 0 0 0 0 0 0 0 0 0 0 0 0 0 0 0 0 0 0 0 0 0 0 0 0 0 0 0 0 0 0 0 0 0 0 0 0 0 0 0 0 0 0 0 ",
"0 0 0 0 0 0 0 0 0 0 0 0 0 0 0 0 0 0 0 0 0 0 0 0 0 0 0 0 0 0 0 0 0 0 0 0 0 0 0 0 0 0 0 0 0 0 0 0 0 0 0 0 0 0 0 0 0 0 0 0 0 0 0 0 0 0 0 0 0 0 0 0 0 0 0 0 0 0 0 0 0 0 0 0 0 0 0 0 0 0 0 0 0 0 0 0 0 0 0 0 0 0 0 0 0 0 0 0 0 0 0 0 0 0 0 0 0 0 0 0 0 0 0 0 0 0 0 0 0 0 0 0 0 0 0 0 0 0 0 0 0 0 0 0 0 0 0 0 0 0 0 0 0 0 0 0 0 0 0 0 0 0 0 0 0 0 0 0 0 0 0 0 0 0 0 0 0 0 0 0 0 0 0 0 0 0 0 0 0 0 0 0 0 0 0   ) !.).k.p S F C z q q v H w E F B E w H S v E F E B E L 4.B R 1+K.x.x.x.x.x.x.x.x.s.x.x.x.x.x.x.x.x.x.x.x.s.s.s.s.x.x.s.s.E.N C B L =.4.=.F B B z z y z C C y y C y y s x u x x J u J u u j u u u j : 9     0 0 0 0 0 0 0 0 0 0 0 0 0 0 0 0 0 0 0 0 0 0 0 0 0 0 0 0 0 0 0 0 0 0 0 0 0 0 0 0 0 0 0 0 0 0 0 0 0 0 0 0 0 0 0 0 0 0 0 0 0 0 0 0 0 0 0 0 0 0 0 0 0 0 0 0 0 0 0 u 0                   J 0 0 0 0         I.#.  b       0 0 t 0 0 0 0 J               0 0 0 0 0 0 0 0 0 0 0 0 0 0 0 0 0 0 0 0 0 0 0 0 0 0 0 0 0 0 0 0 0 0 0 0 0 0 0 0 0 0 0 0 0 0 0 0 0 0 0 0 0 0 0 0 0 0 0 0 0 0 0 0 0 0 0 0 0 0 0 0 0 0 0 0 0 0 0 0 0 0 0 0 0 0 0 0 0 0 0 0 0 ",
"0 0 0 0 0 0 0 0 0 0 0 0 0 0 0 0 0 0 0 0 0 0 0 0 0 0 0 0 0 0 0 0 0 0 0 0 0 0 0 0 0 0 0 0 0 0 0 0 0 0 0 0 0 0 0 0 0 0 0 0 0 0 0 0 0 0 0 0 0 0 0 0 0 0 0 0 0 0 0 0 0 0 0 0 0 0 0 0 0 0 0 0 0 0 0 0 0 0 0 0 0 0 0 0 0 0 0 0 0 0 0 0 0 0 0 0 0 0 0 0 0 0 0 0 0 0 0 0 0 0 0 0 0 0 0 0 0 0 0 0 0 0 0 0 0 0 0 0 0 0 0 0 0 0 0 0 0 0 0 0 0 0 0 0 0 0 0 0 0 0 0 0 0 0 0 0 0 0 0 0 0 0 0 0 0 0 0 0 0 0 0 0 0 0 0 [ t 8 -.0 B H z e z z z w E E v F E w F w H E B B F F E y 3.& s.x.x.x.s.s.x.x.x.s.s.s.s.s.s.s.x.s.s.x.x.s.s.s.s.s.s.s.s.s.s.s.s.E.3.C K =.E =.B =.y z z z B z L C C y y y s J x x x u x J u u u u j j j j '.  d 0 0 0 0 0 0 0 0 0 0 0 0 0 0 0 0 0 0 0 0 0 0 0 0 0 0 0 0 0 0 0 0 0 0 0 0 0 0 0 0 0 0 0 0 0 0 0 0 0 0 0 0 0 0 0 0 0 0 0 0 0 0 0 0 0 0 0 0 0 0 0 0 0 0 0 0 0 0 7 7   7   I.2.h     I.    l r 0           #.    ,.*   0 0   t -.0 f         H.H.    r   0 0 0 0 0 0 0 0 0 0 0 0 0 0 0 0 0 0 0 0 0 0 0 0 0 0 0 0 0 0 0 0 0 0 0 0 0 0 0 0 0 0 0 0 0 0 0 0 0 0 0 0 0 0 0 0 0 0 0 0 0 0 0 0 0 0 0 0 0 0 0 0 0 0 0 0 0 0 0 0 0 0 0 0 0 0 0 0 0 0 0 ",
"0 0 0 0 0 0 0 0 0 0 0 0 0 0 0 0 0 0 0 0 0 0 0 0 0 0 0 0 0 0 0 0 0 0 0 0 0 0 0 0 0 0 0 0 0 0 0 0 0 0 0 0 0 0 0 0 0 0 0 0 0 0 0 0 0 0 0 0 0 0 0 0 0 0 0 0 0 0 0 0 0 0 0 0 0 0 0 0 0 0 0 0 0 0 0 0 0 0 0 0 0 0 0 0 0 0 0 0 0 0 0 0 0 0 0 0 0 0 0 0 0 0 0 0 0 0 0 0 0 0 0 0 0 0 0 0 0 0 0 0 0 0 0 0 0 0 0 0 0 0 0 0 0 0 0 0 0 0 0 0 0 0 0 0 0 0 0 0 0 0 0 0 0 0 0 0 0 0 0 0 0 0 0 0 0 0 0 0 0 0 0 0 0 0 -.  ).n f d z E y e B z z B F E v H w p I w F w E z =.2+A.O.x.x.x.s.s.x.s.s.s.s.x.s.s.s.s.G.s.s.s.s.G.s.s.s.s.s.s.s.s.s.s.s.s.s.G.G.s.v.1.=.P =.L L C C L y C B B B C y y C s x x s x x x x J u u j u j k j : ) } 0 0 0 0 0 0 0 0 0 0 0 0 0 0 0 0 0 0 0 0 0 0 0 0 0 0 0 0 0 0 0 0 0 0 0 0 0 0 0 0 0 0 0 0 0 0 0 0 0 0 0 0 0 0 0 0 0 0 0 0 0 0 0 0 0 0 0 0 0 0 0 0 0 0 0 0 0 0 -.r     u $ I.  2.2.  I.H.2.h             T.U.#.< < #.  J       -.k       I.#.I.  H.    r 7 7 0 0 0 -.0 0 -.-.0 f 0 0 0 -.j 7 0 0 0 0 0 0 0 0 0 0 0 0 0 0 0 0 0 0 0 0 0 0 0 0 0 0 0 0 0 0 0 0 0 0 0 0 0 0 0 0 0 0 0 0 0 0 0 0 0 0 0 0 0 0 0 0 0 0 0 0 0 0 0 0 0 0 0 0 0 0 0 0 ",
"0 0 0 0 0 0 0 0 0 0 0 0 0 0 0 0 0 0 0 0 0 0 0 0 0 0 0 0 0 0 0 0 0 0 0 0 0 0 0 0 0 0 0 0 0 0 0 0 0 0 0 0 0 0 0 0 0 0 0 0 0 0 0 0 0 0 0 0 0 0 0 0 0 0 0 0 0 0 0 0 0 0 0 0 0 0 0 0 0 0 0 0 0 0 0 0 0 0 0 0 0 0 0 0 0 0 0 0 0 0 0 0 0 0 0 0 0 0 0 0 0 0 0 0 0 0 0 0 0 0 0 0 0 0 0 0 0 0 0 0 0 0 0 0 0 0 0 0 0 0 0 0 0 0 0 0 0 0 0 0 0 0 0 0 0 0 0 0 0 0 0 0 0 0 0 0 0 0 0 0 0 0 0 0 0 0 0 0 0 0 0 0 0 0   '.f f e d C C y y B z z z B B v F S I v w F L 2++ R.x.x.x.s.s.s.s.s.s.s.s.G.s.G.G.s.G.G.G.G.O.r.O.O.O.O.G.G.s.s.s.s.G.s.G.s.s.G.G.G.G.D.|.C L L L z y L z C L P B C O L y C s s x s s x y x J u u j u j j j } _ d 0 0 0 0 0 0 0 0 0 0 0 0 0 0 0 0 0 0 0 0 0 0 0 0 0 0 0 0 0 0 0 0 0 0 0 0 0 0 0 0 0 0 0 0 0 0 0 0 0 0 0 0 0 0 0 0 0 0 0 0 0 0 0 0 0 0 0 0 0 0 0 0 0 0 0 0 0 0 t |.      @ @ 2.H.H.2.  I.#.2.H.2.I.  H.,.W. +#.T.W.                  H.$ ,.,.$ #.$             0 0 0 0 0       0 7 J         0 0 0 0 0 0 0 0 0 0 0 0 0 0 0 0 0 0 0 0 0 0 0 0 0 0 0 0 0 0 0 0 0 0 0 0 0 0 0 0 0 0 0 0 0 0 0 0 0 0 0 0 0 0 0 0 0 0 0 0 0 0 0 0 0 0 0 0 0 0 0 ",
"0 0 0 0 0 0 0 0 0 0 0 0 0 0 0 0 0 0 0 0 0 0 0 0 0 0 0 0 0 0 0 0 0 0 0 0 0 0 0 0 0 0 0 0 0 0 0 0 0 0 0 0 0 0 0 0 0 0 0 0 0 0 0 0 0 0 0 0 0 0 0 0 0 0 0 0 0 0 0 0 0 0 0 0 0 0 0 0 0 0 0 0 0 0 0 0 0 0 0 0 0 0 0 0 0 0 0 0 0 0 0 0 0 0 0 0 0 0 0 0 0 0 0 0 0 0 0 0 0 0 0 0 0 0 0 0 0 0 0 0 0 0 0 0 0 0 0 0 0 0 0 0 0 0 0 0 0 0 0 0 0 0 0 0 0 0 0 0 0 0 0 0 0 0 0 0 0 0 0 0 0 0 0 0 0 0 0 0 0 0 0 0 0 6   8 6 d C C y z s C B z y z B E F G F L /.|.v.R.x.x.x.x.s.G.G.G.G.G.s.s.G.r.r.r.O.r.r.O.r.r.D.`.t.t.`.`.D.`.r.r.O.G.G.G.G.G.G.G.G.G.G.O.G.O.A.x y y B z z P L P P C C s P z y s s s s y x s x x R J u u u u u u t m 0 0 0 0 0 0 0 0 0 0 0 0 0 0 0 0 0 0 0 0 0 0 0 0 0 0 0 0 0 0 0 0 0 0 0 0 0 0 0 0 0 0 0 0 0 0 0 0 0 0 0 0 0 0 0 0 0 0 0 0 0 0 0 0 0 0 0 0 0 0 0 0 0 0 0 0 0 0 7         #.$ $  +,.,.#.I.I.* * $ ,.#.#.* [.#+T.< [.U.I.2.#.#.$ #.,.* #.* ++%+< < $             7 6 j   t       j             t   0 0 r 0 0 0 0 0 0 0 0 0 0 0 0 0 0 0 0 0 0 0 0 0 0 0 0 0 0 0 0 0 0 0 0 0 0 0 0 0 0 0 0 0 0 0 0 0 0 0 0 0 0 0 0 0 0 0 0 0 0 0 0 0 0 0 0 0 0 ",
"0 0 0 0 0 0 0 0 0 0 0 0 0 0 0 0 0 0 0 0 0 0 0 0 0 0 0 0 0 0 0 0 0 0 0 0 0 0 0 0 0 0 0 0 0 0 0 0 0 0 0 0 0 0 0 0 0 0 0 0 0 0 0 0 0 0 0 0 0 0 0 0 0 0 0 0 0 0 0 0 0 0 0 0 0 0 0 0 0 0 0 0 0 0 0 0 0 0 0 0 0 0 0 0 0 0 0 0 0 0 0 0 0 0 0 0 0 0 0 0 0 0 0 0 0 0 0 0 0 0 0 0 0 0 0 0 0 0 0 0 0 0 0 0 0 0 0 0 0 0 0 0 0 0 0 0 0 0 0 0 0 0 0 0 0 0 0 0 0 0 0 0 0 0 0 0 0 0 0 0 0 0 0 0 0 0 0 0 0 0 0 0 0 7 i 7 f z C O C C s y C s R R 1.3.|.A.E.O.x.x.s.s.s.s.s.G.O.O.O.O.r.O.O.O.r.`.D.`.D.`.`.t.t.B.z.z.q.q.C.q.q.q.z.B.`.D.R.r.r.O.O.O.G.G.G.O.O.O.r.2.u C y C C z B L y y C s y B z y s s y y y s O x x J u J J u J J u 9 -.0 0 0 0 0 0 0 0 0 0 0 0 0 0 0 0 0 0 0 0 0 0 0 0 0 0 0 0 0 0 0 0 0 0 0 0 0 0 0 0 0 0 0 0 0 0 0 0 0 0 0 0 0 0 0 0 0 0 0 0 0 0 0 0 0 0 0 0 0 0 0 0 J 7 -.0 0 7       2.I.#.++++Y.Q.[.< * * ,.< < * T.[.- A A %+%+Y.++* #.#.++++Y.%+++< @+A 3 - $ I.    ,     2 8 8     I.      H.H.            7 0 -.r r 0 7 7 7 -.0 -.-.6 7 -.0 0 0 0 0 0 0 0 0 0 0 0 0 0 0 0 0 0 0 0 0 0 0 0 0 0 0 0 0 0 0 0 0 0 0 0 0 0 0 0 0 0 0 0 0 0 0 0 0 0 0 0 0 ",
"0 0 0 0 0 0 0 0 0 0 0 0 0 0 0 0 0 0 0 0 0 0 0 0 0 0 0 0 0 0 0 0 0 0 0 0 0 0 0 0 0 0 0 0 0 0 0 0 0 0 0 0 0 0 0 0 0 0 0 0 0 0 0 0 0 0 0 0 0 0 0 0 0 0 0 0 0 0 0 0 0 0 0 0 0 0 0 0 0 0 0 0 0 0 0 0 0 0 0 0 0 0 0 0 0 0 0 0 0 0 0 0 0 0 0 0 0 0 0 0 0 0 0 0 0 0 0 0 0 0 0 0 0 0 0 0 0 0 0 0 0 0 0 0 0 0 0 0 0 0 0 0 0 0 0 0 0 0 0 0 0 0 0 0 0 0 0 0 0 0 0 0 0 0 0 0 0 0 0 0 0 0 0 0 0 0 0 0 0 0 0 0 0 _ t f C R 3.+ v.E.K.R.R.s.s.s.x.x.x.x.x.s.s.s.s.G.G.G.r.r.D.r.r.r.`.D.`.`.`.`.t.t.t.t.B.z.z.C.u.u.p.p.w.J.J.w.p.u.C.q.B.t.t.D.r.r.O.O.O.O.r.O.O.r.& u C z z C L C C C C C y P z C y s y s C s y x O x u J J J J J J } 6 0 0 0 0 0 0 0 0 0 0 0 0 0 0 0 0 0 0 0 0 0 0 0 0 0 0 0 0 0 0 0 0 0 0 0 0 0 0 0 0 0 0 0 0 0 0 0 0 0 0 0 0 0 0 0 0 0 0 0 0 0 0 0 0 0 0 0 0 0 0 0 0     -.  k r         #.* < [.=+.+=+$+~ [.* , [., ,.,., ,.++! D ' ' %+! ++[.] e.@+] ] d.1 0.0.~ - < n.< I.$ #.#.3     , #.#.#.n.n.$ *     H.    7 f   f l       r g   J g   j 7 -.0 0 0 0 0 0 0 0 0 0 0 0 0 0 0 0 0 0 0 0 0 0 0 0 0 0 0 0 0 0 0 0 0 0 0 0 0 0 0 0 0 0 0 0 0 0 0 0 0 0 0 ",
"0 0 0 0 0 0 0 0 0 0 0 0 0 0 0 0 0 0 0 0 0 0 0 0 0 0 0 0 0 0 0 0 0 0 0 0 0 0 0 0 0 0 0 0 0 0 0 0 0 0 0 0 0 0 0 0 0 0 0 0 0 0 0 0 0 0 0 0 0 0 0 0 0 0 0 0 0 0 0 0 0 0 0 0 0 0 0 0 0 0 0 0 0 0 0 0 0 0 0 0 0 0 0 0 0 0 0 0 0 0 0 0 0 0 0 0 0 0 0 0 0 0 0 0 0 0 0 0 0 0 0 0 0 0 0 0 0 0 0 0 0 0 0 0 0 0 0 0 0 0 0 0 0 0 0 0 0 0 0 0 0 0 0 0 0 0 0 0 0 0 0 0 0 0 0 0 0 0 0 0 0 0 0 0 0 0 0 0 0 0 0 0 e ) j 1+E.s.y.x.x.x.x.x.x.x.s.s.s.s.G.G.G.s.G.O.O.O.O.O.r.D.`.D.`.t.B.B.z.z.z.B.z.z.q.q.C.u.w.J.;+;+,+o.'+{+{+{+)+'+,+;+p.C.z.B.t.D.r.O.r.r.r.r.O.r.D.> j C L B z C C y y z y s C C z s s C C s s x x J u x u J J J J u J 0 0 0 0 0 0 0 0 0 0 0 0 0 0 0 0 0 0 0 0 0 0 0 0 0 0 0 0 0 0 0 0 0 0 0 0 0 0 0 0 0 0 0 0 0 0 0 0 0 0 0 0 0 0 0 0 0 0 0 0 0 0 0 0 0 0 -.0 0 0 0 7               #.      * < [.$+e.e.@+@+' ~ , [.[.= [.++$+Z.++- [.< - ~ ~ - ~ ! ] ] ( 1 ) i ( b A b b < ~ [.>.,.$ >.,.>.|.>.>.- >.|.A.v.2.I.I.    s           #.      #.        -.0 0 0 0 0 0 0 0 0 0 0 0 0 0 0 0 0 0 0 0 0 0 0 0 0 0 0 0 0 0 0 0 0 0 0 0 0 0 0 0 0 0 0 0 0 0 0 0 0 0 0 ",
"0 0 0 0 0 0 0 0 0 0 0 0 0 0 0 0 0 0 0 0 0 0 0 0 0 0 0 0 0 0 0 0 0 0 0 0 0 0 0 0 0 0 0 0 0 0 0 0 0 0 0 0 0 0 0 0 0 0 0 0 0 0 0 0 0 0 0 0 0 0 0 0 0 0 0 0 0 0 0 0 0 0 0 0 0 0 0 0 0 0 0 0 0 0 0 0 0 0 0 0 0 0 0 0 0 0 0 0 0 0 0 0 0 0 0 0 0 0 0 0 0 0 0 0 0 0 0 0 0 0 0 0 0 0 0 0 0 0 0 0 0 0 0 0 0 0 0 0 0 0 0 0 0 0 0 0 0 0 0 0 0 0 0 0 0 0 0 0 0 0 0 0 0 0 0 0 0 0 0 0 0 0 0 0 0 0 0 0 0 0 0 0   v.x.x.x.x.s.s.s.s.s.G.s.s.G.O.G.O.r.O.r.r.O.O.`.D.D.D.t.t.B.B.B.z.z.q.C.C.u.u.C.u.w.w.;+,+)+P.P.V.^+^+M.^+(+M._+^+]+{+'+;+p.C.z.B.t.D.r.r.r.r.r.r.r.t.2.r C B B C z C y C C y C C C y x z y y s s R R J x J J u J J J j m 0 0 0 0 0 0 0 0 0 0 0 0 0 0 0 0 0 0 0 0 0 0 0 0 0 0 0 0 0 0 0 0 0 0 0 0 0 0 0 0 0 0 0 0 0 0 0 0 0 0 0 0 0 0 0 0 0 0 0 0 0 0 0 0 -.-.7 0 7 0 j   h       $ , ,.* * $ #., T.Z.Z.$+1 A A ] ! ! %+! d.@+] i 1 ' b 3 N D 0.D 2 } } 8 t t : 7 t k k : 2 D 1 0.3 - - >.n.>.3 |.3 N >.n.|.n., >.n.,.H.I.#.$ , ,.* I.#.#.#.#.H.#.      0 0 0 0 0 0 0 0 0 0 0 0 0 0 0 0 0 0 0 0 0 0 0 0 0 0 0 0 0 0 0 0 0 0 0 0 0 0 0 0 0 0 0 0 0 0 0 0 0 0 0 ",
"0 0 0 0 0 0 0 0 0 0 0 0 0 0 0 0 0 0 0 0 0 0 0 0 0 0 0 0 0 0 0 0 0 0 0 0 0 0 0 0 0 0 0 0 0 0 0 0 0 0 0 0 0 0 0 0 0 0 0 0 0 0 0 0 0 0 0 0 0 0 0 0 0 0 0 0 0 0 0 0 0 0 0 0 0 0 0 0 0 0 0 0 0 0 0 0 0 0 0 0 0 0 0 0 0 0 0 0 0 0 0 0 0 0 0 0 0 0 0 0 0 0 0 0 0 0 0 0 0 0 0 0 0 0 0 0 0 0 0 0 0 0 0 0 0 0 0 0 0 0 0 0 0 0 0 0 0 0 0 0 0 0 0 0 0 0 0 0 0 0 0 0 0 0 0 0 0 0 0 0 0 0 0 0 0 0 0 0 0 0 r A.x.x.x.s.s.s.s.G.s.s.O.G.G.G.O.r.D.D.D.D.`.`.D.t.t.t.t.B.B.z.q.q.q.C.C.u.w.w.J.J.;+,+o.o.P.V.M.M. +U.L.L.L.L.L.L.L.L.:+(+^+P.'+J.u.q.z.t.`.D.D.D.D.D.`.`.B.#.y C B y P z C s z C C C B C s L y C y y s x J s x J J J x J R J 0 0 0 0 0 0 0 0 0 0 0 0 0 0 0 0 0 0 0 0 0 0 0 0 0 0 0 0 0 0 0 0 0 0 0 0 0 0 0 0 0 0 0 0 0 0 0 0 0 0 0 0 0 0 0 0 0 0 0 0 0 0 0 0 0     -.  0     E.2.I.#.$ [.[.[.[.< [.< < [.[.[.%+' A #+D ] ^ 1 ) / 9 t u f e u k k k g b k 8 s s f 8 x f 8 J x j _ 2 : N b ( g g |.g N l g l g g N N N N >.n.A.I., < < , < ,.* , < < - $     0 0 0 0 0 0 0 0 0 0 0 0 0 0 0 0 0 0 0 0 0 0 0 0 0 0 0 0 0 0 0 0 0 0 0 0 0 0 0 0 0 0 0 0 0 0 0 0 0 0 0 ",
"0 0 0 0 0 0 0 0 0 0 0 0 0 0 0 0 0 0 0 0 0 0 0 0 0 0 0 0 0 0 0 0 0 0 0 0 0 0 0 0 0 0 0 0 0 0 0 0 0 0 0 0 0 0 0 0 0 0 0 0 0 0 0 0 0 0 0 0 0 0 0 0 0 0 0 0 0 0 0 0 0 0 0 0 0 0 0 0 0 0 0 0 0 0 0 0 0 0 0 0 0 0 0 0 0 0 0 0 0 0 0 0 0 0 0 0 0 0 0 0 0 0 0 0 0 0 0 0 0 0 0 0 0 0 0 0 0 0 0 0 0 0 0 0 0 0 0 0 0 0 0 0 0 0 0 0 0 0 0 0 0 0 0 0 0 0 0 0 0 0 0 0 0 0 0 0 0 0 0 0 0 0 0 0 0 0 0 0 0 l K.x.s.G.s.G.G.G.O.O.O.G.O.r.r.D.t.D.`.t.D.t.B.z.B.B.z.q.z.q.C.C.u.p.p.w.J.;+'+o.o.o.P.V.M.M.U.L.N.N.W.W.Q.Q.Q.Q.Q.Q.Q.W.|+L.:+(+^+)+;+p.C.z.t.D.D.`.`.`.D.D.t.q.N z E y C z z y y B z C z B y C y P y y s x J s s x J J x J x u f 0 0 0 0 0 0 0 0 0 0 0 0 0 0 0 0 0 0 0 0 0 0 0 0 0 0 0 0 0 0 0 0 0 0 0 0 0 0 0 0 0 0 0 0 0 0 0 0 0 0 0 0 0 0 0 0 0 0 0 0 0 0 0 0 6   l g p     H.2.I.$ ,.< d.d.@+#+~ %+%+++[.Z.++[.++Z.%+' i 8 8 } 7 7 r y C v S y u m J J u t s e -.e d d e s x u k g 3.N N 3.|.3./.l g l x s N l 3.g |.|.>.>.n.>.|.|.- < 3 ' ' 0.0.< -     7 0 0 0 0 0 0 0 0 0 0 0 0 0 0 0 0 0 0 0 0 0 0 0 0 0 0 0 0 0 0 0 0 0 0 0 0 0 0 0 0 0 0 0 0 0 0 0 0 0 0 ",
"0 0 0 0 0 0 0 0 0 0 0 0 0 0 0 0 0 0 0 0 0 0 0 0 0 0 0 0 0 0 0 0 0 0 0 0 0 0 0 0 0 0 0 0 0 0 0 0 0 0 0 0 0 0 0 0 0 0 0 0 0 0 0 0 0 0 0 0 0 0 0 0 0 0 0 0 0 0 0 0 0 0 0 0 0 0 0 0 0 0 0 0 0 0 0 0 0 0 0 0 0 0 0 0 0 0 0 0 0 0 0 0 0 0 0 0 0 0 0 0 0 0 0 0 0 0 0 0 0 0 0 0 0 0 0 0 0 0 0 0 0 0 0 0 0 0 0 0 0 0 0 0 0 0 0 0 0 0 0 0 0 0 0 0 0 0 0 0 0 0 0 0 0 0 0 0 0 0 0 0 0 0 0 0 0 0 0 0 N s.s.G.G.G.G.O.O.r.D.D.`.r.r.r.D.t.t.t.z.z.z.z.q.q.q.q.C.u.u.p.w.J.J.,+,+o.o.P.V.V.M.M. +U.N.N.Q.Q.Q.Y.S.S.S.S.S.S.S.S.S.Y.Y.Q.N.L.:+^+P.,+w.C.B.`.D.D.D.D.D.r.D.z.J.u E y C z z z y B z B B B y y y z B s s s x y y J x x x x J u f 0 0 0 0 0 0 0 0 0 0 0 0 0 0 0 0 0 0 0 0 0 0 0 0 0 0 0 0 0 0 0 0 0 0 0 0 0 0 0 0 0 0 0 0 0 0 0 0 0 0 0 0 0 0 0 0 0 0 0 0 0 8 6 7 0       5+    #.I.#.#., < ++d.@+^ e.@+] @+#+! %+$+#+' 0.0.A ) 8 r r s e C z B w H U v 7 f f r u J 8 x y 1././.1.1.3.l X.3.2+/.1.X.X./.3./.y y u j /.N N N |.N |.N |.N N N 2 N b ( A - 3     7 0 0 0 0 0 0 0 d 0 0 0 0 0 0 0 0 0 0 0 0 0 0 0 0 0 0 0 0 0 0 0 0 0 0 0 0 0 0 0 0 0 0 0 0 0 0 0 0 0 0 ",
"0 0 0 0 0 0 0 0 0 0 0 0 0 0 0 0 0 0 0 0 0 0 0 0 0 0 0 0 0 0 0 0 0 0 0 0 0 0 0 0 0 0 0 0 0 0 0 0 0 0 0 0 0 0 0 0 0 0 0 0 0 0 0 0 0 0 0 0 0 0 0 0 0 0 0 0 0 0 0 0 0 0 0 0 0 0 0 0 0 0 0 0 0 0 0 0 0 0 0 0 0 0 0 0 0 0 0 0 0 0 0 0 0 0 0 0 0 0 0 0 0 0 0 0 0 0 0 0 0 0 0 0 0 0 0 0 0 0 0 0 0 0 0 0 0 0 0 0 0 0 0 0 0 0 0 0 0 0 0 0 0 0 0 0 0 0 0 0 0 0 0 0 0 0 0 0 0 0 0 0 0 0 0 0 0 0 0 |.O.O.O.O.O.O.R.r.D.t.t.t.B.t.t.t.B.B.z.z.q.z.C.u.u.p.w.p.w.J.;+,+o.o.P.V.V.V.M. +:+L.L.N.W.Q.Q.Y.Y.S..+=+=+=+=+*+*+*+>+*+=+=+.+S.Q.|+N.:+M.P.,+w.C.t.`.D.`.r.r.O.O.t.u.$ z y C C B v y B z E B E z C z z B y y y s s s x s f J J J t 9 6 0 0 0 0 0 0 0 0 0 0 0 0 0 0 0 0 0 0 0 0 0 0 0 0 0 0 0 0 0 0 0 0 0 0 0 0 0 0 0 0 0 0 0 0 0 0 0 0 0 0 0 0 0 0 0 0 0 0 0 0 0   7 r             $ n.>.>.++~ %+D ' A ] i : } } : 1 ] ' A ] ] ( ( ( 2 j j u y y y C z C y y x u t u u u j j j 3.2+4+2+/./.3.3.X.X.3.1./././.1.R y C x 1.l g l l g g 2 g g N g g b b _ D 0.3 #.    6 0 0 0 0 0 -.0 0 0 0 0 0 0 0 0 0 0 0 0 0 0 0 0 0 0 0 0 0 0 0 0 0 0 0 0 0 0 0 0 0 0 0 0 0 0 0 0 0 0 ",
"0 0 0 0 0 0 0 0 0 0 0 0 0 0 0 0 0 0 0 0 0 0 0 0 0 0 0 0 0 0 0 0 0 0 0 0 0 0 0 0 0 0 0 0 0 0 0 0 0 0 0 0 0 0 0 0 0 0 0 0 0 0 0 0 0 0 0 0 0 0 0 0 0 0 0 0 0 0 0 0 0 0 0 0 0 0 0 0 0 0 0 0 0 0 0 0 0 0 0 0 0 0 0 0 0 0 0 0 0 0 0 0 0 0 0 0 0 0 0 0 0 0 0 0 0 0 0 0 0 0 0 0 0 0 0 0 0 0 0 0 0 0 0 0 0 0 0 0 0 0 0 0 0 0 0 0 0 0 0 0 0 0 0 0 0 0 0 0 0 0 0 0 0 0 0 0 0 0 0 0 0 0 0 0 0 0 N r.R.r.R.D.r.D.`.`.t.z.B.z.z.q.q.z.q.C.C.C.C.u.w.;+;+;+,+,+o.P.P.V.V.M.M. +U.L.N.N.W.Q.Q.Y.Y.S.S.S..+=+=+*+>+>+>+>+>+&+&+&+>+>+>+*+.+S.Q.N.:+M.P.'+w.q.t.`.`.t.D.O.r.t.q.J.g z C C B E y y B z E E E C C C y z y y s s s s y C x J J J } e 0 0 0 0 0 0 0 0 0 0 0 0 0 0 0 0 0 0 0 0 0 0 0 0 0 0 0 0 0 0 0 0 0 0 0 0 0 0 0 0 0 0 0 0 0 0 0 0 0 0 0 0 0 0 0 -.7 0 0 0 0 -.  f   ,., * $ $   - 3 3 0.D A 1 1 ^ 1 i ) t j } 8 -.).} ) ^ ) ) _ _ k k j j r s x u j j u 8 J J J x y y M 2+1./.1.2+X.3+3+3+X.2+R 6+4+3.l s C E B O 1.1.R O s j j l _ : l 3.k j 2 2 2 b ( >.H.    t 6 0 0 d 0 0 0 0 0 0 0 0 0 0 0 0 0 0 0 0 0 0 0 0 0 0 0 0 0 0 0 0 0 0 0 0 0 0 0 0 0 0 0 0 0 0 0 0 ",
"0 0 0 0 0 0 0 0 0 0 0 0 0 0 0 0 0 0 0 0 0 0 0 0 0 0 0 0 0 0 0 0 0 0 0 0 0 0 0 0 0 0 0 0 0 0 0 0 0 0 0 0 0 0 0 0 0 0 0 0 0 0 0 0 0 0 0 0 0 0 0 0 0 0 0 0 0 0 0 0 0 0 0 0 0 0 0 0 0 0 0 0 0 0 0 0 0 0 0 0 0 0 0 0 0 0 0 0 0 0 0 0 0 0 0 0 0 0 0 0 0 0 0 0 0 0 0 0 0 0 0 0 0 0 0 0 0 0 0 0 0 0 0 0 0 0 0 0 0 0 0 0 0 0 0 0 0 0 0 0 0 0 0 0 0 0 0 0 0 0 0 0 0 0 0 0 0 0 0 0 0 0 0 0 0 g `.`.`.t.t.t.t.B.B.z.z.q.q.C.C.u.p.u.p.J.J.w.J.;+,+o.o.P.V.V.^+M. +U.L.L.N.N.W.Q.Q.Y.Y.S.S..+.+=+=+=+*+>+>+>+&+| | f.f.6 f.f.f.f.| &+>+*+.+Y.W.:+M.P.,+u.B.`.D.D.D.D.O.`.z.w.$ y y z B F B C z E L =.F B z y C z s y y e s y y C y J J x u r q 0 0 0 0 0 0 0 0 0 0 0 0 0 0 0 0 0 0 0 0 0 0 0 0 0 0 0 0 0 0 0 0 0 0 0 0 0 0 0 0 0 0 0 0 0 0 0 0 0 0 0 0 0 0 0 g t 0 0 t 7       , ~ >.< * #.3 N A _ '.} '.9 t 8 8 t h.8 m t t u e d 7 ).7 6 t : : : _ 2 2 k l k j j j j j 1.R R M 4+4+2+2+4+2+3.3.1.2+X.1+3+2+l /.P E P B w P y z v B y s j j } : j k l j j k 2 2 b b < #.H.  s -.7 6   -.7 0 0 0 0 0 0 0 0 0 0 0 0 0 0 0 0 0 0 0 0 0 0 0 0 0 0 0 0 0 0 0 0 0 0 0 0 0 0 0 0 0 ",
"0 0 0 0 0 0 0 0 0 0 0 0 0 0 0 0 0 0 0 0 0 0 0 0 0 0 0 0 0 0 0 0 0 0 0 0 0 0 0 0 0 0 0 0 0 0 0 0 0 0 0 0 0 0 0 0 0 0 0 0 0 0 0 0 0 0 0 0 0 0 0 0 0 0 0 0 0 0 0 0 0 0 0 0 0 0 0 0 0 0 0 0 0 0 0 0 0 0 0 0 0 0 0 0 0 0 0 0 0 0 0 0 0 0 0 0 0 0 0 0 0 0 0 0 0 0 0 0 0 0 0 0 0 0 0 0 0 0 0 0 0 0 0 0 0 0 0 0 0 0 0 0 0 0 0 0 0 0 0 0 0 0 0 0 0 0 0 0 0 0 0 0 0 0 0 0 0 0 0 0 0 0 0 0 r B.t.z.z.z.z.q.q.C.C.C.u.u.p.w.w.J.;+;+'+o.o.o.o.P.P.^+M. + +U.U.N.N.W.Q.Q.Y.Y.Y.S.S..+.+=+=+=+*+*+>+e.&+/ | f.f.c c _.o o }.}.o o a c f.| >+*+S.W.:+^+{+J.z.t.`.`.r.r.r.r.t.u.o.2 z L E I E C B F B L =.B z C B z y s y f s s C y C x x x u _ ).0 0 0 0 0 0 0 0 0 0 0 0 0 0 0 0 0 0 0 0 0 0 0 0 0 0 0 0 0 0 0 0 0 0 0 0 0 0 0 0 0 0 0 0 0 0 0 0 0 0 0 0 0 0 0 7     j j           %+N N |.>.3 N g k k } J r s 7 r r s d d e f y s e d f y z y e r 7 t t j k k j u j 1.1.R M M 4+2+3+2+2+6+5+5+/.2+/././.3.2+2+3.4+1.R R R 1.x z w T H C C x x J t r j k l j k g 2 b b 2 N , H.        7 j t J 0 0 0 0 0 0 0 0 0 0 0 0 0 0 0 0 0 0 0 0 0 0 0 0 0 0 0 0 0 0 0 0 0 0 0 0 0 0 0 0 ",
"0 0 0 0 0 0 0 0 0 0 0 0 0 0 0 0 0 0 0 0 0 0 0 0 0 0 0 0 0 0 0 0 0 0 0 0 0 0 0 0 0 0 0 0 0 0 0 0 0 0 0 0 0 0 0 0 0 0 0 0 0 0 0 0 0 0 0 0 0 0 0 0 0 0 0 0 0 0 0 0 0 0 0 0 0 0 0 0 0 0 0 0 0 0 0 0 0 0 0 0 0 0 0 0 0 0 0 0 0 0 0 0 0 0 0 0 0 0 0 0 0 0 0 0 0 0 0 0 0 0 0 0 0 0 0 0 0 0 0 0 0 0 0 0 0 0 0 0 0 0 0 0 0 0 0 0 0 0 0 0 0 0 0 0 0 0 0 0 0 0 0 0 0 0 0 0 0 0 0 0 0 0 0 0 H.t.z.z.q.q.C.u.p.w.w.J.;+;+,+'+o.P.P.P.V.V.^+^+M. + +L.L.N.W.W.Q.Q.Y.Y.S.S..+.+.+=+=+=+=+*+*+*+e.&+| 5 6 0 _.o }.U T +.*.Y Y Y *.*.+.j._.c f.| *+S.Q.:+]+,+u.B.t.`.D.D.r.r.t.q.o.[.C L E @.K z C =.=.=.B B B C B z C s B s y f y C C y s u J }   q 0 0 0 0 0 0 0 0 0 0 0 0 0 0 0 0 0 0 0 0 0 0 0 0 0 0 0 0 0 0 0 0 0 0 0 0 0 0 0 0 0 0 0 0 0 0 0 0 0 0 0 0 0 0 0 k         < 0.3 D b b N |.|.N b 2 2 _ k : j j J x s y C C s R R s s C C y C B C E z x s s s u j j 1.R O O 6+6+6+2+3+1.M 4+4+4+2+2+2+4+3+2+3+4+5+2+/./.R R s s z p v w B L C y s x s s J j j R 1.l k k k : N >.n.#.*   g     j 7 0 0 0 0 0 0 0 0 0 0 0 0 0 0 0 0 0 0 0 0 0 0 0 0 0 0 0 0 0 0 0 0 0 0 0 0 0 0 0 ",
"0 0 0 0 0 0 0 0 0 0 0 0 0 0 0 0 0 0 0 0 0 0 0 0 0 0 0 0 0 0 0 0 0 0 0 0 0 0 0 0 0 0 0 0 0 0 0 0 0 0 0 0 0 0 0 0 0 0 0 0 0 0 0 0 0 0 0 0 0 0 0 0 0 0 0 0 0 0 0 0 0 0 0 0 0 0 0 0 0 0 0 0 0 0 0 0 0 0 0 0 0 0 0 0 0 0 0 0 0 0 0 0 0 0 0 0 0 0 0 0 0 0 0 0 0 0 0 0 0 0 0 0 0 0 0 0 0 0 0 0 0 0 0 0 0 0 0 0 0 0 0 0 0 0 0 0 0 0 0 0 0 0 0 0 0 0 0 0 0 0 0 0 0 0 0 0 0 0 0 0 0 0 0 N z.z.q.q.u.u.p.J.;+,+o.o.P.P.V.V.^+M.M. + +U.L.L.N.W.Q.Q.Q.Y.Y.S.S.S..+.+=+=+*+*+*+*+*+*+*+e.&+| !.-.d p w S ..*.Y `  .$.<.<.<.$. . . .Y +.j._.c f.>+.+W.(+{+J.q.t.t.D.D.r.D.t.C.,+M.J =.4.a.E B C B B B F B B B E z C C C s s C C C C y y x x t   q 0 0 0 0 0 0 0 0 0 0 0 0 0 0 0 0 0 0 0 0 0 0 0 0 0 0 0 0 0 0 0 0 0 0 0 0 0 0 0 0 0 0 0 0 0 0 0 0 0 0 0 0 7 7 j   #.$ ,.< ++' b b 2 } j l g l k t 8 J u j k k k j t 8 8 J J J x s y s O P O O C M P s y C E F B R O M O 1./.2+5+P P 6+6+5+6+7+1.2+3.2+4+2+2+3+3+/.3+/.2+2+5+P L =.=.B z E F B P y x e s x j l 3.3.l u j t j l N n.n.$ $ #.    -.0 0 0 0 0 0 0 0 0 0 0 0 0 0 0 0 0 0 0 0 0 0 0 0 0 0 0 0 0 0 0 0 0 0 0 0 0 0 0 ",
"0 0 0 0 0 0 0 0 0 0 0 0 0 0 0 0 0 0 0 0 0 0 0 0 0 0 0 0 0 0 0 0 0 0 0 0 0 0 0 0 0 0 0 0 0 0 0 0 0 0 0 0 0 0 0 0 0 0 0 0 0 0 0 0 0 0 0 0 0 0 0 0 0 0 0 0 0 0 0 0 0 0 0 0 0 0 0 0 0 0 0 0 0 0 0 0 0 0 0 0 0 0 0 0 0 0 0 0 0 0 0 0 0 0 0 0 0 0 0 0 0 0 0 0 0 0 0 0 0 0 0 0 0 0 0 0 0 0 0 0 0 0 0 0 0 0 0 0 0 0 0 0 0 0 0 0 0 0 0 0 0 0 0 0 0 0 0 0 0 0 0 0 0 0 0 0 0 0 0 0 0 0 7 E.q.C.u.p.w.J.,+o.P.V.^+M. + +:+L.L.N.N.W.W.Q.Q.Y.Y.S.S.S..+.+=+=+=+=+*+*+>+>+>+>+*+*+&+/ 9 !.-.q v S Q V X Z Z <.^.<.8.Z Z l.%.%.%.X %.%.` Y B+o c f.*+S.L.^+'+u.B.t.D.r.D.t.z.C.;+V.b =.4.4.K E C L B z E E E E E B C C y f f z C y C y y x x u k 6 0 0 0 0 0 0 0 0 0 0 0 0 0 0 0 0 0 0 0 0 0 0 0 0 0 0 0 0 0 0 0 0 0 0 0 0 0 0 0 0 0 0 0 0 0 0 7 r j k |.>.  * ,., >.- 3 >.N |.N N l J R x /.l l u u s x x s s s x u u u u x y C L L =.L L P P L M 4+5+M P E 6+6+5+O 7+6+6+5+M L 6+4+2+2+2+7+m.5+6+R /.1.1./.l l /./.2+2+4+2+5+6+5+M M F G I F L B O R R R x u /./.l 3.X.3.u j g N |.>.3 < ,.  k 0 0 0 0 0 0 0 0 0 0 0 0 0 0 0 0 0 0 0 0 0 0 0 0 0 0 0 0 0 0 0 0 0 0 0 0 0 0 0 ",
"0 0 0 0 0 0 0 0 0 0 0 0 0 0 0 0 0 0 0 0 0 0 0 0 0 0 0 0 0 0 0 0 0 0 0 0 0 0 0 0 0 0 0 0 0 0 0 0 0 0 0 0 0 0 0 0 0 0 0 0 0 0 0 0 0 0 0 0 0 0 0 0 0 0 0 0 0 0 0 0 0 0 0 0 0 0 0 0 0 0 0 0 0 0 0 0 0 0 0 0 0 0 0 0 0 0 0 0 0 0 0 0 0 0 0 0 0 0 0 0 0 0 0 0 0 0 0 0 0 0 0 0 0 0 0 0 0 0 0 0 0 0 0 0 0 0 0 0 0 0 0 0 0 0 0 0 0 0 0 0 0 0 0 0 0 0 0 0 0 0 0 0 0 0 0 0 0 0 0 0 0 0 |.C.u.p.J.;+'+o.V.^+ +L.L.N.W.W.W.Q.Q.Q.Y.S.S.S..+.+=+=+=+*+>+>+>+>+>+>+>+>+>+>+&+| 5 6 e q v H G W &.%.8.<.:.:.:.<.Z Z 8.Z 8.8.8.8.Z Z %.&.&.V ..B+o c | *+Z.U.P.w.z.t.t.t.t.`.B.q.J.P.Z.B E =.E z z C C C z B E =.E B C C y f f C E C B y y s s u }   0 0 0 0 0 0 0 0 0 0 0 0 0 0 0 0 0 0 0 0 0 0 0 0 0 0 0 0 0 0 0 0 0 0 0 0 0 0 0 0 0 0 7 j           $ #.#.< 3 3 3 3 N b b N N l l 3./.l l 3.g l j u J x r J x s s y y s O R u u s O M L m.L L =.L 7+M 7+L 5+5+5+5+5+5+M M L 7+6.7+6+6+2+5+5+7+m.6+5+M 5+/.1.O 6+4+2+/./.4+4+4+4+4+4+6+L 4.K a.=.=.L M 1././.1.R R 1././.l 3.g g g N N |.~ < #.  m   0 0 0 0 0 0 0 0 0 0 0 0 0 0 0 0 0 0 0 0 0 0 0 0 0 0 0 0 0 0 0 0 0 0 0 0 0 ",
"0 0 0 0 0 0 0 0 0 0 0 0 0 0 0 0 0 0 0 0 0 0 0 0 0 0 0 0 0 0 0 0 0 0 0 0 0 0 0 0 0 0 0 0 0 0 0 0 0 0 0 0 0 0 0 0 0 0 0 0 0 0 0 0 0 0 0 0 0 0 0 0 0 0 0 0 0 0 0 0 0 0 0 0 0 0 0 0 0 0 0 0 0 0 0 0 0 0 0 0 0 0 0 0 0 0 0 0 0 0 0 0 0 0 0 0 0 0 0 0 0 0 0 0 0 0 0 0 0 0 0 0 0 0 0 0 0 0 0 0 0 0 0 0 0 0 0 0 0 0 0 0 0 0 0 0 0 0 0 0 0 0 0 0 0 0 0 0 0 0 0 0 0 0 0 0 0 0 0 0 0 -.h u.p.J.,+P.V.^+ +N.W.Q.Y.Y.Y.$+#+#+.+.+=+=+*+*+>+>+>+>+>+>+>+>+>+>+>+&+&+| n 0 p w S G Q W 5.7.Z 8.g.c.c.:.g.8.8.8.8.8.8.8.8.8.8.8.Z Z %.%.X &.W T U a f.&+S.N.^+,+C.B.t.t.t.B.t.q.w.V.N.C B F B z C C y y z E B =.F B z C C e f z w z C C y y y s t h.6 0 0 0 0 0 0 0 0 0 0 0 0 0 0 0 0 0 0 0 0 0 0 0 0 0 0 0 0 0 0 0 0 0 0 0 0 0 0 0 -.J               $ * ,.< 0.D b ( 1 _ : j l u j l l g k k u J r x s s y s s y C C C y C C C z E I E K K m.7+M M m.6.a.6+P =.7+7+5+7+5+6+5+4+6+m.M R 2+5+7+a.7+7+7+7+7+5+2+M 1.R O O M O O M R 4+M 5+5+7+6+6+5+6+O 5+1.R R R 1./.R u R R R R u k 2 g |.>.0.< ,     -.-.0 0 0 0 0 0 0 0 0 0 0 0 0 0 0 0 0 0 0 0 0 0 0 0 0 0 0 0 0 0 0 0 0 0 0 ",
"0 0 0 0 0 0 0 0 0 0 0 0 0 0 0 0 0 0 0 0 0 0 0 0 0 0 0 0 0 0 0 0 0 0 0 0 0 0 0 0 0 0 0 0 0 0 0 0 0 0 0 0 0 0 0 0 0 0 0 0 0 0 0 0 0 0 0 0 0 0 0 0 0 0 0 0 0 0 0 0 0 0 0 0 0 0 0 0 0 0 0 0 0 0 0 0 0 0 0 0 0 0 0 0 0 0 0 0 0 0 0 0 0 0 0 0 0 0 0 0 0 0 0 0 0 0 0 0 0 0 0 0 0 0 0 0 0 0 0 0 0 0 0 0 0 0 0 0 0 0 0 0 0 0 0 0 0 0 0 0 0 0 0 0 0 0 0 0 0 0 0 0 0 0 0 0 0 0 0 0 0 N p.w.J.'+o.V.M.U.N.Z.$+#+.+@+@+=+@+*+*+*+*+>+>+>+>+>+>+>+&+>+&+/ | 5 6 d v S Q V &.X %.l.8.8.8.g.:.:.:.g.8.8.8.8.8.8.8.8.8.8.8.8.8.Z Z Z %.X X X V ..S o c 5 *+Q. +o.u.B.B.B.B.z.B.q.w.P.L.s B F F B C z e y B E C =.F B C C y e e B I B q y z j |.+ H.2.H.+ j 0 0 0 0 0 0 0 0 0 0 0 0 0 0 0 0 0 0 0 0 0 0 0 0 0 0 0 0 0 0 0 0 0 0 0 0 7 J       $ , , < 3 D 0.A ( _ : : : k l g l l 3.3.l j x s s y y C B z y x O s s O y y y O P L =.a.=.4.7+M M P L L 7+7+5+6+m.m.6+7+7+m.6+5+/.2+4+5+2+1.L =.4.a.7+6+6+M L O O O M L L M O R P M M =.6+5+6+4+4+2+5+4+1.5+5+4+P M 1.1.1.1././.2+R R l 3.l l |.>.- <         0 0 0 0 0 0 0 0 0 0 0 0 0 0 0 0 0 0 0 0 0 0 0 0 0 0 0 0 0 0 0 0 0 0 0 ",
"0 0 0 0 0 0 0 0 0 0 0 0 0 0 0 0 0 0 0 0 0 0 0 0 0 0 0 0 0 0 0 0 0 0 0 0 0 0 0 0 0 0 0 0 0 0 0 0 0 0 0 0 0 0 0 0 0 0 0 0 0 0 0 0 0 0 0 0 0 0 0 0 0 0 0 0 0 0 0 0 0 0 0 0 0 0 0 0 0 0 0 0 0 0 0 0 0 0 0 0 0 0 0 0 0 0 0 0 0 0 0 0 0 0 0 0 0 0 0 0 0 0 0 0 0 0 0 0 0 0 0 0 0 0 0 0 0 0 0 0 0 0 0 0 0 0 0 0 0 0 0 0 0 0 0 0 0 0 0 0 0 0 0 0 0 0 0 0 0 0 0 0 0 0 0 0 0 0 0 0 0 2.w.;+,+)+V.M.U.N.Z.#+.+*+e.e.&+&+&+&+&+&+&+&+&+&+/ | | 5 6 -.q v H G ..&.%.Z 8.<.8.<.g.g.c.c.8.9.a.a.a.9.8.<.8.8.8.8.8.8.8.8.Z Z %.%.%.Z %.%.X X &.V T H ~.f.e.Y.U.P.p.z.B.B.B.z.z.q.w.P.U.J F E E B z C z e z B C C 4.E z C e f d E I B v k #.C.z.B.z.q.C.u.u.I.j 0 0 0 0 0 0 0 0 0 0 0 0 0 0 0 0 0 0 0 0 0 0 0 0 0 0 0 0 0 0 0 0 -.k   H.I., %+A 1 ^ ^ ^ ^ i '.'.: j t j k /.l l l g g /.1.1.R x x s s O y P P B 4.4.=.L E B C y s R R y P B K 4.K 6.a.6.7+5+6+9.6+4+7+6+6+7+M L 7+4+6+7+4.4.4.a.4.P O 5+4+O P y y s C y y C L L a.a.7+7+5+5+6+4+5+M O 1.O 5+1.2+4+1.1.R R R 1./.l l g l k J j b >.< <         0 0 0 0 0 0 0 0 0 0 0 0 0 0 0 0 0 0 0 0 0 0 0 0 0 0 0 0 0 0 0 0 0 0 ",
"0 0 0 0 0 0 0 0 0 0 0 0 0 0 0 0 0 0 0 0 0 0 0 0 0 0 0 0 0 0 0 0 0 0 0 0 0 0 0 0 0 0 0 0 0 0 0 0 0 0 0 0 0 0 0 0 0 0 0 0 0 0 0 0 0 0 0 0 0 0 0 0 0 0 0 0 0 0 0 0 0 0 0 0 0 0 0 0 0 0 0 0 0 0 0 0 0 0 0 0 0 0 0 0 0 0 0 0 0 0 0 0 0 0 0 0 0 0 0 0 0 0 0 0 0 0 0 0 0 0 0 0 0 0 0 0 0 0 0 0 0 0 0 0 0 0 0 0 0 0 0 0 0 0 0 0 0 0 0 0 0 0 0 0 0 0 0 0 0 0 0 0 0 0 0 0 0 0 0 0 t p.J.,+)+P.M.U.N.Z.#+@+e.&+&+/ | | | 5 5 n n 6 (.q p w H G Q V &.%.Z 8.<.<.:.:.:.:.:.c.c.l.7+3+X.1+1+}+1+1+X.4+m.<.8.8.8.8.8.Z %.%.X X %.X &.%.%.X &.V T S o k.| .+N.V.J.q.B.t.B.z.q.C.J.P.U.: B E E B z z C q C L C C =.z z C f f C B Q E 3 J.u.q.z.q.u.;+)+{+)+;+u.|.-.0 0 0 0 0 0 0 0 0 0 0 0 0 0 0 0 0 0 0 0 0 0 0 0 0 0 0 0 6 g   I.#.T.%+A ] 1 / 5 5 5 6 n 6 7 j k l k l g l k u j u u J x e y C z E B z O O O O O M M M P O s x C y L E =.=.4.6.a.a.6.7+a.6.5.6.a.7+7+4+1.7+L 6+4+6+m.7+a.m.5+5+6+4.M M O s P x O P P P =.4.m.7+O O 6+6+O 6+6+7+6+O 1.O O 1./.R 1././.1.1.1.k k j j k j J r k N n.>., #.    J 7 0 0 0 0 0 0 0 0 0 0 0 0 0 0 0 0 0 0 0 0 0 0 0 0 0 0 0 0 0 0 0 0 ",
"0 0 0 0 0 0 0 0 0 0 0 0 0 0 0 0 0 0 0 0 0 0 0 0 0 0 0 0 0 0 0 0 0 0 0 0 0 0 0 0 0 0 0 0 0 0 0 0 0 0 0 0 0 0 0 0 0 0 0 0 0 0 0 0 0 0 0 0 0 0 0 0 0 0 0 0 0 0 0 0 0 0 0 0 0 0 0 0 0 0 0 0 0 0 0 0 0 0 0 0 0 0 0 0 0 0 0 0 0 0 0 0 0 0 0 0 0 0 0 0 0 0 0 0 0 0 0 0 0 0 0 0 0 0 0 0 0 0 0 0 0 0 0 0 0 0 0 0 0 0 0 0 0 0 0 0 0 0 0 0 0 0 0 0 0 0 0 0 0 0 0 0 0 0 0 0 0 0 0 0 |.w.;+'+P.^+ +N.Q.#+*+&+| 5 f.f.c a ~.w H S G Q V &.7.7.l.%.%.8.8.g.g.c.c.c.c.c.c.<.8.8.6+1+}+}+a+a+a+a+a+a+a+}+}+X.m.8.l.%.Z %.X X X &.&.&.&.&.X X &.V ..G w a 5 *+Q.^+;+C.B.B.B.z.C.u.J.P.U.i B E z z B C C z e B C B L z z z f f C E E < ,+w.q.q.u.J.{+_+:+:+(+b+'+p.H.-.0 0 0 0 0 0 0 0 0 0 0 0 0 0 0 0 0 0 0 0 0 0 0 0 0 -.J   H.,.* - ~ - 0.D ] 1 | n 6 5 -.).J k k k l l l k j x y y y C C z w H F =.L P P L L L =.=.F K K 6.4.m.F 4.K K =.=.4.m.6+m.7+6+7+6.6.m.5.6.m.P 7+5+m.m.5+5+6+7+6+6+4+4+M O y y y y y C z P L 4.m.M M M M 6+M O 6+m.a.m.L O O M m.R 1.4+5+P 7+P M O y R R u j k k u u g N N |.H.        0 7 0 0 0 0 0 0 0 0 0 0 0 0 0 0 0 0 0 0 0 0 0 0 0 0 0 0 0 0 0 0 ",
"0 0 0 0 0 0 0 0 0 0 0 0 0 0 0 0 0 0 0 0 0 0 0 0 0 0 0 0 0 0 0 0 0 0 0 0 0 0 0 0 0 0 0 0 0 0 0 0 0 0 0 0 0 0 0 0 0 0 0 0 0 0 0 0 0 0 0 0 0 0 0 0 0 0 0 0 0 0 0 0 0 0 0 0 0 0 0 0 0 0 0 0 0 0 0 0 0 0 0 0 0 0 0 0 0 0 0 0 0 0 0 0 0 0 0 0 0 0 0 0 0 0 0 0 0 0 0 0 0 0 0 0 0 0 0 0 0 0 0 0 0 0 0 0 0 0 0 0 0 0 0 0 0 0 0 0 0 0 0 0 0 0 0 0 0 0 0 0 0 0 0 0 0 0 0 0 0 0 0 0 @ J.,+{+P.M.L.Q.$+@+&+| f.f.c o }.G ..V X %.Z 8.8.8.g.g.g.g.g.g.g.g.g.c.c.g.8.7.7.5.9.X.}+a+a+~+~+d+d+e+d+d+c+~+a+}+}+4+7.%.X &.&.&.7.&.&.&.&.&.&.&.7.&.V Q S ~.6 e.Y. +;+C.z.B.B.q.C.p.;+P.U._ B K z C B C q z z z B B L L C z d f B v - '+J.C.q.u.,+]+(+[+|+|+[+(+]+)+J.#.-.0 0 0 0 0 0 0 0 0 0 0 0 0 0 0 0 0 0 0 0 0 0 0 0 6         I., ~ ' i ) 9 n n !.6 -.).u j j /.u j j u R R y C C L z C z C y O y z L z L B E F =.4.F a.K I =.m.6.9.@.W a.6.4.m.m.6+6+4+5+5+m.4.a.m.m.6+4+7+6+5+4+6+6+7+6+6+M M P L L =.=.L P L P O s O s O M M P =.=.4.4.4.m.L R R R 4.M R 5+1.O 5+6+m.=.M R 1.1.J j k _ k u g N |.A.I.*       0 0 0 0 0 0 0 0 0 0 0 0 0 0 0 0 0 0 0 0 0 0 0 0 0 0 0 0 0 0 0 ",
"0 0 0 0 0 0 0 0 0 0 0 0 0 0 0 0 0 0 0 0 0 0 0 0 0 0 0 0 0 0 0 0 0 0 0 0 0 0 0 0 0 0 0 0 0 0 0 0 0 0 0 0 0 0 0 0 0 0 0 0 0 0 0 0 0 0 0 0 0 0 0 0 0 0 0 0 0 0 0 0 0 0 0 0 0 0 0 0 0 0 0 0 0 0 0 0 0 0 0 0 0 0 0 0 0 0 0 0 0 0 0 0 0 0 0 0 0 0 0 0 0 0 0 0 0 0 0 0 0 0 0 0 0 0 0 0 0 0 0 0 0 0 0 0 0 0 0 0 0 0 0 0 0 0 0 0 0 0 0 0 0 0 0 0 0 0 0 0 0 0 0 0 0 0 0 0 0 0 0 J w.;+)+8+^+ +N.Y..+e./ f.f.a o U ..&.%.8.8.g.g.g.c.c.c.c.c.c.c.g.g.g.g.8.7.5.5.5.5.6.1+a+a+c+e+/+f+f+f+f+f+f+f+f+/+d+a+}+X.@.&.V ..V &.V V W W W &.&.5.V Q Q G v (./ $+U.,+u.z.B.z.q.C.u.;+o.U._ z E z z B B z B B C z z B z C e d e p 2 )+J.u.q.p.,+8+_+(+[+|+|+[+(+b+8+'+w.N 0 0 0 0 0 0 0 0 0 0 0 0 0 0 0 0 0 0 0 0 0 0 0 0 7           0.( ) h.9 5 5 !.h.).J j k l l l l k j J s y B z E B B z y s s y O O O x y P z P L =.K I 4.6.9.4.a.a.9.7.6.a.m.a.6.7+6+7+6+7+4+5+m.9.m.7+7+7+6+5+O 6+6+7+M L L L =.F K 4.F =.P P z C y s P L L 4.9.6.m.P 7+m.4.=.O R M 7+M R R R O =.5+O 5+5+1.O u 1.u k 2 b k j g |.N n.A.#.    0 0 0 0 0 0 0 0 0 0 0 0 0 0 0 0 0 0 0 0 0 0 0 0 0 0 0 0 0 0 0 ",
"0 0 0 0 0 0 0 0 0 0 0 0 0 0 0 0 0 0 0 0 0 0 0 0 0 0 0 0 0 0 0 0 0 0 0 0 0 0 0 0 0 0 0 0 0 0 0 0 0 0 0 0 0 0 0 0 0 0 0 0 0 0 0 0 0 0 0 0 0 0 0 0 0 0 0 0 0 0 0 0 0 0 0 0 0 0 0 0 0 0 0 0 0 0 0 0 0 0 0 0 0 0 0 0 0 0 0 0 0 0 0 0 0 0 0 0 0 0 0 0 0 0 0 0 0 0 0 0 0 0 0 0 0 0 0 0 0 0 0 0 0 0 0 0 0 0 0 0 0 0 0 0 0 0 0 0 0 0 0 0 0 0 0 0 0 0 0 0 0 0 0 0 0 0 0 0 0 0 0 b J.'+8+b+(+L.Q.S.*+&+5 f.a o U *.%.Z 8.g.g.g.g.c.c.c.8.a.6+6+m.7.g.l.5.5.5.5.5.5.5.1+~+~+e+f+f+f+f+f+f+f+f+f+f+f+f+f+/+d+a+X.9.V V W W W W W W W Q Q I H H I H p 0 | d.U.o.u.z.B.z.q.C.p.;+P.U.1 C B B z z E z v B B z z B z e d q d 7 M.,+p.C.p.,+{+]+8+b+(+[+:+(+b+]+8+'+;+p.l 0 0 0 0 0 0 0 0 0 0 0 0 0 0 0 0 0 0 0 0 0 0 0 0 -.  j e 0 -.0 0 m     ^ 8 ).r u k 3.3.l g /.u J u x y y C z z C y M L L P y C C B B L P =.=.=.=.K 4.L =.4.4.4.4.6.@.4.4.7+m.4.m.m.7+a.=.7+m.m.a.a.4.M 6+5+L 4.7+6+L 4.4.K a.m.P M M O M M y y z z z =.a.a.=.M M P 7+7+a.a.R O 5+7+M s 1.M 7+5+5+m.L L M P x J j t k 2 2 g j 3.n.>.>.n.    7 0 0 0 0 0 0 0 0 0 0 0 0 0 0 0 0 0 0 0 0 0 0 0 0 0 0 0 0 0 0 ",
"0 0 0 0 0 0 0 0 0 0 0 0 0 0 0 0 0 0 0 0 0 0 0 0 0 0 0 0 0 0 0 0 0 0 0 0 0 0 0 0 0 0 0 0 0 0 0 0 0 0 0 0 0 0 0 0 0 0 0 0 0 0 0 0 0 0 0 0 0 0 0 0 0 0 0 0 0 0 0 0 0 0 0 0 0 0 0 0 0 0 0 0 0 0 0 0 0 0 0 0 0 0 0 0 0 0 0 0 0 0 0 0 0 0 0 0 0 0 0 0 0 0 0 0 0 0 0 0 0 0 0 0 0 0 0 0 0 0 0 0 0 0 0 0 0 0 0 0 0 0 0 0 0 0 0 0 0 0 0 0 0 0 0 0 0 0 0 0 0 0 0 0 0 0 0 0 0 0 0 #.;+)+]+_+:+|+Y..+e.| f.c o U *.%.<.g.g.g.g.g.g.g.9.3+}+a+a+a+}+1+4+9.5.5.W W W 7.3+~+c+/+f+f+f+f+f+f+f+f+f+f+f+f+f+f+f+f+g+~+2+5.5.W W Q @.9.@.F E F E v F H w p 0 9 .+N.o.u.q.z.z.C.u.w.,+P.U._ z z B E F w z v E E z E B z y q d q ( {+J.p.w.,+{+P.{+'+'+8+]+8+)+'+'+)+'+,+w.2.6 0 0 0 0 0 0 0 0 0 0 0 0 0 0 0 0 0 0 0 0 0 0 0 0 0 0 0 0 0 0 0       D i _ k l g 3.l k k j u J s O R x x y M P M y y y z z B B B P P E B =.K a.a.K K E L L L L M m.7+m.4.4.a.6.m.m.4.a.m.7+7+6+4.4.7+4+P 6.m.M O P 4.m.7+7+P L =.=.P L z C C C L =.=.L P y y P P =.6.a.6.R O L m.O C R M 5+5+M M M 4+M P B s J u t 2 b g N k k >.|.- I.  r 7 6 0 0 0 0 0 0 0 0 0 0 0 0 0 0 0 0 0 0 0 0 0 0 0 0 0 0 0 0 ",
"0 0 0 0 0 0 0 0 0 0 0 0 0 0 0 0 0 0 0 0 0 0 0 0 0 0 0 0 0 0 0 0 0 0 0 0 0 0 0 0 0 0 0 0 0 0 0 0 0 0 0 0 0 0 0 0 0 0 0 0 0 0 0 0 0 0 0 0 0 0 0 0 0 0 0 0 0 0 0 0 0 0 0 0 0 0 0 0 0 0 0 0 0 0 0 0 0 0 0 0 0 0 0 0 0 0 0 0 0 0 0 0 0 0 0 0 0 0 0 0 0 0 0 0 0 0 0 0 0 0 0 0 0 0 0 0 0 0 0 0 0 0 0 0 0 0 0 0 0 0 0 0 0 0 0 0 0 0 0 0 0 0 0 0 0 0 0 0 0 0 0 0 0 0 0 0 0 0 -.I.'+{+]+_+:+Q.S.*+&+5 6 a D+V %.<.:.g.g.g.g.g.8.4+~+~+~+~+~+~+a+a+}+X.m.5.W W W m.~+c+/+f+f+f+f+f+f+f+f+f+f+f+f+f+f+f+f+f+f+/+a+6+9.9.9.9.@.K E B B d z B E w w p 0 | d.N.o.p.q.z.z.q.u.p.,+V.L.: B z B B F w B H F E E z z C e q d 0 ++'+J.w.,+8+]+{+'+;+p.p.w.u.C.C.p.w.;+,+J.u.N 0 0 0 0 0 0 0 0 0 0 0 0 0 0 0 0 0 0 0 0 0 0 0 0 0 0 0 -.0 7 7   3   0.2 g k l l k l k j u x r x s s C z C C C L C B E F F F F F I =.=.L E 4.4.K F 4.4.4.L P =.P P L 7+7+=.4.a.7+7+a.m.m.m.5+m.m.m.7+1.=.a.L O =.L 4.L m.M O =.=.L =.=.4.E =.F =.=.P P z C z E 6.a.7+m.7+R M =.6.7+z O O 5+m.4.=.a.L R O O y s J t } ( b g N 2 k >.3 ,.#.      f 0 0 0 0 -.0 0 0 0 0 0 0 0 0 0 0 0 0 0 0 0 0 0 0 0 0 0 ",
"0 0 0 0 0 0 0 0 0 0 0 0 0 0 0 0 0 0 0 0 0 0 0 0 0 0 0 0 0 0 0 0 0 0 0 0 0 0 0 0 0 0 0 0 0 0 0 0 0 0 0 0 0 0 0 0 0 0 0 0 0 0 0 0 0 0 0 0 0 0 0 0 0 0 0 0 0 0 0 0 0 0 0 0 0 0 0 0 0 0 0 0 0 0 0 0 0 0 0 0 0 0 0 0 0 0 0 0 0 0 0 0 0 0 0 0 0 0 0 0 0 0 0 0 0 0 0 0 0 0 0 0 0 0 0 0 0 0 0 0 0 0 0 0 0 0 0 0 0 0 0 0 0 0 0 0 0 0 0 0 0 0 0 0 0 0 0 0 0 0 0 0 0 0 0 0 0 0 t ,+'+8+]+_+:+Q.S.*+/ 5 k.o T X <.:.g.g.g.g.g.9.}+c+c+c+d+e+e+e+c+~+a+a+1+m.W W 5.1+c+/+f+f+f+f+f+f+f+f+f+f+f+f+f+f+f+f+f+f+f+f+g+}+6.@.9.@.I F E B z z z z B v p q -.| d.N.o.p.q.z.z.q.u.p.o.V.N.t B z E B E E B F I B E z z d q q q 8  +,+;+,+{+]+]+)+;+p.q.z.B.t.`.`.B.q.p.J.w.u.2.7 0 0 0 0 0 0 0 0 0 0 0 0 0 0 0 0 0 0 0 0 0 0 0 0 0 0 -.6       3 N |.3.l j u j 8 J 8 7 r x s e C s x s s y y y z E E E F F F L P L =.F K K K L L =.4.L L L L m.7+m.7+7+6+5+5+P 4.7+6+7+4.m.m.7+a.5+L m.L P L m.=.7+7+M O K 4.L 7+m.a.5.5.6.a.4.=.=.B K @.5.a.7+4.7+M M R P 4.7+=.L M R 1.O M M L a.F y y C z y t } } 2 D N N |.b < - *       7 0 0 7 6 J 0 0 7 0 0 0 0 0 0 0 0 0 0 0 0 0 0 0 0 0 0 0 ",
"0 0 0 0 0 0 0 0 0 0 0 0 0 0 0 0 0 0 0 0 0 0 0 0 0 0 0 0 0 0 0 0 0 0 0 0 0 0 0 0 0 0 0 0 0 0 0 0 0 0 0 0 0 0 0 0 0 0 0 0 0 0 0 0 0 0 0 0 0 0 0 0 0 0 0 0 0 0 0 0 0 0 0 0 0 0 0 0 0 0 0 0 0 0 0 0 0 0 0 0 0 0 0 0 0 0 0 0 0 0 0 0 0 0 0 0 0 0 0 0 0 0 0 0 0 0 0 0 0 0 0 0 0 0 0 0 0 0 0 0 0 0 0 0 0 0 0 0 0 0 0 0 0 0 0 0 0 0 0 0 0 0 0 0 0 0 0 0 0 0 0 0 0 0 0 0 0 0 l ,+)+8+]+_+L.Q..+*+/ 6 a C+V Z <.g.g.g.g.8.6.a+c+d+/+f+f+f+f+f+f+/+d+a+a+X.9.9.7+~+g+f+f+f+f+f+f+f+f+f+f+f+f+f+f+f+f+f+f+f+f+f+f+e+5+@.@.6.K F z C z C B z B v p q 6 / #+T.o.p.q.B.B.z.C.w.o.M.W.8 E B E z B B E F I B B v B z q e _.A )+,+,+{+P.^+]+)+J.C.B.t.`.D.r.r.`.B.C.u.p.u.q.N 0 0 0 0 0 0 0 0 0 0 0 0 0 0 0 0 0 0 0 0 0 0 0 0 0 6 -.t 8   - 0.b g 2 k l k j u r e q ~.p p z v v v E F F F I G @.I I F 4.=.P B E =.L C y y B =.L P L 4.4.=.P M 5+M 6+6+M L =.m.7+m.m.6.9.6+m.6.7+4.M L P L L M P P 7+@.4.7+7+7+=.4.a.4.=.7+7+L 4.6.m.P M 7+L P L =.P O =.m.L m.L O M O O R O M L =.F P O M B f 8 t } _ b N >.g g D 0.<     j -.0 t   7 0 -.7 0 0 0 0 0 0 0 0 0 0 0 0 0 0 0 0 0 0 0 ",
"0 0 0 0 0 0 0 0 0 0 0 0 0 0 0 0 0 0 0 0 0 0 0 0 0 0 0 0 0 0 0 0 0 0 0 0 0 0 0 0 0 0 0 0 0 0 0 0 0 0 0 0 0 0 0 0 0 0 0 0 0 0 0 0 0 0 0 0 0 0 0 0 0 0 0 0 0 0 0 0 0 0 0 0 0 0 0 0 0 0 0 0 0 0 0 0 0 0 0 0 0 0 0 0 0 0 0 0 0 0 0 0 0 0 0 0 0 0 0 0 0 0 0 0 0 0 0 0 0 0 0 0 0 0 0 0 0 0 0 0 0 0 0 0 0 0 0 0 0 0 0 0 0 0 0 0 0 0 0 0 0 0 0 0 0 0 0 0 0 0 0 0 0 0 0 0 0 0 - '+{+8+]+_+[+Q..+e.| -.o B+&.<.g.g.g.g.8.7.a+d+g+f+f+f+f+f+f+f+f+f+f+e+a+}+4+9.3+e+f+f+f+f+f+f+f+f+f+f+f+f+f+f+f+f+f+f+f+f+f+f+f+f+a+I K K F E z f C L B B B E v d n ) #+N.o.p.q.B.B.z.C.J.o. +Z.f B E E B E v H I @.E B B B z q e k.++)+,+)+P.^+^+P.'+w.C.B.t.D.r.r.O.r.t.z.C.u.u.C.2.0 0 0 0 0 0 0 0 0 0 0 0 0 0 0 0 0 0 0 0 0 0 0 0 6 -.      ~ N N 2 2 k k k k j u r f C z z C C y y z z z z L =.=.E =.L L =.=.4.4.=.B P P y M O x O C P L L P L 4.4.a.7+L 4.6.a.m.m.a.a.7+6.m.6+7+K L P =.P L O O L F m.9.P 7+M P 4.L 7+7+M M L 4.L O M M P P P =.P z P L 7+7+L 7+m.M M L L 6+M P y P O P M O C C f 8 8 8 : b |.N 2 b D [.  2 t t 7     g       7 0 0 0 0 0 0 0 0 0 0 0 0 0 0 0 0 0 0 ",
"0 0 0 0 0 0 0 0 0 0 0 0 0 0 0 0 0 0 0 0 0 0 0 0 0 0 0 0 0 0 0 0 0 0 0 0 0 0 0 0 0 0 0 0 0 0 0 0 0 0 0 0 0 0 0 0 0 0 0 0 0 0 0 0 0 0 0 0 0 0 0 0 0 0 0 0 0 0 0 0 0 0 0 0 0 0 0 0 0 0 0 0 0 0 0 0 0 0 0 0 0 0 0 0 0 0 0 0 0 0 0 0 0 0 0 0 0 0 0 0 0 0 0 0 0 0 0 0 0 0 0 0 0 0 0 0 0 0 0 0 0 0 0 0 0 0 0 0 0 0 0 0 0 0 0 0 0 0 0 0 0 0 0 0 0 0 0 0 0 0 0 0 0 0 0 0 0 0 #.'+{+8+8+_+:+Q..+e.5 (.o T X <.g.g.8.8.8.X.d+/+f+f+f+f+f+f+f+f+f+f+f+f+e+a+1+a.~+/+f+f+f+f+f+f+f+f+f+f+f+f+f+f+f+f+f+f+f+f+/+f+f+f+e+6+K F F E z C C z L B B E B q n ^ #+T.o.p.q.B.B.q.u.J.P.U.#+q B E E B E E I K I E B z B z p e t U.'+'+P.M.M.^+P.'+J.u.z.t.t.D.r.O.r.t.B.q.C.u.C.C.j 0 0 0 0 0 0 0 0 0 0 0 0 0 0 0 0 0 7 r f 0 0 8         - 3 g l k } : } 8 5 6 6 6 6 f f s C z z z E E L F K F =.=.L L y M y y y y s s s s s s C z y y C P L P y M P M P =.m.m.4.m.7+7+a.6.5+M =.=.O =.P P P M 4.K @.4.4.O O =.P M M P M P L 4.L M M L 4.=.K K L F a.a.L O P m.7+6+M 5+6+1.R 4.P R M M M B s M x e e 8 m m : 2 N |.k |.3 , -   8     I.H.      J 0 0 0 0 0 0 0 0 0 0 0 0 0 0 0 0 0 0 ",
"0 0 0 0 0 0 0 0 0 0 0 0 0 0 0 0 0 0 0 0 0 0 0 0 0 0 0 0 0 0 0 0 0 0 0 0 0 0 0 0 0 0 0 0 0 0 0 0 0 0 0 0 0 0 0 0 0 0 0 0 0 0 0 0 0 0 0 0 0 0 0 0 0 0 0 0 0 0 0 0 0 0 0 0 0 0 0 0 0 0 0 0 0 0 0 0 0 0 0 0 0 0 0 0 0 0 0 0 0 0 0 0 0 0 0 0 0 0 0 0 0 0 0 0 0 0 0 0 0 0 0 0 0 0 0 0 0 0 0 0 0 0 0 0 0 0 0 0 0 0 0 0 0 0 0 0 0 0 0 0 0 0 0 0 0 0 0 0 0 0 0 0 0 0 0 0 0 0 $ '+)+{+8+b+:+Q..+e.5 k.w ..%.8.g.8.l.7.6+d+/+f+f+f+f+f+f+f+f+f+f+f+f+f+f+d+a+3+d+f+f+f+f+/+/+/+/+/+/+/+/+/+/+/+/+/+/+/+/+/+/+/+/+/+/+1+F B q z z C C C C z B B B d 5 e.%+U.o.p.q.z.z.q.p.;+V.L.] B B v E z z E F @.K E F B E B w d _ M.'+P.^+ + +^+V.)+,+w.u.q.B.t.`.`.`.t.z.q.C.C.C.q.n.0 0 0 0 0 0 0 0 0 0 0 0 0 0 0 0 0 0 -.            3 D b l j 8 7 7 r s 8 m 7 7 6 6 f s s s e z y y C C z P P y s s s s O s y C y C C B B E B y C P L P P x x O y P z 4.K a.9.m.7+m.m.6.6.m.4.7+P L a.M L P 4.K 4.=.4.M P L =.7+P M P 4.K 4.7+M M =.K a.a.@.4.a.6.m.4.7+7+7+a.5+5+6+5+O 1./.4+P O R 1.R y P y y s y r 7 7 8 j b N k l b 3 ,.      , < T.H.      u 0 0 0 0 0 0 0 0 0 0 0 0 0 0 0 0 0 ",
"0 0 0 0 0 0 0 0 0 0 0 0 0 0 0 0 0 0 0 0 0 0 0 0 0 0 0 0 0 0 0 0 0 0 0 0 0 0 0 0 0 0 0 0 0 0 0 0 0 0 0 0 0 0 0 0 0 0 0 0 0 0 0 0 0 0 0 0 0 0 0 0 0 0 0 0 0 0 0 0 0 0 0 0 0 0 0 0 0 0 0 0 0 0 0 0 0 0 0 0 0 0 0 0 0 0 0 0 0 0 0 0 0 0 0 0 0 0 0 0 0 0 0 0 0 0 0 0 0 0 0 0 0 0 0 0 0 0 0 0 0 0 0 0 0 0 0 0 0 0 0 0 0 0 0 0 0 0 0 0 0 0 0 0 0 0 0 0 0 0 0 0 0 0 0 0 0 0 #.'+'+)+{+b+:+|+.+&+n d C+..X 8.l.5.9.9.a+g+f+f+f+f+f+f+f+f+f+/+/+/+/+/+f+/+~+}+g+f+f+f+/+/+/+/+/+/+/+/+/+/+/+/+/+/+/+/+/+/+/+/+/+/+g+~+I E z d z C C C C C z z d 0 9 1 Z. +o.u.q.B.z.C.p.,+^+N.[ v B E B q z F F K F v F z B v v d ' V.o.P.M.U. +M.^+P.{+,+;+p.C.q.z.B.B.B.q.C.C.C.C.q.2.0 0 0 0 0 0 0 0 0 0 0 0 0 0 0 f   k k k       ,.|.D b : } !.f f m 8 8 8 h.m h.).7 0 e d p v w w w B C C y y C C z z z C s x x s s y C C z z B C P P M y P B E F E F 4.4.9.4.m.4.a.6.9.6.@.m.6+=.=.M L M 4.W P L 6.P P E =.P P M M a.6.L M O P =.F 4.I @.4.=.6.m.m.7+7+6+M 6+5+5+5+M O R 1.1.R 1.R R R x P C s y y s J r 8 } j 3.3.N |.( 3 ,   [.~ #+< #.I.2.2.  j 0 0 0 0 0 0 0 0 0 0 0 0 0 0 0 0 ",
"0 0 0 0 0 0 0 0 0 0 0 0 0 0 0 0 0 0 0 0 0 0 0 0 0 0 0 0 0 0 0 0 0 0 0 0 0 0 0 0 0 0 0 0 0 0 0 0 0 0 0 0 0 0 0 0 0 0 0 0 0 0 0 0 0 0 0 0 0 0 0 0 0 0 0 0 0 0 0 0 0 0 0 0 0 0 0 0 0 0 0 0 0 0 0 0 0 0 0 0 0 0 0 0 0 0 0 0 0 0 0 0 0 0 0 0 0 0 0 0 0 0 0 0 0 0 0 0 0 0 0 0 0 0 0 0 0 0 0 0 0 0 0 0 0 0 0 0 0 0 0 0 0 0 0 0 0 0 0 0 0 0 0 0 0 0 0 0 0 0 0 0 0 0 0 0 0 7 '+,+'+'+)+]+ +|+.+&+n d H ..&.5.9.6.6.2+e+f+f+f+f+f+f+f+f+/+/+/+/+/+/+/+/+f+d+a+/+/+/+/+/+/+/+/+/+g+/+/+/+/+/+/+/+/+/+/+/+/+/+/+/+/+g+c+7+v d e z C y C y -.-.0 e 6 9 @+W.M.,+u.z.B.q.u.w.o.M.W.t v F E p q q v F I F E F B E w v f T.P.P.M. +U.U. +M.V.P.P.'+,+J.p.u.q.q.q.q.C.C.q.q.C.K.J 0 0 0 0 0 0 0 0 0 0 0 0 0 0 0 0       I., < %+0.b _ m 6 d p H S S w d e 0 -.6 7 6 f e y e e s y z z C z z z C s s x r s s r s s s y y C z B L C C C B C C C B L =.K W 9.m.m.=.6.6.m.m.7+6+4.L P L L =.W =.M K L L L 4.=.M M =.4.4.7+P M =.I K I 6.a.m.4.4.m.7+m.7+6+5+5+6+M 6+7+L M C C R R u R O y u 1.R y M O s x J x t : l 3.N |.>.3 3 0.#+#+' ~ , , *       r 0 0 0 0 0 0 0 0 0 0 0 0 0 0 0 ",
"0 0 0 0 0 0 0 0 0 0 0 0 0 0 0 0 0 0 0 0 0 0 0 0 0 0 0 0 0 0 0 0 0 0 0 0 0 0 0 0 0 0 0 0 0 0 0 0 0 0 0 0 0 0 0 0 0 0 0 0 0 0 0 0 0 0 0 0 0 0 0 0 0 0 0 0 0 0 0 0 0 0 0 0 0 0 0 0 0 0 0 0 0 0 0 0 0 0 0 0 0 0 0 0 0 0 0 0 0 0 0 0 0 0 0 0 0 0 0 0 0 0 0 0 0 0 0 0 0 0 0 0 0 0 0 0 0 0 0 0 0 0 0 0 0 0 0 0 0 0 0 0 0 0 0 0 0 0 0 0 0 0 0 0 0 0 0 0 0 0 0 0 0 0 0 0 0 u ,+,+;+,+'+P. +W.d.&+!.d H Q W @.6.6.a.a+f+f+f+f+f+f+f+/+/+/+/+/+/+/+/+/+/+/+/+c+/+/+/+/+g+g+g+g+g+g+g+g+g+g+/+/+/+/+g+g+/+g+g+/+g+g+g+d+4+E q z z C y y f 6 6 n n 7 / d.N.V.;+C.z.z.C.u.J.P. +Y.e w I v v v p v E K E E w v E F v r T.P.V. +U.T.T.U. +M.^+^+P.{+'+,+J.p.u.u.C.C.C.q.q.z.-+k 0 0 0 0 0 0 0 0 0 0 0 0 0 0 6       I., ~ ] ) 5 (._.}.B+C+w q d f !.9 / / 9 n n 0 d d 0 e s C d e C z y y y y C z d d z z z C z C z y y s s s s y y C y C B =.I @.@.a.L m.m.a.7.6+6+5+6+4.4.M M =.P I 4.O =.=.K =.K L P M =.K L L =.=.m.K 6.K 4.a.a.4.m.4.P L =.6+6+m.5+6+F 4.6+L L F E E P s R P P O O O O C L s s r r J j g g N >.|.N ( ( b A ' ! ! - #.      -.0 0 0 0 0 0 0 0 0 0 0 0 0 0 0 ",
"0 0 0 0 0 0 0 0 0 0 0 0 0 0 0 0 0 0 0 0 0 0 0 0 0 0 0 0 0 0 0 0 0 0 0 0 0 0 0 0 0 0 0 0 0 0 0 0 0 0 0 0 0 0 0 0 0 0 0 0 0 0 0 0 0 0 0 0 0 0 0 0 0 0 0 0 0 0 0 0 0 0 0 0 0 0 0 0 0 0 0 0 0 0 0 0 0 0 0 0 0 0 0 0 0 0 0 0 0 0 0 0 0 0 0 0 0 0 0 0 0 0 0 0 0 0 0 0 0 0 0 0 0 0 0 0 0 0 0 0 0 0 0 0 0 0 0 0 0 0 0 0 0 0 0 0 0 0 0 0 0 0 0 0 0 0 0 0 0 0 0 0 0 0 0 0 0 t ,+;+;+;+'+{+M.W.#+&+!.d w Q @.6.6.a.5+e+f+f+f+f+f+f+/+/+/+/+/+/+/+g+g+/+/+/+f+e+/+/+g+g+g+g+g+g+g+g+g+e+g+g+d+}+3+1+c+g+g+g+g+g+g+g+e+d+3+E q C C y s s f 6 -.6 !.5 ^ $+U.P.w.q.B.B.C.p.,+V.:+#+w G I v v p p v w I H H w w v F v t $ V.V. +N.T.T.T.U. + + +M.^+8+{+'+;+w.p.C.C.C.q.q.z.z.>.0 0 0 0 0 0 0 0 0 0 0 0 0 -.      H.< ] / f.a o o {.`  .Q w v f / e.e.1 ^ 5 9 9 5 5 n 6 -.0 f f f 7 r f e q C z B v v C z z p B B B z P C C y C s y y P L 4.6.W a.=.7+P 4.6.9.m.6+4+6+m.=.O O =.=.L 4.P C L Q K 4.@.L P B 4.=.L P m.6.K 9.6.K @.6.4.4.7+M P =.7+7+m.=.6+m.4.6+4+m.4.K F L L C s x M M O 1.P C =.K s s J J J k g g l g l k k j : 2 1 A ~ $   I.g 0 0 0 0 0 0 0 0 0 0 0 0 0 0 0 0 ",
"0 0 0 0 0 0 0 0 0 0 0 0 0 0 0 0 0 0 0 0 0 0 0 0 0 0 0 0 0 0 0 0 0 0 0 0 0 0 0 0 0 0 0 0 0 0 0 0 0 0 0 0 0 0 0 0 0 0 0 0 0 0 0 0 0 0 0 0 0 0 0 0 0 0 0 0 0 0 0 0 0 0 0 0 0 0 0 0 0 0 0 0 0 0 0 0 0 0 0 0 0 0 0 0 0 0 0 0 0 0 0 0 0 0 0 0 0 0 0 0 0 0 0 0 0 0 0 0 0 0 0 0 0 0 0 0 0 0 0 0 0 0 0 0 0 0 0 0 0 0 0 0 0 0 0 0 0 0 0 0 0 0 0 0 0 0 0 0 0 0 0 0 0 0 0 0 0 k ,+J.J.J.;+{+M.N.#+^ !.d w G @.6.a.4.}+f+f+f+f+f+f+/+/+/+/+/+/+/+g+g+g+g+/+/+/+g+/+g+g+g+g+g+g+e+e+e+e+e+e+}+5.$. .$.8.X.e+e+e+e+e+e+e+d+X.F B z y y s y 7 6 6 6 !.| 1 Z. +o.p.q.z.z.u.w.o.M.|+^ S I H w H w w H w H F w w w v H p 2 V.V.M.U.N.[.< T.T.T.L.L.:+(+^+]+{+,+J.w.p.u.u.q.q.z.z.+ 0 0 0 0 0 0 0 0 0 0 0 0 7       $ %+>+| f.c k.o U Y  .:.8.7+N *  +V.^+L.Y.%+] ^ / | 5 n n 7 7 m 7 f f f e d p v z C z z C y y s s y C z L L B F F F 4.K K 4.6.4.=.L L K 9.6.4.7+m.5+7+4.M O =.K L L =.C E K 4.6.9.a.P P 4.4.L P =.a.K @.6.9.7.6.m.L P M P L L O L L 4.6.m.P 5+M L 4.=.F E B C y R 1.O 1.5+P P 4.m.P u u u x u k k R g N >.2 : _ b ( ' %+< #.#.7 -.7 0 0 0 0 0 0 0 0 0 0 0 0 0 0 ",
"0 0 0 0 0 0 0 0 0 0 0 0 0 0 0 0 0 0 0 0 0 0 0 0 0 0 0 0 0 0 0 0 0 0 0 0 0 0 0 0 0 0 0 0 0 0 0 0 0 0 0 0 0 0 0 0 0 0 0 0 0 0 0 0 0 0 0 0 0 0 0 0 0 0 0 0 0 0 0 0 0 0 0 0 0 0 0 0 0 0 0 0 0 0 0 0 0 0 0 0 0 0 0 0 0 0 0 0 0 0 0 0 0 0 0 0 0 0 0 0 0 0 0 0 0 0 0 0 0 0 0 0 0 0 0 0 0 0 0 0 0 0 0 0 0 0 0 0 0 0 0 0 0 0 0 0 0 0 0 0 0 0 0 0 0 0 0 0 0 0 0 0 0 0 0 0 0 j ,+J.w.J.;+{+M.W.d.&+n d w I 6.a.4.L c+f+f+f+f+f+f+/+/+/+/+/+/+g+g+g+g+g+g+g+/+g+g+g+g+g+e+e+e+e+e+e+e+e+}+7.].].{.].].$.X.e+e+e+e+e+<+c+X.F E B z y y f 6 f f f !./ A N.V.;+C.z.z.q.u.J.P.:+Q.!...H H w w v v H G H H F H F H I z 0.V.V.M.T.[.[.[.[.[.N.N.N.L.:+(+^+8+)+,+;+J.w.u.C.C.z.q.F.-.0 0 0 0 0 0 0 0 0 -.r     $ ++! e.&+^ | 9 -.(.w ].Q 1.+ w.p.J.,+'+P.P.o.M.Z.1 ^ ) 9 5 5 !.m !.6 7 6 6 6 7 r s s s s e y C M y P P L =.=.F K K =.P y B =.@.@.a.a.4.6.6.m.4.9.a.7+6+6+M P M Q K L 4.P B 4.=.@.6.4.P C =.=.E P P =.a.@.9.6.9.4.L L P P P M =.M O 4.6.4.K 7+L m.4.L 4.L P E B q z y P O 1.R 6+F 4.a.M y t s s x u u R N N N n.|.b N 2 3 3 ~ $       -.0 0 0 0 0 0 0 0 0 0 0 0 0 0 ",
"0 0 0 0 0 0 0 0 0 0 0 0 0 0 0 0 0 0 0 0 0 0 0 0 0 0 0 0 0 0 0 0 0 0 0 0 0 0 0 0 0 0 0 0 0 0 0 0 0 0 0 0 0 0 0 0 0 0 0 0 0 0 0 0 0 0 0 0 0 0 0 0 0 0 0 0 0 0 0 0 0 0 0 0 0 0 0 0 0 0 0 0 0 0 0 0 0 0 0 0 0 0 0 0 0 0 0 0 0 0 0 0 0 0 0 0 0 0 0 0 0 0 0 0 0 0 0 0 0 0 0 0 0 0 0 0 0 0 0 0 0 0 0 0 0 0 0 0 0 0 0 0 0 0 0 0 0 0 0 0 0 0 0 0 0 0 0 0 0 0 0 0 0 0 0 0 0 j ,+;+w.w.;+)+M.W.d.^ n d v I K 4.m.7+e+f+f+f+f+/+/+/+/+/+g+g+g+g+g+/+g+g+g+g+g+g+g+g+g+e+e+e+e+<+e+<+<+c+a.].].` 6.` ].].9.~+e+e+e+<+<+c+3+K 4.=.C y y f f y y f 9 ^ #+T.P.J.q.B.z.C.p.o.M.[+S.v W G S H w S w S G S S w v F v H q - M.V. +T.++++[.[.[.[.[.W.N.L.:+^+]+{+'+,+;+w.p.u.C.q.q.F.6 0 0 0 0 0 0 0 0 J     * ,.< ~ ! 0.A 1 1 9 6 _.C 3.& B.z.z.q.z.q.q.q.C.^+Z.#+d.1 ^ / / 9 9 9 '.'.'.9 9 8 7 f e e e e C s s x P P P M M L =.L P P z F K @.9.a.4.a.@.6.m.a.@.a.4.m.7+M M L F K L L L L E F @.4.=.P P L =.E C B @.7.9.@.@.6.7+L L L L P y L =.O L 6.4.4.=.=.4.6+m.4.m.L =.F I E z z C L M R O K L 7+O 1.u j R u u x s l N N |.n.|.|.f 8 ( >.H.      0 0 0 0 0 0 0 0 0 0 0 0 0 0 0 ",
"0 0 0 0 0 0 0 0 0 0 0 0 0 0 0 0 0 0 0 0 0 0 0 0 0 0 0 0 0 0 0 0 0 0 0 0 0 0 0 0 0 0 0 0 0 0 0 0 0 0 0 0 0 0 0 0 0 0 0 0 0 0 0 0 0 0 0 0 0 0 0 0 0 0 0 0 0 0 0 0 0 0 0 0 0 0 0 0 0 0 0 0 0 0 0 0 0 0 0 0 0 0 0 0 0 0 0 0 0 0 0 0 0 0 0 0 0 0 0 0 0 0 0 0 0 0 0 0 0 0 0 0 0 0 0 0 0 0 0 0 0 0 0 0 0 0 0 0 0 0 0 0 0 0 0 0 0 0 0 0 0 0 0 0 0 0 0 0 0 0 0 0 0 0 0 0 0 j ;+J.w.w.J.'+M.W.d.&+n d v I 4.=.m.4+/+f+f+f+/+/+/+/+g+g+g+g+g+d+a+}+~+g+g+g+g+e+e+e+e+e+e+e+<+<+<+<+<+}+;.{.` 6+d+a.;.{.].4+<+<+<+<+<+~+3+F 4.B C y y y y y f 6 9 1 Z.M.o.p.z.B.z.u.J.P.:+Q.e.*.Q I I F v H H H G S S ..S H H E d 3 V.M.U.[.++~ ++[.[.[.T.N.N.L.:+_+b+{+)+,+;+J.J.p.C.C.u.p.r 0 0 0 0 0 0 0 6 j   , 3   8     < D i } 0 u >.E.`.B.B.t.`.D.t.B.z.u.P.(+W.W.Z.] i ^ / / ^ ^ / ^ } } 8 8 j j r s s f s y O O y O O M O M M P C B F @.a.a.6.4.L L m.6+I 6.a.@.a.7+O L P L F L L L L F @.@.m.M L C L =.F C =.@.K 4.4.a.7+7+4.=.L =.L M L L L M 4.7+9.6.m.6.=.L 4.9.K 4.E F I I B E P L F M 1.6+L 5+R L R u j O R C C s g k 3.3 >./.y n _ - ,.    k 0 0 0 0 0 0 0 0 0 0 0 0 0 0 0 ",
"0 0 0 0 0 0 0 0 0 0 0 0 0 0 0 0 0 0 0 0 0 0 0 0 0 0 0 0 0 0 0 0 0 0 0 0 0 0 0 0 0 0 0 0 0 0 0 0 0 0 0 0 0 0 0 0 0 0 0 0 0 0 0 0 0 0 0 0 0 0 0 0 0 0 0 0 0 0 0 0 0 0 0 0 0 0 0 0 0 0 0 0 0 0 0 0 0 0 0 0 0 0 0 0 0 0 0 0 0 0 0 0 0 0 0 0 0 0 0 0 0 0 0 0 0 0 0 0 0 0 0 0 0 0 0 0 0 0 0 0 0 0 0 0 0 0 0 0 0 0 0 0 0 0 0 0 0 0 0 0 0 0 0 0 0 0 0 0 0 0 0 0 0 0 0 0 0 j ,+w.p.u.w.)+M.N.#+^ !.d v F 4.m.7+X.f+/+/+/+/+g+g+g+g+g+g+g+~+a.:.$.^.4+e+g+e+e+e+e+e+<+<+<+<+<+<+<+<+4+].{.$.9.X.l.:.b.{.m.c+<+<+<+c+~+4+K E z y s y y C y f f t A [.V.J.C.z.B.q.p.,+V.[+Y.-.X @.G F H v H S S S T S T T H H v e 3 V.M.T.- %+~ ++[.[.[.T.N.N.L.:+^+]+)+'+;+;+J.;+w.u.u.p.J.r 0 0 0 0 0 0 0 7 |.l   -.0         1 9 g H.`.r.t.t.t.t.t.t.t.z.u.,+{+{+)+P.L.Q.Z.d.$+++Z.#+@+' #+#+] ( _ } } } ) } 8 x x R x s x s O O y s C =.a.6.4.4.4.L M =.a.m.4.9.9.9.4.a.4.O L =.F L L P z E @.6.=.L C y B K @.L =.K @.@.a.4.L 4.L M P L 4.L P L M L =.L 6.6.4.m.L L L 4.6.%.V E K V @.F B B P L P O 1.M O M O R /././.O 1.R q 1.l g b >.|.l } i ~ * I.    6 0 0 0 0 0 0 0 0 0 0 0 0 0 0 ",
"0 0 0 0 0 0 0 0 0 0 0 0 0 0 0 0 0 0 0 0 0 0 0 0 0 0 0 0 0 0 0 0 0 0 0 0 0 0 0 0 0 0 0 0 0 0 0 0 0 0 0 0 0 0 0 0 0 0 0 0 0 0 0 0 0 0 0 0 0 0 0 0 0 0 0 0 0 0 0 0 0 0 0 0 0 0 0 0 0 0 0 0 0 0 0 0 0 0 0 0 0 0 0 0 0 0 0 0 0 0 0 0 0 0 0 0 0 0 0 0 0 0 0 0 0 0 0 0 0 0 0 0 0 0 0 0 0 0 0 0 0 0 0 0 0 0 0 0 0 0 0 0 0 0 0 0 0 0 0 0 0 0 0 0 0 0 0 0 0 0 0 0 0 0 0 0 0 t ,+w.u.u.w.'+M.N.#+^ 5 0 v E =.L M 1+/+/+/+/+g+g+g+e+e+e+e+~+5.;.].{.].;.3+e+e+d+<+<+<+<+<+<+<+<+<+<+c+m.b.b.:.0+0+0+c.U j.W ~+c+c+c+~+a+5+K 4.L s r s y y y y s : ! U.o.p.q.z.z.C.w.o. +|+=+G 5.F F H I w F I S G ..G B+T H w p f 3 V.M.T.++3 ++[.T.T.N.T.T.T.U. +^+8+)+,+J.J.;+,+;+J.w.J.o.7 0 0 0 0 0 0 6 8 6 0 q p f e       3 & r.r.t.B.z.B.t.r.D.t.z.q.u.p.p.J.)+(+[+L.Q.N.N.W.Y.Y.L.++! e.@+1 e.e.@+#+! ] : } j j J r x x O P B L =.=.L 4.a.6.L P 6.5.a.7+a.9.9.4.a.9.=.M L F L =.z E @.W W 4.L C C F &.K L E K 5.6.a.a.=.L P P L L 4.4.P L M P L P K 4.4.L P M L =.4.7+9.&.F F V Q E B K =.P C M O M O R O M 1.j R 2+l s d J : k N |.|.N } ] 0.* H.    0 0 0 0 0 0 0 0 0 0 0 0 0 0 0 ",
"0 0 0 0 0 0 0 0 0 0 0 0 0 0 0 0 0 0 0 0 0 0 0 0 0 0 0 0 0 0 0 0 0 0 0 0 0 0 0 0 0 0 0 0 0 0 0 0 0 0 0 0 0 0 0 0 0 0 0 0 0 0 0 0 0 0 0 0 0 0 0 0 0 0 0 0 0 0 0 0 0 0 0 0 0 0 0 0 0 0 0 0 0 0 0 0 0 0 0 0 0 0 0 0 0 0 0 0 0 0 0 0 0 0 0 0 0 0 0 0 0 0 0 0 0 0 0 0 0 0 0 0 0 0 0 0 0 0 0 0 0 0 0 0 0 0 0 0 0 0 0 0 0 0 0 0 0 0 0 0 0 0 0 0 0 0 0 0 0 0 0 0 0 0 0 0 0 t ,+w.C.q.u.,+V.N.$+i 5 0 p E =.M P }+/+g+g+g+e+e+e+e+e+e+e+6+;.].6.X ].].$.a+e+c+<+<+<+<+<+R.-+-+R.<+-+m.j+k+ .0+0+0+c.j+}.;.a+c+K.K.v.}+6+4.=.z y y y y y y y 8 1 ++M.,+u.z.B.q.u.;+V.L.S.n  .@.I F Q F w w G S ....T T S S w p f 3 M.M.[.~ ~ [.< T.T.T.T.T.U. +M.P.)+,+J.J.;+,+'+'+;+w.J.P.7 0 0 0 0 0 0 7 0 0 0 0 0 0       E.O.O.r.`.`.t.t.t.D.D.D.`.D.t.z.p.'+{+{+_+:+[+|+:+:+(+ +U.N.N.W.W.Z.Y.W. +M.T.++! 2 b k u 8 J J x O P M P =.L 4.4.4.L =.I a.m.4.4.5.a.4.6.@.a.L L L L 4.E K @.W 6.K 4.E B =.K =.4.K K @.@.6.a.4.L P P L =.4.=.P P P M 4.M K m.P M P L =.K L m.m.4.Q I E @.@.I B B F M P =.L P 7+1.O C =.M 1.2+/.O e s J j k N >.g N 3 >.>.A.  u 0 0 0 0 0 0 0 0 0 0 0 0 0 0 0 ",
"0 0 0 0 0 0 0 0 0 0 0 0 0 0 0 0 0 0 0 0 0 0 0 0 0 0 0 0 0 0 0 0 0 0 0 0 0 0 0 0 0 0 0 0 0 0 0 0 0 0 0 0 0 0 0 0 0 0 0 0 0 0 0 0 0 0 0 0 0 0 0 0 0 0 0 0 0 0 0 0 0 0 0 0 0 0 0 0 0 0 0 0 0 0 0 0 0 0 0 0 0 0 0 0 0 0 0 0 0 0 0 0 0 0 0 0 0 0 0 0 0 0 0 0 0 0 0 0 0 0 0 0 0 0 0 0 0 0 0 0 0 0 0 0 0 0 0 0 0 0 0 0 0 0 0 0 0 0 0 0 0 0 0 0 0 0 0 0 0 0 0 0 0 0 0 0 0 m ,+p.C.q.C.;+V.N.$+1 9 -.q E =.M M ~+g+g+e+e+e+e+<+<+<+<+a+%.].9.~+3+ .{.].4+<+c+-+<+`.z.z.z.z.q.C.C.q.H.- f.j+0+0+0+;.l+k+Q v.K.K.v.v.n.4.4.B C y y y y y y s t A T.P.w.q.z.B.q.w.o. +Q.*+S Y Q F K G I w w I G ..G ..V S T w p 7 3 U. +[.%+++< T.U.U.U.T.T.U.M.V.{+,+J.J.J.;+,+)+'+'+;+;+V.6 0 0 0 0 0 0 0 0 0 v   F 7.1.r.s.G.r.D.`.D.B.B.B.B.B.z.B.`.t.z.p.J.;+P._+_+_+^+P.)+J.;+,+8+_+_+]+]+V.)+)+)+_+N.U.! < b } 7 8 8 x y C P L P P =.L P P 4.=.m.4.4.4.6.6.7+6.@.6.L E =.L E 4.F I W W 9.6.4.4.F K 6.6.K 6.9.7.9.K 4.=.P =.F I 6.=.L =.=.m.=.=.=.L P P L 4.4.4.K a.m.a.@.@.I F F W H B P =.E P P L m.M 1.R O 1./././././.r r 7 J s l N n.|.|.N ~ < @   r 0 0 0 0 0 0 0 0 0 0 0 0 0 0 ",
"0 0 0 0 0 0 0 0 0 0 0 0 0 0 0 0 0 0 0 0 0 0 0 0 0 0 0 0 0 0 0 0 0 0 0 0 0 0 0 0 0 0 0 0 0 0 0 0 0 0 0 0 0 0 0 0 0 0 0 0 0 0 0 0 0 0 0 0 0 0 0 0 0 0 0 0 0 0 0 0 0 0 0 0 0 0 0 0 0 0 0 0 0 0 0 0 0 0 0 0 0 0 0 0 0 0 0 0 0 0 0 0 0 0 0 0 0 0 0 0 0 0 0 0 0 0 0 0 0 0 0 0 0 0 0 0 0 0 0 0 0 0 0 0 0 0 0 0 0 0 0 0 0 0 0 0 0 0 0 0 0 0 0 0 0 0 0 0 0 0 0 0 0 0 0 0 0 7 '+p.q.z.u.J.V.L.%+1 9 -.q E L M R ~+e+e+e+d+d+<+<+<+<+<+X.;.].g.2+a.c.j+j+7+c+~+E.q.q.q.q.C.u.p.p.C.C.z.B.C.* =.. 9+k+l+k+m.v.v.v.v.A.X.a.=.z C y y y y y y r ) %+ +o.u.z.B.B.C.;+V.L.S.f.` ..@.F F I G w v I S ..G G Q G G H p e 3 ,  +- 0.< T.U. +U.U.T.U. +M.P.'+;+;+J.J.,+'+)+)+'+,+,+#.-.0 0 0 0 0 0 0 0 0 0 H J v.s.G.R.r.D.t.D.`.`.`.D.r.t.t.D.D.B.q.;+)+{+'+;+w.u.q.u.w.w.J.)+^+P.;+w.J.J.{+{+b+(+^+N.M.* _ : '.9 8 s C C P y z E =.E I @.4.m.@.K 4.9.a.L a.4.K L L 4.L B =.L @.@.9.@.W @.9.a.4.6.@.@.6.5.5.5.5.9.a.=.4.K W l.a.L 4.=.I 4.L P L M L a.6.6.4.4.K I @.@.K @.I I F F I F C P I =.M =.P M P O L P P 5+/.3.3+j 7 r u x J l |.|.g N >.$   r 7 0 0 0 0 0 0 0 0 0 0 0 0 0 0 ",
"0 0 0 0 0 0 0 0 0 0 0 0 0 0 0 0 0 0 0 0 0 0 0 0 0 0 0 0 0 0 0 0 0 0 0 0 0 0 0 0 0 0 0 0 0 0 0 0 0 0 0 0 0 0 0 0 0 0 0 0 0 0 0 0 0 0 0 0 0 0 0 0 0 0 0 0 0 0 0 0 0 0 0 0 0 0 0 0 0 0 0 0 0 0 0 0 0 0 0 0 0 0 0 0 0 0 0 0 0 0 0 0 0 0 0 0 0 0 0 0 0 0 0 0 0 0 0 0 0 0 0 0 0 0 0 0 0 0 0 0 0 0 0 0 0 0 0 0 0 0 0 0 0 0 0 0 0 0 0 0 0 0 0 0 0 0 0 0 0 0 0 0 0 0 0 0 0 0 V.w.q.z.u.;+P.L.Z.] / 6 q E L M R ~+e+e+d+d+d+<+<+<+<+<+4+{.{.9+. 0+9+j+l+c v.q.q.C.p.J.,+)+)+'+,+w.u.q.q.z.q.> 3.i+q+m+k+5+v.v.v.v.A.4+4.B L C y y y y y s t ] [.V.;+C.z.B.q.w.o.M.Q.*+U Y V K I I F w S w S H G ..G ..S S w v f 3 U.T.++~ < U.U. +U.U.T. +M.V.o.,+;+J.J.;+'+)+{+{+)+o.P.3 0 0 0 0 0 0 0 0 0 0 -.n.R.G.O.r.r.r.D.t.`.`.t.t.D.t.t.D.D.z.p.w.u.q.z.z.z.B.t.q.u.p.J.'+;+w.w.J.J.,+;+;+,+_+]+ +V.M.#+( ) ) 8 6 d z z P P L L L F K =.P 4.4.4.9.6.4.=.4.4.a.a.=.L E I =.@.@.a.K @.6.a.a.a.@.W @.6.K 6.6.5.6.4.4.4.K W 9.=.P L =.6.@.4.L C P C a.6.6.a.6.6.5.5.9.9.4.K I K W K F E z z B L 5+6+P O P O P M R 1.l 3.X./.t 8 e s s x /.u j N >.n.H.+ k r 0 0 0 0 0 0 0 0 0 0 0 0 0 ",
"0 0 0 0 0 0 0 0 0 0 0 0 0 0 0 0 0 0 0 0 0 0 0 0 0 0 0 0 0 0 0 0 0 0 0 0 0 0 0 0 0 0 0 0 0 0 0 0 0 0 0 0 0 0 0 0 0 0 0 0 0 0 0 0 0 0 0 0 0 0 0 0 0 0 0 0 0 0 0 0 0 0 0 0 0 0 0 0 0 0 0 0 0 0 0 0 0 0 0 0 0 0 0 0 0 0 0 0 0 0 0 0 0 0 0 0 0 0 0 0 0 0 0 0 0 0 0 0 0 0 0 0 0 0 0 0 0 0 0 0 0 0 0 0 0 0 0 0 0 0 0 0 0 0 0 0 0 0 0 0 0 0 0 0 0 0 0 0 0 0 0 0 0 0 0 0 0 0 $ w.q.B.q.J.P.U.++A ) ).q v L M R ~+d+d+<+d+c+c+c+c+<+<+6+j+j+9+0+0+c.k+*+H.z.C.w.'+{+b+(+(+(+b+]+'+;+J.p.q.q.C.C.P.!+m+}.n.v.v.v.A.n.4.=.L C y y y y y y J : %+ +o.p.q.B.z.u.;+V.N..+f. .*.@.I I w v v H H H H G Q G ..T S w v f ++U.[.%+[.T.U. + +U.U.U.M.V.o.,+,+J.J.;+'+'+{+8+8+)+o.V.b 0 0 0 0 0 0 0 0 0 k E.G.O.O.r.r.O.r.D.`.`.D.`.t.t.B.B.`.t.t.t.t.t.`.B.z.B.z.C.w.w.w.w.p.u.u.C.z.B.B.B.C.'+]+]+p.J.V.' ] e.'.h.n e C z P P L P =.4.=.L =.4.6.6.6.a.a.4.@.@.9.4.L E F =.K 6.m.a.@.6.a.a.a.6.W @.@.=.4.a.6.K 4.=.F 4.6.6.4.L L =.=.K a.L L P L @.a.7+L 4.K 6.4.4.6.a.a.E @.4.@.W 4.F B B B P R 1.4.P 1.O a.L 7+R /.3.3.2+j } 7 7 s O R 1.l 3.N - #.#.2.      -.0 0 0 0 0 0 0 0 0 0 ",
"0 0 0 0 0 0 0 0 0 0 0 0 0 0 0 0 0 0 0 0 0 0 0 0 0 0 0 0 0 0 0 0 0 0 0 0 0 0 0 0 0 0 0 0 0 0 0 0 0 0 0 0 0 0 0 0 0 0 0 0 0 0 0 0 0 0 0 0 0 0 0 0 0 0 0 0 0 0 0 0 0 0 0 0 0 0 0 0 0 0 0 0 0 0 0 0 0 0 0 0 0 0 0 0 0 0 0 0 0 0 0 0 0 0 0 0 0 0 0 0 0 0 0 0 0 0 0 0 0 0 0 0 0 0 0 0 0 0 0 0 0 0 0 0 0 0 0 0 0 0 0 0 0 0 0 0 0 0 0 0 0 0 0 0 0 0 0 0 0 0 0 0 0 0 0 0 0 0 $ w.q.z.q.w.o. +W.d.) ).d v B P O ~+d+d+c+c+<+c+<+<+-+<+6+k+l+].0+0+W , z.B.C.;+{+b+:+|+Y.S..+Q.L.b+{+'+;+p.u.q.C.u.o.c 2+2.2.v.H.A.4+4.=.z C y y y y y r t ( [.V.J.q.z.z.q.w.o. +Y.&++. .G @.@.Q S S p I w w w w F H T T S H w 8 - U.- 3 [.U.U. +U.U.U. +^+P.'+;+J.p.w.;+'+{+8+8+{+o.P.U.  d 0 0 0 0 0 0 f + `.O.r.O.r.`.r.r.r.D.`.`.`.D.D.D.t.B.`.r.r.D.D.r.r.t.B.z.q.q.z.z.q.q.z.t.t.D.t.`.B.p.)+'+C.q.w.J.V.W.W.1 / !.-.0 f s d B z B w E L =.4.4.K 9.@.6.6.@.@.@.=.L P E E K 6.4.4.K 4.4.4.a.a.@.9.6.4.=.a.6.L L =.K K K 6.=.L =.L a.6.6.=.L M =.K 4.P =.4.a.a.a.a.6.6.6.6.K E K K W F E z E =.L M O 5+4.P R 6+M 1.1./.l 3.1.8 t t J 7 B z R k g N 3 < $     j 7 0 0 0 0 0 0 0 0 0 0 0 ",
"0 0 0 0 0 0 0 0 0 0 0 0 0 0 0 0 0 0 0 0 0 0 0 0 0 0 0 0 0 0 0 0 0 0 0 0 0 0 0 0 0 0 0 0 0 0 0 0 0 0 0 0 0 0 0 0 0 0 0 0 0 0 0 0 0 0 0 0 0 0 0 0 0 0 0 0 0 0 0 0 0 0 0 0 0 0 0 0 0 0 0 0 0 0 0 0 0 0 0 0 0 0 0 0 0 0 0 0 0 0 0 0 0 0 0 0 0 0 0 0 0 0 0 0 0 0 0 0 0 0 0 0 0 0 0 0 0 0 0 0 0 0 0 0 0 0 0 0 0 0 0 0 0 0 0 0 0 0 0 0 0 0 0 0 0 0 0 0 0 0 0 0 0 0 0 0 0 0 T.J.C.z.z.p.o.M.[.' ^ m e p B P O a+d+-+-+B.B.z.B.t.-+R.X.f.m+l+%.1.H.z.q.u.,+]+_+[+Q.=+&+6 ~.q / N.]+)+;+w.u.q.z.C.u.2.h H.2.H.H.|.=.=.B L C y y y y s 8 : %+M.o.p.q.z.z.u.;+V.|+=+c  .` ..Q I G S H C+H w w H G H S T G S H H 8 ~ U.[.~ T.U.U.U.U.U.U.M.V.)+;+J.u.u.p.;+'+{+]+]+P.P.M.++  B 0 0 0 0 0 l E.r.O.G.G.r.r.`.D.r.r.r.t.D.D.t.`.`.D.D.r.D.`.`.r.O.O.r.t.B.B.B.B.t.t.t.`.B.t.t.q.w.,+;+p.z.q.u.B.;+U.M.d.^ 9 9 6 -.k.c a k.q B B E F 4.K 9.5.6.6.9.6.6.a.4.m.E E 4.E K a.=.4.4.m.m.a.=.6.@.a.m.L a.4.L 4.a.=.=.=.@.=.=.=.E F W a.m.M P B E L P L =.=.6.K K 6.a.a.a.4.6.4.E 4.6.@.E z F 6.=.=.P 6+4+K O M O R R l 2+3.4+x } } t t r B z C R l b |., , I.  -.0 0 0 0 0 0 0 0 0 0 0 ",
"0 0 0 0 0 0 0 0 0 0 0 0 0 0 0 0 0 0 0 0 0 0 0 0 0 0 0 0 0 0 0 0 0 0 0 0 0 0 0 0 0 0 0 0 0 0 0 0 0 0 0 0 0 0 0 0 0 0 0 0 0 0 0 0 0 0 0 0 0 0 0 0 0 0 0 0 0 0 0 0 0 0 0 0 0 0 0 0 0 0 0 0 0 0 0 0 0 0 0 0 0 0 0 0 0 0 0 0 0 0 0 0 0 0 0 0 0 0 0 0 0 0 0 0 0 0 0 0 0 0 0 0 0 0 0 0 0 0 0 0 0 0 0 0 0 0 0 0 0 0 0 0 0 0 0 0 0 0 0 0 0 0 0 0 0 0 0 0 0 0 0 0 0 0 0 0 0 0 3 ,+C.t.t.C.,+M.N.#+i 8 -.q B P M }+-+C.z.B.B.`.t.B.z.z.t.t.w.o.> z.C.u.w.,+8+_+[+|+=+| p ..Z g.B [.)+;+w.u.u.C.q.q.q.C.C.C.C.w.H.3.O L =.B C y y s s 8 } A T.P.J.C.z.B.q.w.P.L.S.| Y ;.Y @.@.G G H S C+S H S H S T S G G H B+S r ++T.[.Z.T.U.U.U.U.U. +V.P.'+J.p.u.u.p.;+)+8+]+]+P.^+T.2     -.0 0 6 + R.R.r.G.O.D.D.`.t.`.O.r.D.D.`.D.t.t.`.`.r.r.`.D.r.r.D.t.`.`.B.z.z.t.`.`.`.B.z.q.C.u.q.t.t.B.z.z.B.p.o.:+++d.e.9 !.6 0 6 0 0 y P z z z E K F K 6.@.a.a.@.9.m.L C z P L 4.4.4.=.4.4.=.m.4.a.6.6.=.P =.@.4.4.6.=.4.K @.a.@.9.K 4.K @.4.4.P L F L L L L m.4.4.@.Q 6.4.a.m.m.m.7+M L a.4.v v E K 4.P 6+5+4+6+1.1./.1.1.l g X.2+R 8 } 8 8 j f z C y u k _ ( [.    N     0 0 0 0 0 0 0 0 0 ",
"0 0 0 0 0 0 0 0 0 0 0 0 0 0 0 0 0 0 0 0 0 0 0 0 0 0 0 0 0 0 0 0 0 0 0 0 0 0 0 0 0 0 0 0 0 0 0 0 0 0 0 0 0 0 0 0 0 0 0 0 0 0 0 0 0 0 0 0 0 0 0 0 0 0 0 0 0 0 0 0 0 0 0 0 0 0 0 0 0 0 0 0 0 0 0 0 0 0 0 0 0 0 0 0 0 0 0 0 0 0 0 0 0 0 0 0 0 0 0 0 0 0 0 0 0 0 0 0 0 0 0 0 0 0 0 0 0 0 0 0 0 0 0 0 0 0 0 0 0 0 0 0 0 0 0 0 0 0 0 0 0 0 0 0 0 0 0 0 0 0 0 0 0 0 0 0 0 0 2 ,+C.B.t.q.J.V.L.%+1 t f q E L O $ p.C.C.q.z.z.t.`.t.B.B.z.B.B.z.C.u.p.;+)+b+(+[+Y.e.6 x g |.+ 2.u.u.u.u.C.C.C.q.q.z.q.q.z.z.B.B.t.t.E.2.A.n.N k J r 8 _ ~ M.,+u.z.z.z.p.o.M.W.*+}.$.;.X G G H Q w C+S U S H G T T G S T T H S f 0.< [.~ T.U.U.U.U. +V.P.'+;+p.C.C.C.w.;+{+8+]+^+^+U.0.u '.  d 0 j E.R.r.r.r.r.r.r.r.r.r.O.r.D.D.r.D.D.D.D.`.`.r.r.D.r.r.D.`.`.`.`.t.t.B.B.t.D.t.B.z.t.`.t.D.D.D.`.B.z.p.'+P.V.U.d.1 ' e.| 5 5 n s e f d q p v E 4.F L 4.a.9.6.7+=.P L B E I I K K =.4.P 7+a.4.@.4.4.=.y 6.4.4.a.4.=.6.6.6.a.6.4.4.4.4.a.9.P B F =.L L E F K K @.4.4.m.m.7+M O 5+6+6+O M 7+B H B 4.K 4.7+7+5+6+6+L =.M 1./.l l 3+R e t t 7 t r C E C s J t 2 , * - #.  7 0 0 0 0 0 0 0 0 0 ",
"0 0 0 0 0 0 0 0 0 0 0 0 0 0 0 0 0 0 0 0 0 0 0 0 0 0 0 0 0 0 0 0 0 0 0 0 0 0 0 0 0 0 0 0 0 0 0 0 0 0 0 0 0 0 0 0 0 0 0 0 0 0 0 0 0 0 0 0 0 0 0 0 0 0 0 0 0 0 0 0 0 0 0 0 0 0 0 0 0 0 0 0 0 0 0 0 0 0 0 0 0 0 0 0 0 0 0 0 0 0 0 0 0 0 0 0 0 0 0 0 0 0 0 0 0 0 0 0 0 0 0 0 0 0 0 0 0 0 0 0 0 0 0 0 0 0 0 0 0 0 0 0 0 0 0 0 0 0 0 0 0 0 0 0 0 0 0 0 0 0 0 0 0 0 0 0 0 0 t '+q.B.D.B.p.P.U.Z.] } 7 q B L g ;+;+J.p.u.p.u.q.z.B.B.B.B.z.q.C.u.u.p.J.,+)+)+'+'+o.w.u.C.C.C.C.q.q.q.q.q.q.z.z.z.z.B.B.B.B.B.B.B.z.z.q.z.z.B.B.z.E.2.@ @ o.p.q.B.B.C.J.P.L.S.6 $. . .Q I Q T T D+H B+B+T U S ..*.S ..G S T H r D T.[.++T.U.U.U. +M.P.'+;+p.C.q.q.u.J.,+{+]+]+^+U.++j x 8     >.`.r.D.r.r.D.D.D.D.r.G.G.r.t.`.r.r.D.t.t.`.`.t.`.r.D.r.D.D.O.r.`.t.t.B.B.`.D.`.`.t.`.`.t.r.r.r.`.B.z.z.z.q.w.o.L.W.W.[.$+A | 5 7 ).6 k.6 (.0 e B B B 7+4.m.7+M =.L E E P F K 6.4.4.=.L L =.6.4.9.4.=.P z a.4.4.a.=.6.@.W a.4.6.a.a.a.=.a.=.B F K =.F F @.G K I I I I 4.m.L 5+M =.7+7+L L =.B I E 4.K F =.=.M 7+R M R 1.O R R 2+1.M C r r r r 8 s B B C s 7 2 ~ ~ 0.      t J 0 0 0 0 0 0 0 ",
"0 0 0 0 0 0 0 0 0 0 0 0 0 0 0 0 0 0 0 0 0 0 0 0 0 0 0 0 0 0 0 0 0 0 0 0 0 0 0 0 0 0 0 0 0 0 0 0 0 0 0 0 0 0 0 0 0 0 0 0 0 0 0 0 0 0 0 0 0 0 0 0 0 0 0 0 0 0 0 0 0 0 0 0 0 0 0 0 0 0 0 0 0 0 0 0 0 0 0 0 0 0 0 0 0 0 0 0 0 0 0 0 0 0 0 0 0 0 0 0 0 0 0 0 0 0 0 0 0 0 0 0 0 0 0 0 0 0 0 0 0 0 0 0 0 0 0 0 0 0 0 0 0 0 0 0 0 0 0 0 0 0 0 0 0 0 0 0 0 0 0 0 0 0 0 0 0 0 7 P.u.B.r.D.q.'+M.W.' ) ).d B L $ ]+|+|+^+;+p.p.C.C.C.C.C.C.p.p.p.u.u.u.u.C.C.q.q.C.C.C.q.z.z.B.z.B.B.z.z.z.z.z.B.B.B.z.z.z.B.B.B.B.z.z.z.z.z.z.z.z.z.z.q.q.C.C.C.q.q.u.,+ +S./ Y  .Z Z W G W ..T T C+T H B+B+T T ..T G I B+..H f b T.[.++T.U.U.U.M.P.'+J.w.u.q.q.q.w.;+)+8+^+M. +[.( y s r   E.r.r.D.r.D.D.D.r.r.D.`.r.O.r.D.O.r.D.`.t.t.`.`.D.r.D.`.D.r.r.r.`.`.t.B.t.t.`.`.t.t.D.r.`.t.`.r.D.t.t.t.B.u.J.C.w.^+N.U.M.W.e./ h.5 n 6 n 6 ).8 s r s y =.L M L 4.=.a.4.z I @.9.=.6.=.L L =.K 4.4.9.4.L M 4.4.4.4.4.=.I 7.6.4.6.6.a.a.a.=.L L K 9.m.K I Q @.@.6.K K @.Q W @.K L 7+=.L L =.L =.L @.K a.K K =.a.P M /.7+4.K L 4.6+2+2+4+O O x e x h.J s w v q d } ' D < #.I.    r 0 0 0 0 0 0 0 ",
"0 0 0 0 0 0 0 0 0 0 0 0 0 0 0 0 0 0 0 0 0 0 0 0 0 0 0 0 0 0 0 0 0 0 0 0 0 0 0 0 0 0 0 0 0 0 0 0 0 0 0 0 0 0 0 0 0 0 0 0 0 0 0 0 0 0 0 0 0 0 0 0 0 0 0 0 0 0 0 0 0 0 0 0 0 0 0 0 0 0 0 0 0 0 0 0 0 0 0 0 0 0 0 0 0 0 0 0 0 0 0 0 0 0 0 0 0 0 0 0 0 0 0 0 0 0 0 0 0 0 0 0 0 0 0 0 0 0 0 0 0 0 0 0 0 0 0 0 0 0 0 0 0 0 0 0 0 0 0 0 0 0 0 0 0 0 0 0 0 0 0 0 0 0 0 0 0 0 0 $ p.B.r.r.q.J.V.N.! _ 8 f B x ^+Q.*+5 5 L.;+p.u.p.p.w.J.;+J.w.u.C.C.C.q.q.q.q.q.z.z.B.B.B.B.B.B.B.z.z.z.z.B.z.B.B.t.B.B.z.z.B.B.B.t.t.B.B.z.z.z.t.B.B.z.z.B.z.z.q.C.u.u.w.M.j 9.<.Z 7.Q ......V +.D+U S H *.+.....T ..T +...H e b T.[.[.T.U. +M.V.)+J.w.u.C.z.z.u.J.)+P.^+M. +[.A r y r 2 E.R.D.r.r.O.r.D.r.O.r.D.r.r.r.r.r.r.`.t.r.t.t.D.D.`.t.`.r.O.O.r.`.t.D.r.t.`.D.`.D.`.t.`.`.`.r.r.`.D.r.`.t.t.q.q.J.,+^+^+,+V.Y.] 9 | 9 5 5 !.!.8 } u j x y P P L =.4.=.=.L 4.@.9.=.4.=.L L L 4.&.@.K 5.L M P 4.=.4.K 4.a.5.6.4.6.K 4.9.=.4.m.L 4.6.m.L L 6.9.9.7.5.W K 4.E K K m.m.4.K 4.K 4.=.E E I @.K 7+=.4.6.L =.5+M 4.9.4.m.1.3+3.3+3+1.R 1.O x t J z U w ~.h.: ( 0.,.      7 0 0 0 0 0 0 0 ",
"0 0 0 0 0 0 0 0 0 0 0 0 0 0 0 0 0 0 0 0 0 0 0 0 0 0 0 0 0 0 0 0 0 0 0 0 0 0 0 0 0 0 0 0 0 0 0 0 0 0 0 0 0 0 0 0 0 0 0 0 0 0 0 0 0 0 0 0 0 0 0 0 0 0 0 0 0 0 0 0 0 0 0 0 0 0 0 0 0 0 0 0 0 0 0 0 0 0 0 0 0 0 0 0 0 0 0 0 0 0 0 0 0 0 0 0 0 0 0 0 0 0 0 0 0 0 0 0 0 0 0 0 0 0 0 0 0 0 0 0 0 0 0 0 0 0 0 0 0 0 0 0 0 0 0 0 0 0 0 0 0 0 0 0 0 0 0 0 0 0 0 0 0 0 0 0 0 0 0 U.J.B.r.O.t.p.P.U.Z.] } 7 z 2 b+Q.&+c j.k ;+u.u.w.J.,+,+J.u.u.C.C.C.C.q.q.q.q.z.B.z.B.z.z.z.B.z.z.z.z.B.B.z.z.z.B.B.t.B.B.z.B.B.t.t.`.`.`.t.t.B.t.B.B.B.z.z.q.z.q.z.z.q.C.C.z.> n.1.W W T X V Q *.B+B+H C+T +...Y G ..T T G w d b T.[.< U.M.M.P.,+w.w.p.u.q.z.q.w.'+P.^+M.U.[.A t w e g K.R.r.D.r.r.r.D.D.t.D.D.r.r.r.r.D.r.D.D.D.D.D.D.r.r.r.D.D.O.G.G.r.D.O.r.D.t.D.t.`.t.t.`.D.t.t.t.`.t.D.D.t.B.B.B.z.z.w.{+'+]+|+.+&+@+/ | / / | 1 ( D g t u J y L E F F a.=.4.K K =.=.L =.=.=.=.6.6.6.6.5.L y E L =.a.4.4.6.5.4.4.K 6.9.@.4.=.L m.=.m.7+P =.6.@.7.7.7.8.g.l.6.6.K 4.m.a.4.K a.4.B C P L =.6.4.M m.a.7+P M L m.6+7+O 1.2+1.2+3+X.3+3.2+y e t x v j.o 6 9 _ ! $     J 7 0 0 0 0 0 0 0 ",
"0 0 0 0 0 0 0 0 0 0 0 0 0 0 0 0 0 0 0 0 0 0 0 0 0 0 0 0 0 0 0 0 0 0 0 0 0 0 0 0 0 0 0 0 0 0 0 0 0 0 0 0 0 0 0 0 0 0 0 0 0 0 0 0 0 0 0 0 0 0 0 0 0 0 0 0 0 0 0 0 0 0 0 0 0 0 0 0 0 0 0 0 0 0 0 0 0 0 0 0 0 0 0 0 0 0 0 0 0 0 0 0 0 0 0 0 0 0 0 0 0 0 0 0 0 0 0 0 0 0 0 0 0 0 0 0 0 0 0 0 0 0 0 0 0 0 0 0 0 0 0 0 0 0 0 0 0 0 0 0 0 0 0 0 0 0 0 0 0 0 0 0 0 0 0 0 0 0 0 _ '+q.t.O.D.C.o.M.[.' : m d < ]+|+*+f.t #.p.u.w.J.,+'+J.u.u.C.q.q.C.q.q.z.q.z.z.z.z.B.B.z.B.z.z.z.z.z.B.t.B.z.z.B.t.t.t.B.t.D.t.t.`.D.D.D.D.D.`.t.t.t.t.B.B.B.B.B.B.z.q.q.q.C.C.C.q.H.N 4.X V G ..T S D+j.B+T G *...T T S H w p 2 - [.T.M.V.P.,+p.u.p.p.C.q.q.u.;+P.^+ +U.[.A : B z |.D.r.r.O.O.O.r.D.D.D.D.D.r.r.r.`.`.`.D.D.r.D.r.O.O.O.O.O.G.r.r.G.r.D.r.r.O.r.r.D.D.D.t.D.r.D.`.`.`.t.B.t.`.D.t.t.t.B.z.)+,+{+:+Q..+Z.#+| e.++++$+N.U.[.( 2 k J d p w =.m.P P 4.4.L L P L K =.4.=.6.6.a.6.9.P C I L 4.4.K =.@.4.L K 6.6.6.6.a.=.P L L L L =.K @.6.7.5.7.9.a.4.6.@.9.5.7+6+m.a.K F L L C M M M 4.E m.6.m.6.M L 7+6+O 1.5+5+1.1.1.3.2+/.2+4+z e x v S ~.7 8 ) D , *     7 0 0 0 0 0 0 0 ",
"0 0 0 0 0 0 0 0 0 0 0 0 0 0 0 0 0 0 0 0 0 0 0 0 0 0 0 0 0 0 0 0 0 0 0 0 0 0 0 0 0 0 0 0 0 0 0 0 0 0 0 0 0 0 0 0 0 0 0 0 0 0 0 0 0 0 0 0 0 0 0 0 0 0 0 0 0 0 0 0 0 0 0 0 0 0 0 0 0 0 0 0 0 0 0 0 0 0 0 0 0 0 0 0 0 0 0 0 0 0 0 0 0 0 0 0 0 0 0 0 0 0 0 0 0 0 0 0 0 0 0 0 0 0 0 0 0 0 0 0 0 0 0 0 0 0 0 0 0 0 0 0 0 0 0 0 0 0 0 0 0 0 0 0 0 0 0 0 0 0 0 0 0 0 0 0 0 0 0 8 P.C.z.r.r.z.;+V.T.%+1 t f U.{+(+:+I.u.u.u.p.J.,+'+J.u.C.C.q.C.C.C.q.z.z.q.z.z.z.z.z.z.z.z.z.z.z.B.B.z.B.B.B.B.t.t.D.t.t.t.t.D.D.D.r.r.O.O.r.r.r.D.D.D.`.t.B.t.t.t.t.t.B.B.z.q.q.C.C.q.J.|.P T &.B+B++.D+C+S G Q ..S ..H G H w 8 D T.U.^+'+;+w.u.p.p.C.C.C.p.J.)+^+ +T.- A } E I 1+O.r.D.r.O.r.r.O.r.D.D.D.`.`.`.`.D.D.`.r.D.`.`.`.r.O.O.r.O.O.G.O.O.r.D.r.O.s.O.O.D.`.D.D.D.r.D.D.`.D.D.`.`.`.t.B.B.t.B.,+p.p.8+:+Q.#+.+@+Y.L.M.Y.^+J.M.%+0.b } } 7 d C M P P L =.P P P L =.L 4.m.a.a.6.a.9.4.C B F L 4.a.4.4.a.L =.=.6.a.a.6.4.L P M P L L 4.a.6.6.6.9.9.5.9.4.K 6.6.W @.@.a.m.a.@.=.P M O P L L m.7+a.a.a.m.7.a.M /.O L M 1./.l 3.3.3+2+4+M C s e H d m m m 1 , I.    r 0 0 0 0 0 0 0 ",
"0 0 0 0 0 0 0 0 0 0 0 0 0 0 0 0 0 0 0 0 0 0 0 0 0 0 0 0 0 0 0 0 0 0 0 0 0 0 0 0 0 0 0 0 0 0 0 0 0 0 0 0 0 0 0 0 0 0 0 0 0 0 0 0 0 0 0 0 0 0 0 0 0 0 0 0 0 0 0 0 0 0 0 0 0 0 0 0 0 0 0 0 0 0 0 0 0 0 0 0 0 0 0 0 0 0 0 0 0 0 0 0 0 0 0 0 0 0 0 0 0 0 0 0 0 0 0 0 0 0 0 0 0 0 0 0 0 0 0 0 0 0 0 0 0 0 0 0 0 0 0 0 0 0 0 0 0 0 0 0 0 0 0 0 0 0 0 0 0 0 0 0 0 0 0 0 0 0 0 d  +w.z.D.r.B.p.P. +++A } t ^+;+p.u.C.C.C.p.J.,+,+J.u.q.C.C.q.C.q.q.q.z.z.z.q.q.q.q.z.z.B.z.z.B.B.B.B.B.B.t.t.t.t.t.t.`.`.`.D.D.D.r.r.O.O.O.O.r.O.r.D.r.r.r.r.`.t.t.`.`.t.t.t.B.B.z.z.q.C.C.p.>.P T T T U U C+S G G *.T G S S H r 0.++U.P.'+;+w.w.w.p.u.C.u.;+{+^+ +N.~ ] '.z P A.G.O.r.G.G.r.r.r.r.`.r.r.r.r.r.D.r.D.D.t.t.t.t.r.r.O.O.r.D.r.O.G.r.r.O.r.O.O.O.r.O.D.`.`.`.`.`.t.D.`.D.t.t.t.t.t.t.D.t.q.z.C.;+b+:+L.Q.S.:+;+;+L.P.,+o.++0.b 0.( } t s x y C P P L P L L L =.E =.a.m.a.a.9.4.6.P =.K L a.4.a.a.a.L =.4.4.K 4.4.4.=.O y P =.4.K 4.4.6.6.9.@.K 4.4.m.V 6.Q W 4.5+M L 6.K 4.a.4.B B 4.=.6+5+5+a.6.9.M R O M M R R l l l 3+2+2+2+1.y d f z e 8 ).9 1 [.* ,   r 0 d 0 0 0 0 0 ",
"0 0 0 0 0 0 0 0 0 0 0 0 0 0 0 0 0 0 0 0 0 0 0 0 0 0 0 0 0 0 0 0 0 0 0 0 0 0 0 0 0 0 0 0 0 0 0 0 0 0 0 0 0 0 0 0 0 0 0 0 0 0 0 0 0 0 0 0 0 0 0 0 0 0 0 0 0 0 0 0 0 0 0 0 0 0 0 0 0 0 0 0 0 0 0 0 0 0 0 0 0 0 0 0 0 0 0 0 0 0 0 0 0 0 0 0 0 0 0 0 0 0 0 0 0 0 0 0 0 0 0 0 0 0 0 0 0 0 0 0 0 0 0 0 0 0 0 0 0 0 0 0 0 0 0 0 0 0 0 0 0 0 0 0 0 0 0 0 0 0 0 0 0 0 0 0 0 0 0 0 0.'+z.`.r.t.u.o.M.N.! _ - w.u.u.u.C.u.u.w.,+,+J.u.C.C.q.q.q.q.C.q.q.q.z.z.z.z.z.z.z.B.B.B.B.B.B.B.B.t.t.`.`.`.t.`.D.D.r.O.O.r.r.r.O.G.G.G.G.G.O.O.r.r.r.O.r.r.D.D.D.D.t.t.t.B.z.z.z.z.q.q.C.u.w.>.C +.B+T w S G S Q T S D+U D+f _ D M.{+'+;+J.J.p.u.u.w.,+P.M.U.[.! i 9 q /.E.G.O.O.O.G.O.O.O.r.`.D.`.t.r.`.`.D.`.`.t.t.t.D.D.r.r.r.O.r.O.G.G.r.r.O.G.r.r.O.r.O.O.O.r.`.D.r.r.R.r.r.r.`.`.`.t.D.D.D.B.t.q.J.)+8+8+_+M.o.q.J.N.N.M.N.%+%+' ( / 9 t t r f z y P L P L L F C P L =.m.m.a.6.m.a.@.L L a.4.4.4.a.4.m.L =.=.4.6.a.4.L L y L F 6.K 4.F B =.B F K E K 6.@.5.6.W 7.7+6+m.a.4.a.6.m.=.4.=.a.m.7+M 6+6+6.a.4.4.L P M P 1.u /./././.5+M 5+M B y e x 8 7 8 _ - , < t 0 7 J 0 0 0 0 0 ",
"0 0 0 0 0 0 0 0 0 0 0 0 0 0 0 0 0 0 0 0 0 0 0 0 0 0 0 0 0 0 0 0 0 0 0 0 0 0 0 0 0 0 0 0 0 0 0 0 0 0 0 0 0 0 0 0 0 0 0 0 0 0 0 0 0 0 0 0 0 0 0 0 0 0 0 0 0 0 0 0 0 0 0 0 0 0 0 0 0 0 0 0 0 0 0 0 0 0 0 0 0 0 0 0 0 0 0 0 0 0 0 0 0 0 0 0 0 0 0 0 0 0 0 0 0 0 0 0 0 0 0 0 0 0 0 0 0 0 0 0 0 0 0 0 0 0 0 0 0 0 0 0 0 0 0 0 0 0 0 0 0 0 0 0 0 0 0 0 0 0 0 0 0 0 0 0 0 0 0 0 t ]+u.t.r.D.q.J.P.U.$ 2.C.C.C.C.C.C.u.w.;+,+J.p.C.C.q.C.C.q.q.q.q.z.z.z.z.z.z.z.z.B.B.B.B.B.B.B.t.t.t.t.`.`.D.D.D.r.D.D.D.O.O.O.O.O.G.G.s.G.G.G.O.G.G.O.O.O.r.r.r.r.r.r.r.D.`.`.B.z.z.z.q.q.C.p.w.o.g G T C+S S T ....B+T T j.q n ) T.V.,+;+J.w.p.w.;+)+V.U.W.Z.' ^ 9 q 3.r.O.O.R.O.G.O.r.O.r.`.`.D.`.R.B.`.D.D.D.D.r.D.r.r.r.O.O.O.O.O.O.O.r.O.G.G.G.G.O.O.r.O.D.r.`.D.r.r.O.r.O.D.r.D.r.r.r.`.`.D.B.`.C.J.,+)+'+p.z.C.u.^+ + +U.U.T.T.++A 1 i 1 } _ j J y y y P L K L L L =.m.L =.6.a.6.5.@.=.C 4.4.4.=.a.=.M L =.4.a.6.4.=.=.P y L K K 4.=.I W @.I 4.F I 9.6.@.a.K @.9.M a.7+4.7+=.=.9.@.L 7+7+6+6+4.K a.4.m.m.a.L P L O u 1././.1.4+2+5+m.M C y y J r f 8 _ ~ ~   t k   -.0 0 0 0 0 ",
"0 0 0 0 0 0 0 0 0 0 0 0 0 0 0 0 0 0 0 0 0 0 0 0 0 0 0 0 0 0 0 0 0 0 0 0 0 0 0 0 0 0 0 0 0 0 0 0 0 0 0 0 0 0 0 0 0 0 0 0 0 0 0 0 0 0 0 0 0 0 0 0 0 0 0 0 0 0 0 0 0 0 0 0 0 0 0 0 0 0 0 0 0 0 0 0 0 0 0 0 0 0 0 0 0 0 0 0 0 0 0 0 0 0 0 0 0 0 0 0 0 0 0 0 0 0 0 0 0 0 0 0 0 0 0 0 0 0 0 0 0 0 0 0 0 0 0 0 0 0 0 0 0 0 0 0 0 0 0 0 0 0 0 0 0 0 0 0 0 0 0 0 0 0 0 0 0 0 0 0 0 U.J.t.O.r.B.p.;+p.q.C.q.q.C.C.C.C.u.J.;+J.p.C.C.C.C.C.C.q.q.z.z.z.z.z.z.B.B.B.B.B.B.B.B.t.t.t.t.t.D.D.t.`.D.r.O.r.r.r.O.r.G.G.G.G.s.G.G.G.G.G.G.s.G.O.G.G.G.O.G.G.r.O.O.O.r.D.D.t.B.B.z.q.q.C.u.w.w.#.x B+w S G ....T +.B+U w _.!.' T.P.)+,+,+,+)+]+M.N.Z.#+1 | n C + s.O.r.O.G.O.r.O.O.r.`.D.r.`.D.D.`.D.D.R.r.G.r.D.r.O.r.r.s.G.G.O.O.O.G.G.G.G.O.s.G.r.r.`.D.D.`.r.O.r.t.`.D.D.D.r.O.O.r.`.D.`.`.t.z.C.z.z.B.z.z.B.;+'+'+,+u.;+o.V. +N.#+' *+( : 8 f y s C B B z P L L P =.7+4.m.6.9.9.6.=.P a.P a.L @.=.P =.L 4.6.a.7+7+P z s P =.L 4.@.&.5.W W W V K L P K W W @.a.P =.M M 6+m.=.L L L L L m.7+M L M 5+7+4.m.L =.M x R O M M 5+6+6+5+m.F M 1.y r s f t ) ' 3         -.0 0 0 0 0 ",
"0 0 0 0 0 0 0 0 0 0 0 0 0 0 0 0 0 0 0 0 0 0 0 0 0 0 0 0 0 0 0 0 0 0 0 0 0 0 0 0 0 0 0 0 0 0 0 0 0 0 0 0 0 0 0 0 0 0 0 0 0 0 0 0 0 0 0 0 0 0 0 0 0 0 0 0 0 0 0 0 0 0 0 0 0 0 0 0 0 0 0 0 0 0 0 0 0 0 0 0 0 0 0 0 0 0 0 0 0 0 0 0 0 0 0 0 0 0 0 0 0 0 0 0 0 0 0 0 0 0 0 0 0 0 0 0 0 0 0 0 0 0 0 0 0 0 0 0 0 0 0 0 0 0 0 0 0 0 0 0 0 0 0 0 0 0 0 0 0 0 0 0 0 0 0 0 0 0 0 0 0 b {+q.r.r.t.q.z.C.C.q.q.q.q.q.q.C.w.;+;+w.u.C.C.C.q.C.q.q.q.z.z.z.B.t.t.t.B.z.B.t.B.B.B.B.t.t.`.`.`.`.`.D.D.r.r.r.r.O.O.G.G.G.s.G.G.s.s.G.G.s.s.G.G.G.G.G.O.G.G.O.G.O.O.r.D.D.D.`.t.B.B.z.C.C.u.u.w.J.;+N v S T Q G B++.U +.U o 6 } D U.^+]+]+^+ +L.++$+@+/ 5 0 1.E.s.G.O.G.G.O.O.r.G.O.r.D.r.R.r.D.r.O.r.`.r.O.O.r.O.O.O.O.G.G.G.s.G.s.G.s.G.O.r.D.D.`.r.r.D.D.`.`.R.r.r.`.`.`.`.t.O.r.r.r.t.`.D.D.B.`.B.t.D.`.B.B.w.w.,+p.C.,+w.;+P.L.N.%+d.%+' ) 8 s f f z z B B B E P =.L m.L 4.a.6.5.5.L P L =.=.P 4.L L =.=.4.6.6.=.7+P M s P =.I @.&.W 6.K @.@.F F =.6.@.K G F m.4.7+6+L 7+m.m.@.K M O L L K =.4.6.a.m.m.M 6+M P P L =.L O O 1.4+5+M 6.M /.y s y e m 9 A ~       m 0 J 0 0 0 0 ",
"0 0 0 0 0 0 0 0 0 0 0 0 0 0 0 0 0 0 0 0 0 0 0 0 0 0 0 0 0 0 0 0 0 0 0 0 0 0 0 0 0 0 0 0 0 0 0 0 0 0 0 0 0 0 0 0 0 0 0 0 0 0 0 0 0 0 0 0 0 0 0 0 0 0 0 0 0 0 0 0 0 0 0 0 0 0 0 0 0 0 0 0 0 0 0 0 0 0 0 0 0 0 0 0 0 0 0 0 0 0 0 0 0 0 0 0 0 0 0 0 0 0 0 0 0 0 0 0 0 0 0 0 0 0 0 0 0 0 0 0 0 0 0 0 0 0 0 0 0 0 0 0 0 0 0 0 0 0 0 0 0 0 0 0 0 0 0 0 0 0 0 0 0 0 0 0 0 0 0 0 0 6 M.p.B.`.z.z.q.C.q.q.C.C.C.C.C.p.;+,+J.u.C.C.C.C.C.q.q.z.z.q.z.B.B.B.B.t.`.t.B.t.t.t.B.B.t.t.t.`.D.D.`.D.r.r.r.r.O.G.G.G.G.G.G.G.s.s.s.s.s.s.s.G.G.G.s.G.G.G.G.G.G.O.r.O.r.D.D.D.D.`.t.B.z.C.u.u.w.J.;+;+* y ....T S +.T *.+.o _.-.) %+[.N.N.++$+A 1 / 5 6 q 3.O.G.G.G.s.O.G.O.O.O.s.O.D.R.r.r.r.r.O.O.r.r.D.r.D.D.r.r.r.O.O.O.O.O.O.r.r.G.O.s.G.D.r.D.r.`.`.r.D.r.D.r.r.D.D.`.D.D.r.D.D.R.r.D.`.r.r.`.t.`.t.D.`.u.w.C.q.q.B.q.;+)+ +N.Q.N.U.L.A ^ ).6 0 e y p B z E L L =.L L K 4.9.9.W @.4.y =.=.L =.K P E L =.4.m.6+6+O O z C L @.5.5.5.9.@.5.5.7.5.W I 4.K I ..L m.K 7+7+M M 6+7+m.6.W K 4.4.a.6.a.m.7+M P L B L 4.K L M 1.1.1.5+1.2+6+m.L R y y s z 6 9 ' ~ <     0 0 J 0 0 0 0 ",
"0 0 0 0 0 0 0 0 0 0 0 0 0 0 0 0 0 0 0 0 0 0 0 0 0 0 0 0 0 0 0 0 0 0 0 0 0 0 0 0 0 0 0 0 0 0 0 0 0 0 0 0 0 0 0 0 0 0 0 0 0 0 0 0 0 0 0 0 0 0 0 0 0 0 0 0 0 0 0 0 0 0 0 0 0 0 0 0 0 0 0 0 0 0 0 0 0 0 0 0 0 0 0 0 0 0 0 0 0 0 0 0 0 0 0 0 0 0 0 0 0 0 0 0 0 0 0 0 0 0 0 0 0 0 0 0 0 0 0 0 0 0 0 0 0 0 0 0 0 0 0 0 0 0 0 0 0 0 0 0 0 0 0 0 0 0 0 0 0 0 0 0 0 0 0 0 0 0 0 0 0 0 ++;+B.q.C.q.C.q.q.C.C.C.u.C.u.w.;+;+u.u.C.C.C.C.C.q.z.z.z.B.B.B.B.B.`.t.t.t.B.t.t.t.t.t.t.t.t.`.`.D.D.D.r.r.O.G.G.G.G.G.G.G.G.G.G.G.s.s.s.s.s.s.s.G.G.G.G.G.G.G.O.G.O.r.O.O.r.r.r.`.t.t.B.z.C.u.w.w.J.;+,+V.R ....+.B+T ....j.o o -./ ] ] 1 e./ 5 5 6 k.z + s.G.G.G.s.s.G.G.r.r.G.O.R.r.O.r.O.r.r.O.r.O.r.r.r.D.D.D.r.O.O.r.r.r.r.r.r.D.r.O.G.O.D.D.r.r.t.t.D.r.r.r.r.D.r.r.r.r.`.r.r.r.`.t.`.r.r.r.`.`.r.t.t.B.C.z.B.`.B.C.p.'+)+)+,+;+;+P.[.[ } 8 7 0 y x y C w B L L L L =.K 6.6.m.9.4.=.y B F B 4.a.P =.L K M M 5+M P E F z =.@.6.9.@.6.5.7.9.K I Q K @.6.5.X =.=.4.L m.M M 6+7+7+6.@.l.5.9.6.a.4.L P L 6.9.m.=.L O R O O 1.5+5+m.L 5+7+O L O C R C e t A D < ,.j 0   -.0 0 0 0 ",
"0 0 0 0 0 0 0 0 0 0 0 0 0 0 0 0 0 0 0 0 0 0 0 0 0 0 0 0 0 0 0 0 0 0 0 0 0 0 0 0 0 0 0 0 0 0 0 0 0 0 0 0 0 0 0 0 0 0 0 0 0 0 0 0 0 0 0 0 0 0 0 0 0 0 0 0 0 0 0 0 0 0 0 0 0 0 0 0 0 0 0 0 0 0 0 0 0 0 0 0 0 0 0 0 0 0 0 0 0 0 0 0 0 0 0 0 0 0 0 0 0 0 0 0 0 0 0 0 0 0 0 0 0 0 0 0 0 0 0 0 0 0 0 0 0 0 0 0 0 0 0 0 0 0 0 0 0 0 0 0 0 0 0 0 0 0 0 0 0 0 0 0 0 0 0 0 0 0 0 0 0 f + z.z.q.q.C.C.C.C.C.C.C.C.C.u.J.J.p.u.C.C.C.q.q.q.q.z.z.z.B.z.B.B.B.t.t.t.t.t.t.t.t.t.`.t.t.t.`.D.`.D.D.r.r.O.G.G.G.G.O.O.G.s.G.G.G.G.G.s.G.G.s.s.G.G.G.G.G.G.G.G.G.O.O.O.r.O.r.D.D.`.t.B.z.q.q.u.w.J.;+,+,+o.g ..*.T *...T +.o ~._.a 6 f.f.f.c c c o R v.s.G.O.O.G.s.s.O.O.G.O.r.R.R.r.O.r.O.D.R.O.r.D.R.r.r.D.`.`.r.r.`.`.D.r.`.t.`.D.D.r.r.R.D.`.D.`.`.t.`.r.r.r.D.r.R.r.r.r.D.D.`.`.D.D.`.r.r.t.`.`.t.t.t.B.z.z.t.B.q.w.J.J.,+w.J.P.M.++( ^ '.9 !.7 u 7 x y z B z L 4.=.4.a.6.6.4.6.L L y 4.K =.4.L B =.L =.P 6+7+=.L F H z E =.6.6.4.@.@.I 4.@.@.W W V 9.m.a.Q =.F P m.6+M M 7+4.a.7.5.l.5.9.K =.L a.a.m.7+4.4.L =.4.L 7+4.P 5+5+L M P z P M R O P d t _ b < $     j 0 0 0 0 0 ",
"0 0 0 0 0 0 0 0 0 0 0 0 0 0 0 0 0 0 0 0 0 0 0 0 0 0 0 0 0 0 0 0 0 0 0 0 0 0 0 0 0 0 0 0 0 0 0 0 0 0 0 0 0 0 0 0 0 0 0 0 0 0 0 0 0 0 0 0 0 0 0 0 0 0 0 0 0 0 0 0 0 0 0 0 0 0 0 0 0 0 0 0 0 0 0 0 0 0 0 0 0 0 0 0 0 0 0 0 0 0 0 0 0 0 0 0 0 0 0 0 0 0 0 0 0 0 0 0 0 0 0 0 0 0 0 0 0 0 0 0 0 0 0 0 0 0 0 0 0 0 0 0 0 0 0 0 0 0 0 0 0 0 0 0 0 0 0 0 0 0 0 0 0 0 0 0 0 0 0 0 r H.z.q.q.q.C.C.C.C.C.C.C.C.C.C.w.J.w.p.u.C.C.C.q.C.q.z.z.B.z.z.z.z.B.B.t.t.t.t.t.t.B.t.t.t.t.`.`.t.`.D.r.r.O.O.O.G.G.G.G.G.G.G.G.G.s.s.s.G.G.G.G.G.G.G.G.G.G.G.G.G.G.G.G.O.O.O.r.D.`.D.D.t.t.B.q.q.C.p.p.J.J.;+,+,+3 G T X V ..B+j.p o o o c c a a o w 2+`.s.G.O.G.G.s.s.G.G.s.G.G.O.O.r.r.O.G.O.r.O.r.`.r.r.D.`.D.`.r.O.D.t.D.r.D.`.D.r.r.r.r.`.`.`.t.t.D.`.D.D.`.r.r.D.r.r.D.r.O.r.r.`.B.t.`.`.r.G.r.r.r.`.t.B.t.t.`.t.`.z.B.z.C.w.o.^+L.W.%+Z.1 ^ 9 !.9 t !.7 s e C z L =.m.m.4.a.4.@.m.=.4.L K 6.4.L L E =.4.L M 4.P P E F E E P K 6.4.@.6.9.K I I Q Q %.W 6.9.%.X F K L L 5+7+6+m.4.a.9.9.6.9.4.F @.W 4.=.=.L M P L L =.m.4.@.W K m.L P y z P L R 1.O C 7 t ( 0.,.    0 -.0 0 0 0 ",
"0 0 0 0 0 0 0 0 0 0 0 0 0 0 0 0 0 0 0 0 0 0 0 0 0 0 0 0 0 0 0 0 0 0 0 0 0 0 0 0 0 0 0 0 0 0 0 0 0 0 0 0 0 0 0 0 0 0 0 0 0 0 0 0 0 0 0 0 0 0 0 0 0 0 0 0 0 0 0 0 0 0 0 0 0 0 0 0 0 0 0 0 0 0 0 0 0 0 0 0 0 0 0 0 0 0 0 0 0 0 0 0 0 0 0 0 0 0 0 0 0 0 0 0 0 0 0 0 0 0 0 0 0 0 0 0 0 0 0 0 0 0 0 0 0 0 0 0 0 0 0 0 0 0 0 0 0 0 0 0 0 0 0 0 0 0 0 0 0 0 0 0 0 0 0 0 0 0 0 k 2.z.q.q.C.C.C.C.u.C.C.C.C.u.u.u.J.J.w.u.C.C.C.q.C.C.q.q.z.z.z.z.z.B.t.t.t.t.B.t.t.t.t.t.t.`.`.`.`.`.D.D.r.r.r.r.O.G.G.s.G.G.G.G.G.G.s.s.s.G.G.G.O.O.G.G.G.G.G.G.G.G.O.G.O.O.O.O.r.O.D.D.`.`.t.t.B.q.C.u.p.w.J.J.,+,+,+< I %.%.*.T S v v b.D+U C+T Q H X.G.G.G.O.G.s.s.s.G.G.s.G.G.s.G.O.O.r.G.G.s.R.O.D.D.r.r.r.r.r.r.r.r.r.D.D.D.`.r.r.G.r.r.`.t.t.`.`.`.t.t.D.D.D.r.r.`.r.r.D.D.D.R.r.r.r.r.D.`.D.O.r.R.r.r.`.`.D.r.R.`.`.B.`.B.B.C.;+P.V.U.L.T.[.^ 9 9 / 9 J J 7 7 f C L 4.L 4.7+7+m.a.m.=.@.=.K 6.L P P z L =.P =.K m.6.V B K B P 4.4.K 6.K =.F F F @.X &.V @.K @.@.@.4.=.L O 6+m.m.=.4.a.m.4.a.9.8.7.6.L =.P M L L m.L P 7+m.@.K @.F L s s C C E y R R z f 7 : 0.~ $ 2 0 0 0 0 0 0 ",
"0 0 0 0 0 0 0 0 0 0 0 0 0 0 0 0 0 0 0 0 0 0 0 0 0 0 0 0 0 0 0 0 0 0 0 0 0 0 0 0 0 0 0 0 0 0 0 0 0 0 0 0 0 0 0 0 0 0 0 0 0 0 0 0 0 0 0 0 0 0 0 0 0 0 0 0 0 0 0 0 0 0 0 0 0 0 0 0 0 0 0 0 0 0 0 0 0 0 0 0 0 0 0 0 0 0 0 0 0 0 0 0 0 0 0 0 0 0 0 0 0 0 0 0 0 0 0 0 0 0 0 0 0 0 0 0 0 0 0 0 0 0 0 0 0 0 0 0 0 0 0 0 0 0 0 0 0 0 0 0 0 0 0 0 0 0 0 0 0 0 0 0 0 0 0 0 0 0 g E.q.C.q.q.C.C.C.C.C.C.C.u.u.u.u.w.J.J.p.C.C.q.C.C.C.q.z.z.z.z.z.z.B.B.B.t.t.`.t.t.t.t.t.`.`.D.D.D.D.D.D.D.r.r.r.r.G.G.G.G.G.G.O.O.G.s.s.s.s.G.G.G.G.G.G.s.s.s.G.s.s.s.O.O.O.O.O.G.O.O.D.D.r.D.`.t.z.z.q.C.u.w.w.J.J.;+'+'+< @.Z V S H w w H Q G I H F X.s.G.G.G.G.s.G.s.s.G.s.G.s.s.G.O.R.O.O.O.G.G.O.O.r.`.`.D.`.t.t.r.r.r.r.D.t.t.D.D.O.r.D.R.r.`.t.t.R.D.r.r.D.D.r.D.D.r.r.O.O.O.r.O.r.r.G.r.r.D.r.r.O.r.O.O.r.r.D.D.r.R.D.`.B.z.C.p.w.J.V.V.M.Z.1 &+/ | 9 } ) : : J r B F =.m.L m.m.a.4.=.a.5.K @.a.4.L E P L L =.@.Q Q *.Q B E L =.=.K K 6.E F Q W W @.@.Q G I W a.9.@.L =.K M 6+L 9.a.6.@.6.6.9.9.@.=.m.=.4.@.6.4.4.4.a.=.5+6+M @.9.K y y y z z B C C M z d s j b < #.    7 -.0 0 0 ",
"0 0 0 0 0 0 0 0 0 0 0 0 0 0 0 0 0 0 0 0 0 0 0 0 0 0 0 0 0 0 0 0 0 0 0 0 0 0 0 0 0 0 0 0 0 0 0 0 0 0 0 0 0 0 0 0 0 0 0 0 0 0 0 0 0 0 0 0 0 0 0 0 0 0 0 0 0 0 0 0 0 0 0 0 0 0 0 0 0 0 0 0 0 0 0 0 0 0 0 0 0 0 0 0 0 0 0 0 0 0 0 0 0 0 0 0 0 0 0 0 0 0 0 0 0 0 0 0 0 0 0 0 0 0 0 0 0 0 0 0 0 0 0 0 0 0 0 0 0 0 0 0 0 0 0 0 0 0 0 0 0 0 0 0 0 0 0 0 0 0 0 0 0 0 0 0 0 N E.q.C.C.q.C.C.C.C.C.u.u.u.C.u.u.u.p.J.w.u.C.C.C.C.C.C.C.q.q.q.z.B.B.B.t.t.t.t.t.t.t.t.t.t.`.`.`.D.`.`.`.`.`.D.D.D.r.O.G.G.G.G.G.O.G.s.s.s.s.G.G.G.G.G.G.G.s.G.s.G.G.s.s.G.G.O.O.O.O.O.r.r.r.r.r.`.t.t.B.q.C.u.p.p.J.J.;+,+'+'+< @.S G w S w v H G G H X.G.G.O.G.G.G.G.O.s.G.G.G.G.s.G.G.O.O.G.G.O.G.O.R.r.R.`.`.`.B.t.D.r.D.D.R.D.D.D.r.D.D.`.t.`.`.`.t.D.r.r.r.D.`.R.D.D.`.r.O.O.r.G.D.R.O.r.r.R.r.r.r.r.R.r.D.r.r.r.r.r.`.t.t.t.t.t.q.q.t.q.,+P.U.W.Y.>+e.] %+! ' ( } n 6 ~.B =.L M m.m.m.4.7+4.5.@.6.4.=.=.=.L L L E F F Q I I E I I P L 4.a.K 4.Q @.@.@.@.W Q Q &.7.W 6.6.L a.a.M a.a.4.m.6.6.4.4.4.=.E =.L =.4.W m.6+6+7+7+P L 5+6+4.6.@.C y y C z z C z E E p d r 2 0.< H./.0 0 0 0 0 ",
"0 0 0 0 0 0 0 0 0 0 0 0 0 0 0 0 0 0 0 0 0 0 0 0 0 0 0 0 0 0 0 0 0 0 0 0 0 0 0 0 0 0 0 0 0 0 0 0 0 0 0 0 0 0 0 0 0 0 0 0 0 0 0 0 0 0 0 0 0 0 0 0 0 0 0 0 0 0 0 0 0 0 0 0 0 0 0 0 0 0 0 0 0 0 0 0 0 0 0 0 0 0 0 0 0 0 0 0 0 0 0 0 0 0 0 0 0 0 0 0 0 0 0 0 0 0 0 0 0 0 0 0 0 0 0 0 0 0 0 0 0 0 0 0 0 0 0 0 0 0 0 0 0 0 0 0 0 0 0 0 0 0 0 0 0 0 0 0 0 0 0 0 0 0 0 0 N q.q.C.C.C.u.C.C.C.u.u.u.u.u.u.u.u.u.w.w.p.u.C.u.u.C.C.C.C.C.q.q.q.z.z.B.B.t.t.t.t.t.B.t.t.t.t.B.t.`.`.t.t.`.D.D.`.D.r.r.O.G.G.G.G.O.G.s.G.s.s.G.G.G.G.G.G.G.G.G.s.s.s.s.s.G.G.O.O.O.O.O.r.r.r.r.r.r.D.t.t.B.q.C.u.p.J.;+;+,+'+'+)+- E H H S H w F G ..5+G.G.G.G.G.G.O.O.G.G.G.G.G.G.s.s.s.G.G.s.G.O.r.r.O.r.D.D.`.D.`.`.D.r.R.`.D.r.r.r.r.`.`.`.t.`.`.`.r.r.r.r.B.D.r.R.D.D.r.r.O.r.r.r.r.r.O.r.r.R.r.D.r.r.R.R.R.r.r.O.`.t.`.D.`.t.t.z.z.z.C.p.,+'+M.L.|+Q.L.^+U.[.[.( [ : 6 -.z E P L 7+7+7+m.m.a.9.a.a.4.L L =.E E E F K G Q K I B B E B B 4.@.6.@.5.l.g.l.&.I G Q Q @.W 4.4.4.K 4.4.5.7.@.4.4.4.4.=.B E =.6+6+7+m.6.7+6+6+6+5+5+5+6+7+4.6.K C C z y y B C y B E q d J 2 N - ,.n.r 0 -.0 0 ",
"0 0 0 0 0 0 0 0 0 0 0 0 0 0 0 0 0 0 0 0 0 0 0 0 0 0 0 0 0 0 0 0 0 0 0 0 0 0 0 0 0 0 0 0 0 0 0 0 0 0 0 0 0 0 0 0 0 0 0 0 0 0 0 0 0 0 0 0 0 0 0 0 0 0 0 0 0 0 0 0 0 0 0 0 0 0 0 0 0 0 0 0 0 0 0 0 0 0 0 0 0 0 0 0 0 0 0 0 0 0 0 0 0 0 0 0 0 0 0 0 0 0 0 0 0 0 0 0 0 0 0 0 0 0 0 0 0 0 0 0 0 0 0 0 0 0 0 0 0 0 0 0 0 0 0 0 0 0 0 0 0 0 0 0 0 0 0 0 0 0 0 0 0 0 0 N q.z.C.C.u.C.u.u.u.u.u.C.u.u.u.u.u.u.p.w.p.p.C.u.u.u.u.C.u.C.C.C.q.q.q.B.z.B.B.t.t.t.B.t.t.B.t.t.t.t.t.t.`.`.`.D.D.D.r.r.O.r.O.G.O.O.G.s.G.G.G.G.O.G.G.G.G.G.G.G.G.G.s.G.s.G.G.s.G.G.O.O.G.O.O.O.O.r.D.`.B.B.z.q.C.C.p.J.J.;+,+,+'+)+{+N H G S S H F Q Q v.s.G.G.G.O.r.O.O.O.G.G.r.O.G.G.G.G.G.G.O.R.r.r.r.r.`.`.D.D.D.D.D.r.r.D.t.`.R.r.D.`.`.`.`.D.D.`.D.R.D.`.t.`.R.r.r.r.r.O.O.r.r.O.r.O.O.r.D.R.`.`.`.r.r.r.r.D.R.R.r.R.r.r.r.`.`.t.t.t.B.z.u.;+'+)+^+^+o.^+:+Z.Q.#+1 D 1 9 t y z y 4.M =.P 4.=.4.6.4.a.L L =.4.B E I K 4.F 6.K @.B L =.E 4.@.@.K &.7.l.W I F I I I I Q Y a.=.K W 5.5.<.l.9.6.9.K K F @.a.6+6+6+m.9.m.6+6+6+5+5+6+4+7+L 7+6.K C z B y y z C y L E z z x j b 0.>.*     r 0 0 ",
"0 0 0 0 0 0 0 0 0 0 0 0 0 0 0 0 0 0 0 0 0 0 0 0 0 0 0 0 0 0 0 0 0 0 0 0 0 0 0 0 0 0 0 0 0 0 0 0 0 0 0 0 0 0 0 0 0 0 0 0 0 0 0 0 0 0 0 0 0 0 0 0 0 0 0 0 0 0 0 0 0 0 0 0 0 0 0 0 0 0 0 0 0 0 0 0 0 0 0 0 0 0 0 0 0 0 0 0 0 0 0 0 0 0 0 0 0 0 0 0 0 0 0 0 0 0 0 0 0 0 0 0 0 0 0 0 0 0 0 0 0 0 0 0 0 0 0 0 0 0 0 0 0 0 0 0 0 0 0 0 0 0 0 0 0 0 0 0 0 0 0 0 0 0 N q.q.C.u.u.u.u.p.p.u.u.C.C.u.u.C.C.C.u.p.w.w.p.u.u.p.p.u.p.u.u.u.C.q.q.z.z.B.B.B.B.B.B.B.t.B.B.B.B.t.B.t.t.t.`.D.`.`.D.r.D.r.r.r.r.O.O.G.G.G.O.O.G.O.O.G.G.G.G.G.G.s.G.G.s.G.s.s.G.O.G.O.O.G.G.G.O.O.O.D.`.`.`.B.z.C.u.p.w.;+;+;+,+'+)+{+{+g G Q I H E K 3+G.G.G.O.r.O.D.r.r.O.O.O.O.O.R.R.G.G.O.r.`.D.D.r.O.r.t.`.D.r.r.R.r.O.D.`.D.r.`.`.D.D.D.t.D.`.t.`.D.`.`.`.`.D.r.D.r.r.O.r.r.r.r.r.r.R.r.r.R.D.`.r.O.O.r.r.O.r.D.D.r.r.O.O.O.D.R.D.t.B.q.u.;+,+,+)+8+J.^+:+N.Y.Y.%+++W.e._ u s C z =.L =.L =.7+m.a.m.a.L =.L L E E E L 4.K K @.=.B =.P E W K K W &.@.K E F K F G Q W W X a.9.6.Z <.%.7.7.%.5.5.7.l.8.5.6+5+4.a.6.5.6.5+M 6+5+7+5+4+6+K L 6.F B z C C C y y y L E B z u k 2 0.- ,.  8 7 -.0 ",
"0 0 0 0 0 0 0 0 0 0 0 0 0 0 0 0 0 0 0 0 0 0 0 0 0 0 0 0 0 0 0 0 0 0 0 0 0 0 0 0 0 0 0 0 0 0 0 0 0 0 0 0 0 0 0 0 0 0 0 0 0 0 0 0 0 0 0 0 0 0 0 0 0 0 0 0 0 0 0 0 0 0 0 0 0 0 0 0 0 0 0 0 0 0 0 0 0 0 0 0 0 0 0 0 0 0 0 0 0 0 0 0 0 0 0 0 0 0 0 0 0 0 0 0 0 0 0 0 0 0 0 0 0 0 0 0 0 0 0 0 0 0 0 0 0 0 0 0 0 0 0 0 0 0 0 0 0 0 0 0 0 0 0 0 0 0 0 0 0 0 0 0 0 g q.z.C.C.u.p.u.u.u.u.u.p.u.C.C.C.C.C.C.u.p.p.u.u.u.u.u.u.p.p.u.C.u.C.q.q.z.z.z.B.B.z.z.B.B.z.B.B.B.B.B.B.B.B.t.`.`.t.`.D.D.r.r.r.O.r.O.O.G.G.G.O.r.O.O.O.G.G.G.O.G.G.G.G.s.G.s.s.G.G.G.G.G.G.G.G.O.r.O.O.D.D.D.`.B.C.u.w.w.J.,+,+;+'+'+)+{+{+P.j V T F E B E.O.O.G.r.r.D.r.D.D.r.r.R.D.D.R.O.O.r.`.t.t.t.`.O.r.R.`.`.r.`.r.r.O.D.D.D.D.`.`.D.`.t.B.B.B.t.`.`.`.`.`.`.D.D.r.r.D.r.r.r.R.O.R.`.`.R.r.r.r.D.D.r.O.r.r.r.O.r.O.r.D.r.r.r.r.`.`.`.t.z.q.C.u.u.w.w.w.]+)+(+ + +M.V.N.@+_ } 8 k f w B E L P =.P L 7+4.7+4.=.L L K F z z 4.@.4.W =.=.6.P @.W 4.@.K @.F F F F F Q V V 5.V W @.7.5.X %.l.5.Z %.6.@.W X l.9.7+6.6.a.5.5.9.7+=.5+M 5+4+6+4.=.7+K K L B C y C y y P 4.4.B P y k k ( 3 #.#.j 0 7 0 ",
"0 0 0 0 0 0 0 0 0 0 0 0 0 0 0 0 0 0 0 0 0 0 0 0 0 0 0 0 0 0 0 0 0 0 0 0 0 0 0 0 0 0 0 0 0 0 0 0 0 0 0 0 0 0 0 0 0 0 0 0 0 0 0 0 0 0 0 0 0 0 0 0 0 0 0 0 0 0 0 0 0 0 0 0 0 0 0 0 0 0 0 0 0 0 0 0 0 0 0 0 0 0 0 0 0 0 0 0 0 0 0 0 0 0 0 0 0 0 0 0 0 0 0 0 0 0 0 0 0 0 0 0 0 0 0 0 0 0 0 0 0 0 0 0 0 0 0 0 0 0 0 0 0 0 0 0 0 0 0 0 0 0 0 0 0 0 0 0 0 0 0 0 k E.q.C.C.u.u.u.p.u.p.u.u.u.C.u.C.u.C.u.u.u.p.u.u.u.u.u.u.u.u.u.u.C.C.C.C.q.q.q.z.z.B.z.z.B.z.z.B.B.B.B.B.B.t.t.t.t.`.`.D.D.r.r.r.r.r.r.r.O.G.G.O.r.r.O.O.r.r.O.O.G.G.O.O.s.s.s.s.G.G.O.G.G.G.G.G.G.G.O.O.O.O.D.t.z.u.J.,+o.o.)+)+)+'+'+'+)+{+8+8+V.P T F w 2+O.r.R.`.B.`.D.`.`.`.D.D.`.D.R.r.`.t.B.z.q.z.B.t.r.r.D.`.R.R.r.r.r.O.r.r.t.D.`.t.r.`.B.B.`.t.D.R.D.R.r.`.D.R.`.r.D.D.D.r.r.r.D.R.R.D.D.O.R.r.r.r.O.R.D.R.r.r.r.O.O.G.R.r.D.t.D.r.r.`.D.t.t.z.u.z.p.,+J.)+o.'+;+p.P. +! _ ( 1 } f v B F C E L L P M 4.=.4.L L L 4.=.B C L 9.@.K 6.K L =.@.F K @.4.=.E W I K W V W W 5.5.Z Z 5.%.8.7.5.9.6.a.4.a.9.W X 5.a.9.a.9.5.9.m.=.7+6+7+4+5+a.W K 4.K 4.L =.z C C y y M P M P L O s k b ~ *   8 -.0 0 ",
"0 0 0 0 0 0 0 0 0 0 0 0 0 0 0 0 0 0 0 0 0 0 0 0 0 0 0 0 0 0 0 0 0 0 0 0 0 0 0 0 0 0 0 0 0 0 0 0 0 0 0 0 0 0 0 0 0 0 0 0 0 0 0 0 0 0 0 0 0 0 0 0 0 0 0 0 0 0 0 0 0 0 0 0 0 0 0 0 0 0 0 0 0 0 0 0 0 0 0 0 0 0 0 0 0 0 0 0 0 0 0 0 0 0 0 0 0 0 0 0 0 0 0 0 0 0 0 0 0 0 0 0 0 0 0 0 0 0 0 0 0 0 0 0 0 0 0 0 0 0 0 0 0 0 0 0 0 0 0 0 0 0 0 0 0 0 0 0 0 0 0 J K.q.C.u.u.u.p.p.p.p.p.u.u.u.C.u.u.u.u.u.C.C.C.u.u.u.u.u.u.u.u.u.u.C.C.C.C.q.q.C.z.z.z.B.B.z.z.B.B.t.B.B.B.t.t.t.D.D.t.t.t.t.`.D.r.r.r.r.O.G.G.G.O.r.r.O.G.O.O.O.G.G.G.G.G.G.G.s.G.G.G.G.G.G.G.G.s.G.G.G.O.G.O.t.z.w.o.V.^+M.M.^+^+]+{+)+'+)+{+{+8+8+= F I I v.R.t.t.B.z.t.B.t.B.t.t.B.`.`.t.B.B.q.p.w.p.p.q.B.D.r.r.D.r.O.r.r.D.D.D.t.t.`.t.R.D.t.B.t.`.t.t.`.D.`.t.t.r.`.D.D.R.D.R.r.O.r.D.r.r.`.D.r.R.O.O.R.r.r.R.R.D.r.`.`.r.r.D.r.O.r.R.R.r.t.t.t.t.z.z.u.p.u.;+;+;+w.'+V. +[.T.++d.D ^ t 7 v E =.C =.L L M M m.P P L =.4.E =.L P 6.l.W 6.I E K F K @.F =.F Q K K W &.5.7.7.9.5.7.%.%.%.%.5.9.7.5.6.6.@.@.9.5.9.a.6.W 9.a.9.M 7+5+4+2+4+a.5.Z @.4.K 4.=.=.C C y C y P O M 5+M L R j ( ~ ,.      7 0 ",
"0 0 0 0 0 0 0 0 0 0 0 0 0 0 0 0 0 0 0 0 0 0 0 0 0 0 0 0 0 0 0 0 0 0 0 0 0 0 0 0 0 0 0 0 0 0 0 0 0 0 0 0 0 0 0 0 0 0 0 0 0 0 0 0 0 0 0 0 0 0 0 0 0 0 0 0 0 0 0 0 0 0 0 0 0 0 0 0 0 0 0 0 0 0 0 0 0 0 0 0 0 0 0 0 0 0 0 0 0 0 0 0 0 0 0 0 0 0 0 0 0 0 0 0 0 0 0 0 0 0 0 0 0 0 0 0 0 0 0 0 0 0 0 0 0 0 0 0 0 0 0 0 0 0 0 0 0 0 0 0 0 0 0 0 0 0 0 0 0 0 7 A.z.q.u.u.p.p.p.p.p.p.p.p.p.u.p.u.u.u.u.u.C.u.u.C.u.u.u.u.u.u.u.C.C.C.u.C.C.q.q.q.z.q.z.B.q.B.z.B.t.t.B.t.t.t.t.t.t.t.t.t.`.t.t.`.`.D.r.r.O.O.O.O.r.r.O.G.G.O.O.O.G.G.G.G.O.G.G.G.G.G.G.G.s.G.G.G.s.G.s.G.O.r.t.q.w.o.M.:+L.L.[+:+:+(+b+8+{+)+{+8+8+8+8+N I M K.`.B.z.z.z.z.z.z.z.z.z.q.z.z.z.q.u.w.;+'+;+u.B.`.D.D.`.r.r.r.r.r.`.D.`.`.`.t.`.`.t.t.t.`.R.`.`.`.t.B.z.`.D.`.`.r.D.r.r.r.R.r.r.D.D.D.R.r.r.r.D.R.r.r.D.R.R.D.r.`.O.O.r.r.D.D.R.`.t.t.`.t.t.B.B.t.B.z.B.C.C.;+P.^+ +^+M.$+W.%+) ( } e E K C E F L M O m.L P L P 4.=.L =.L K 5.7.W I @.I F 4.@.B F K I I ..W 7.7.7.l.l.l.%.7.l.l.7.l.5.9.a.K @.W 6.9.6.6.6.6.W a.4.7+6+6+4+5+1.9.9.7.9.@.a.6.K B 4.z C s B C y O M M M L s k 2 - ,.      j 0 ",
"0 0 0 0 0 0 0 0 0 0 0 0 0 0 0 0 0 0 0 0 0 0 0 0 0 0 0 0 0 0 0 0 0 0 0 0 0 0 0 0 0 0 0 0 0 0 0 0 0 0 0 0 0 0 0 0 0 0 0 0 0 0 0 0 0 0 0 0 0 0 0 0 0 0 0 0 0 0 0 0 0 0 0 0 0 0 0 0 0 0 0 0 0 0 0 0 0 0 0 0 0 0 0 0 0 0 0 0 0 0 0 0 0 0 0 0 0 0 0 0 0 0 0 0 0 0 0 0 0 0 0 0 0 0 0 0 0 0 0 0 0 0 0 0 0 0 0 0 0 0 0 0 0 0 0 0 0 0 0 0 0 0 0 0 0 0 0 0 0 0 A.-+q.u.p.p.p.p.p.w.w.p.p.p.w.p.p.p.p.u.u.u.u.u.u.u.u.u.p.p.u.u.C.C.C.C.q.q.q.q.q.q.z.z.z.B.z.B.B.t.t.B.B.t.t.t.t.t.t.t.t.`.`.t.t.`.`.`.D.r.O.O.O.r.r.r.O.O.G.G.G.G.G.G.O.O.G.G.G.G.G.G.G.G.G.G.s.G.G.G.O.r.r.t.C.J.P.M.L.Q.Q.Q.|+|+[+[+(+^+8+{+{+]+]+b+^+^+J |.t.B.z.z.z.q.q.u.C.q.q.u.p.u.u.p.J.,+'+8+{+,+C.t.t.t.B.D.r.O.r.r.t.t.`.`.t.`.`.D.D.`.`.`.D.`.`.t.B.z.z.`.`.D.`.D.R.`.D.r.O.O.O.r.D.r.r.R.r.O.r.D.r.r.D.D.O.r.t.R.R.r.r.D.r.r.r.r.t.B.z.t.`.`.D.`.D.B.z.z.q.C.;+w.u.p.M.U.:+Q.] ! d.3 f C E =.L E =.P P y 4.z P L L 4.4.=.=.6.@.@.@.Q I F K K F B F F F Q W 7.5.5.9.9.9.7.%.&.&.&.5.@.a.m.4.4.6.W 5.5.a.a.4.a.9.a.m.7+7+6+7+6+7+6.4.7+a.4.4.6.K F =.B z e y z C y L L =.K s k b 0., ,.>.r 0 7 ",
"0 0 0 0 0 0 0 0 0 0 0 0 0 0 0 0 0 0 0 0 0 0 0 0 0 0 0 0 0 0 0 0 0 0 0 0 0 0 0 0 0 0 0 0 0 0 0 0 0 0 0 0 0 0 0 0 0 0 0 0 0 0 0 0 0 0 0 0 0 0 0 0 0 0 0 0 0 0 0 0 0 0 0 0 0 0 0 0 0 0 0 0 0 0 0 0 0 0 0 0 0 0 0 0 0 0 0 0 0 0 0 0 0 0 0 0 0 0 0 0 0 0 0 0 0 0 0 0 0 0 0 0 0 0 0 0 0 0 0 0 0 0 0 0 0 0 0 0 0 0 0 0 0 0 0 0 0 0 0 0 0 0 0 0 0 0 0 0 0 g -+F.u.u.p.p.w.w.J.J.w.w.p.p.u.p.u.p.u.u.u.u.u.u.u.u.u.u.u.C.u.u.u.C.C.C.z.z.z.z.z.q.z.B.B.B.B.t.t.t.t.t.t.t.`.`.`.t.t.t.t.t.t.`.`.`.D.D.D.r.O.r.O.O.r.O.O.O.O.G.O.O.G.r.r.r.G.O.O.G.O.G.G.G.G.G.G.G.O.O.O.r.`.q.w.o.M.N.Y.S.S.S.Y.|+|+[+:+(+b+]+8+8+b+^+^+^+* E.q.C.q.C.C.C.C.p.C.u.w.;+;+;+J.,+{+]+_+_+_+,+z.t.t.t.t.`.D.D.R.`.t.t.`.t.`.`.`.`.`.R.r.`.B.t.t.z.z.B.B.D.`.`.`.r.r.`.R.r.r.D.r.D.R.r.r.r.O.O.r.O.r.D.R.R.r.r.R.R.r.r.r.R.r.r.R.D.R.`.t.t.`.t.D.`.t.B.z.C.u.p.C.q.p.,+'+P.N.++U.++Z.T.!.z B E =.E 4.B P y E z y L L a.9.@.4.6.K K W @.I F Q K B F F F Q @.6.6.W %.5.9.@.5.Z l.Z X %.7.7.9.@.6.@.9.5.l.4.m.a.m.9.m.7+7+m.5+6+6+7+6+7+7+m.m.a.4.4.=.4.E z B y y C M M 7+M M u : 2 A 3 ,     8 0 ",
"0 0 0 0 0 0 0 0 0 0 0 0 0 0 0 0 0 0 0 0 0 0 0 0 0 0 0 0 0 0 0 0 0 0 0 0 0 0 0 0 0 0 0 0 0 0 0 0 0 0 0 0 0 0 0 0 0 0 0 0 0 0 0 0 0 0 0 0 0 0 0 0 0 0 0 0 0 0 0 0 0 0 0 0 0 0 0 0 0 0 0 0 0 0 0 0 0 0 0 0 0 0 0 0 0 0 0 0 0 0 0 0 0 0 0 0 0 0 0 0 0 0 0 0 0 0 0 0 0 0 0 0 0 0 0 0 0 0 0 0 0 0 0 0 0 0 0 0 0 0 0 0 0 0 0 0 0 0 0 0 0 0 0 0 0 0 0 0 j K.F.F.u.p.w.w.w.J.J.J.J.w.w.p.u.u.p.p.p.u.u.u.u.u.u.C.u.u.u.u.C.C.q.C.C.q.z.z.B.B.B.B.z.z.t.t.`.t.`.`.`.D.`.`.D.D.D.D.`.`.`.D.D.r.D.D.`.`.D.r.r.r.O.O.O.O.O.O.O.O.G.G.r.r.O.O.O.G.G.O.O.O.O.O.G.G.O.O.O.O.r.D.z.u.o.M.N.Y..+=+=+.+S.Y.|+|+[+:+_+_+b+]+^+^+^+^+o.q.q.C.C.p.w.p.w.p.p.w.;+,+'+'+)+8+_+:+[+[+(+p.z.t.t.z.B.`.`.D.t.D.`.t.t.t.`.`.t.t.t.t.t.z.B.B.z.z.z.z.`.D.`.`.t.`.`.`.D.D.`.`.`.D.`.D.O.r.r.O.O.O.D.r.O.O.O.O.R.D.D.O.O.O.R.r.r.r.r.r.D.`.t.t.D.`.t.B.z.C.u.C.u.;+P.P.M.U.^+]+(+N.U.T._ q B C =.E 4.4.P P C B z 4.4.a.5.5.7.6.W @.9.@.Q I I I B E K @.K @.@.5.7.5.l.8.%.&.5.Z c.<.9.6.9.9.W 7.7.5.5.9.4.7+4.4.6.a.6+m.7+M 7+7+7+m.7+7+6+7+7+m.=.4.=.=.B B y P P P L L m.7+u k 2 1 3     t 0 0 ",
"0 0 0 0 0 0 0 0 0 0 0 0 0 0 0 0 0 0 0 0 0 0 0 0 0 0 0 0 0 0 0 0 0 0 0 0 0 0 0 0 0 0 0 0 0 0 0 0 0 0 0 0 0 0 0 0 0 0 0 0 0 0 0 0 0 0 0 0 0 0 0 0 0 0 0 0 0 0 0 0 0 0 0 0 0 0 0 0 0 0 0 0 0 0 0 0 0 0 0 0 0 0 0 0 0 0 0 0 0 0 0 0 0 0 0 0 0 0 0 0 0 0 0 0 0 0 0 0 0 0 0 0 0 0 0 0 0 0 0 0 0 0 0 0 0 0 0 0 0 0 0 0 0 0 0 0 0 0 0 0 0 0 0 0 0 0 0 f H.-+F.F.p.p.J.J.J.J.J.w.w.w.p.p.p.p.u.u.u.u.C.C.u.C.C.C.C.u.C.q.q.q.q.q.q.z.B.t.B.B.B.B.B.t.t.`.`.D.r.r.r.D.D.D.D.r.r.r.r.D.D.r.D.r.D.D.r.D.r.r.r.r.O.O.O.O.O.r.O.O.O.O.O.r.r.r.r.O.O.O.r.O.O.G.G.G.G.O.O.r.R.t.u.o.M.N.Y..+*+*+>+*+=+S.Q.|+[+:+(+(+_+^+^+^+M.M.;+q.C.u.p.J.J.w.J.;+;+;+,+'+)+)+]+_+[+|+Q.Y.:+q.B.t.t.B.t.t.B.t.t.t.B.B.t.t.t.t.t.t.t.B.q.q.q.q.q.q.z.`.D.t.`.`.`.`.`.t.D.D.R.D.D.R.`.r.O.O.R.R.r.r.r.O.G.G.O.O.r.r.R.r.r.r.D.R.`.`.`.t.D.D.t.t.`.B.z.t.B.z.z.C.u.u.p.J.;+'+)+)+8+:+ +N.( d z E z E E K L P B z L =.9.K @.W 6.W W 7.&.Q K I K F B E I G @.@.5.&.W W V 5.l.<.l.%.Z Z <.l.5.7.%.l.5.@.6.@.=.6+L 4.6.a.M 7+5+7+m.a.a.4.P =.7+m.7+O M 7+M 4.z z y y L M O L 7+O j k _ ] 0.    k f 0 ",
"0 0 0 0 0 0 0 0 0 0 0 0 0 0 0 0 0 0 0 0 0 0 0 0 0 0 0 0 0 0 0 0 0 0 0 0 0 0 0 0 0 0 0 0 0 0 0 0 0 0 0 0 0 0 0 0 0 0 0 0 0 0 0 0 0 0 0 0 0 0 0 0 0 0 0 0 0 0 0 0 0 0 0 0 0 0 0 0 0 0 0 0 0 0 0 0 0 0 0 0 0 0 0 0 0 0 0 0 0 0 0 0 0 0 0 0 0 0 0 0 0 0 0 0 0 0 0 0 0 0 0 0 0 0 0 0 0 0 0 0 0 0 0 0 0 0 0 0 0 0 0 0 0 0 0 0 0 0 0 0 0 0 0 0 0 0 0 >.-+F.u.u.w.J.J.J.J.J.J.w.w.p.p.p.p.u.u.C.C.q.C.C.C.q.C.q.q.C.q.q.z.q.z.z.z.B.B.t.t.B.t.t.t.D.D.D.r.r.O.O.r.r.r.r.r.r.O.O.O.O.O.O.O.O.r.r.r.O.r.O.r.O.G.G.G.G.G.O.O.O.O.G.O.r.r.r.O.O.r.D.r.r.O.O.O.G.O.r.D.t.z.u.o.M.L.Y.=+>+/ 5 5 / e.=+Q.|+[+:+:+(+(+(+(+M. +M.q.q.C.p.w.J.J.w.;+,+,+)+'+)+{+]+_+[+|+Q.S.=+P.q.t.B.z.t.t.z.B.B.z.B.t.`.t.R.B.z.B.B.z.C.u.u.C.u.u.C.B.t.t.B.`.t.D.D.D.D.r.r.r.`.D.R.r.r.r.R.`.R.r.G.O.G.O.O.O.r.D.D.r.r.r.r.r.R.`.t.t.D.t.`.t.B.t.t.t.t.t.B.B.B.q.C.C.C.w.w.J.;+]+^+^+N.0.k.z w E C =.=.E C z L K 4.@.K I 6.9.&.7.8.V Q I F F E B K W 5.7.&.5.9.5.9.9.7.X %.%.%.<.7.%.l.5.5.Z 8.5.a.m.6.m.6+7+6.4.m.M P 6+5+m.a.4.4.O m.5.6.m.7+M 7+7+L L B z y P 4.L O R R J l _ ]       -.0 0 ",
"0 0 0 0 0 0 0 0 0 0 0 0 0 0 0 0 0 0 0 0 0 0 0 0 0 0 0 0 0 0 0 0 0 0 0 0 0 0 0 0 0 0 0 0 0 0 0 0 0 0 0 0 0 0 0 0 0 0 0 0 0 0 0 0 0 0 0 0 0 0 0 0 0 0 0 0 0 0 0 0 0 0 0 0 0 0 0 0 0 0 0 0 0 0 0 0 0 0 0 0 0 0 0 0 0 0 0 0 0 0 0 0 0 0 0 0 0 0 0 0 0 0 0 0 0 0 0 0 0 0 0 0 0 0 0 0 0 0 0 0 0 0 0 0 0 0 0 0 0 0 0 0 0 0 0 0 0 0 0 0 0 0 0 0 0 0 k K.-+F.u.p.w.J.J.J.J.;+w.w.w.p.p.u.u.C.C.q.q.q.q.q.q.z.z.z.q.z.q.z.z.z.z.B.B.B.B.t.t.B.t.t.`.D.D.D.O.O.O.O.G.O.O.O.G.G.G.G.G.G.G.G.O.G.O.O.G.G.G.G.O.O.G.G.G.s.G.G.O.O.G.G.O.O.r.r.O.r.r.r.r.r.O.r.R.R.R.`.z.C.w.)+M.W.S.*+&+5 c c c f.| *+Y.[+[+:+:+:+:+:+ + + +P.z.q.u.w.p.J.J.;+'+'+'+)+{+8+^+(+:+|+Q.S.>+>+J.z.B.z.B.B.z.q.z.q.z.B.B.B.B.B.B.z.z.q.C.C.C.C.C.C.C.q.B.t.B.t.t.D.D.R.O.r.R.R.R.r.R.r.r.R.D.r.R.D.r.R.r.O.O.O.O.O.G.r.r.r.r.D.R.R.R.r.`.D.`.B.z.B.t.t.t.B.B.z.B.q.q.C.C.C.C.p.J.)+_+{+^+U.' d z z E E z C P z I F 9.@.I I @.9.W &.8.&.W I G E F K K &.%.5.9.9.9.a.a.9.9.7.7.5.%.l.Z l.7.l.8.7.8.7.9.6.6.6.m.M 6+9.4.m.M L 4.4.4.a.4.=.M 7+a.m.6.4.4.=.L M L B B C P E =.P P O u j b ~ -     7 0 0 ",
"0 0 0 0 0 0 0 0 0 0 0 0 0 0 0 0 0 0 0 0 0 0 0 0 0 0 0 0 0 0 0 0 0 0 0 0 0 0 0 0 0 0 0 0 0 0 0 0 0 0 0 0 0 0 0 0 0 0 0 0 0 0 0 0 0 0 0 0 0 0 0 0 0 0 0 0 0 0 0 0 0 0 0 0 0 0 0 0 0 0 0 0 0 0 0 0 0 0 0 0 0 0 0 0 0 0 0 0 0 0 0 0 0 0 0 0 0 0 0 0 0 0 0 0 0 0 0 0 0 0 0 0 0 0 0 0 0 0 0 0 0 0 0 0 0 0 0 0 0 0 0 0 0 0 0 0 0 0 0 0 0 0 0 0 0 7 K.-+F.F.u.w.J.J.;+J.;+J.w.w.p.u.C.C.C.C.q.z.q.q.z.z.z.z.z.z.z.q.z.z.z.B.z.B.B.t.t.t.t.t.t.`.D.D.`.D.r.r.r.O.O.O.G.O.G.G.G.G.s.G.G.G.G.G.G.G.G.G.G.O.G.O.G.G.G.G.G.O.O.O.G.O.O.r.R.R.r.O.R.R.O.R.O.R.R.`.B.q.p.;+P.:+W.S.*+&+5 c }.B+o c 5 e.Z.L.:+(+:+(+:+:+:+L.U.;+q.q.w.w.J.;+'+)+{+{+{+P.P.^+^+:+[+|+S.=+>+Y.u.z.z.B.B.z.z.q.z.q.z.B.z.q.z.z.z.q.C.p.p.p.p.C.C.q.q.q.B.B.t.`.t.`.D.D.r.R.r.r.r.r.r.R.R.`.`.`.R.r.O.s.O.O.G.O.G.O.O.R.R.O.O.r.r.r.O.O.r.D.`.D.`.t.B.t.t.B.z.q.z.q.C.C.p.p.w.J.)+8+{+{+b+M.! f C C E C C C B =.K K @.@.F K @.W %.7.X G Q F H B F E W 5.@.a.4.L =.a.9.6.9.5.7.7.7.8.Z 8.8.8.5.9.9.6.6.K =.6.m.M L @.a.L O E 9.@.5.K E =.O M O L L m.a.@.4.4.=.L B B y L 7+M O x l g b D       0 0 0 ",
"0 0 0 0 0 0 0 0 0 0 0 0 0 0 0 0 0 0 0 0 0 0 0 0 0 0 0 0 0 0 0 0 0 0 0 0 0 0 0 0 0 0 0 0 0 0 0 0 0 0 0 0 0 0 0 0 0 0 0 0 0 0 0 0 0 0 0 0 0 0 0 0 0 0 0 0 0 0 0 0 0 0 0 0 0 0 0 0 0 0 0 0 0 0 0 0 0 0 0 0 0 0 0 0 0 0 0 0 0 0 0 0 0 0 0 0 0 0 0 0 0 0 0 0 0 0 0 0 0 0 0 0 0 0 0 0 0 0 0 0 0 0 0 0 0 0 0 0 0 0 0 0 0 0 0 0 0 0 0 0 0 0 0 0 0 n.-+-+F.p.p.J.J.J.J.;+J.w.p.u.C.q.C.q.q.z.z.z.z.z.z.z.z.q.z.q.q.q.q.z.z.z.z.z.B.B.B.B.B.B.t.t.`.t.t.D.t.t.`.D.r.O.r.r.r.O.G.G.O.O.O.G.G.G.G.G.G.G.G.O.O.O.G.G.O.O.O.O.O.O.O.G.O.O.O.R.R.O.R.R.R.`.`.B.z.q.p.,+{+M.L.Q..+*+&+5 c *.;.;.].o n 1 Z.L.(+_+(+:+:+L.L.L.L.z.C.u.w.w.;+'+'+)+{+8+P.^+^+M. +L.|+Y..+=+!+L.u.q.z.z.z.z.C.C.u.C.C.q.q.q.q.C.q.C.p.w.J.w.p.C.C.q.q.z.B.t.`.t.B.t.R.R.D.`.r.r.`.`.`.`.`.R.t.`.r.s.G.s.O.O.O.O.O.O.O.r.r.G.R.D.r.r.O.O.D.D.`.t.t.z.z.z.B.B.z.B.B.q.C.C.u.J.,+,+'+'+)+8+b+ +! r C y B z y P B z E I @.K I Q @.V 9.&.G H K F E K @.9.9.K B B =.@.9.6.a.6.9.5.5.7.7.X 7.7.%.Z 9.a.a.9.9.a.6.K @.P m.a.4.L y F Q 5.7.K L =.M a.=.L M P 4.4.4.=.=.L =.B C O 6+6+M 1./.l b A <     0 0 0 ",
"0 0 0 0 0 0 0 0 0 0 0 0 0 0 0 0 0 0 0 0 0 0 0 0 0 0 0 0 0 0 0 0 0 0 0 0 0 0 0 0 0 0 0 0 0 0 0 0 0 0 0 0 0 0 0 0 0 0 0 0 0 0 0 0 0 0 0 0 0 0 0 0 0 0 0 0 0 0 0 0 0 0 0 0 0 0 0 0 0 0 0 0 0 0 0 0 0 0 0 0 0 0 0 0 0 0 0 0 0 0 0 0 0 0 0 0 0 0 0 0 0 0 0 0 0 0 0 0 0 0 0 0 0 0 0 0 0 0 0 0 0 0 0 0 0 0 0 0 0 0 0 0 0 0 0 0 0 0 0 0 0 0 0 0 J K.-+F.u.p.w.J.J.J.J.;+J.p.u.C.q.q.q.z.z.z.z.q.z.B.z.z.q.q.q.C.C.C.q.q.z.q.C.q.q.q.q.C.q.u.C.q.q.C.q.q.q.q.z.z.B.t.B.B.t.`.`.D.r.R.R.R.R.O.R.O.O.O.O.O.R.O.O.O.O.O.O.O.O.O.R.R.r.R.R.D.`.`.t.t.B.q.C.u.J.,+{+^+U.W.S.=+*+&+| ~.].X T T +.b.0 ^ %+U.^+^+_+:+:+L.L.N.V.B.q.p.p.J.;+,+,+'+{+]+^+^+(+(+:+[+Q.S.=+>+!+o.w.C.C.C.C.u.u.w.w.p.u.C.u.u.C.C.C.u.p.;+'+;+p.u.u.z.z.z.B.t.t.D.`.R.D.r.`.D.D.r.`.R.`.t.`.`.r.R.O.O.O.G.O.O.G.O.r.R.r.R.r.r.O.r.r.O.O.r.O.r.t.t.B.t.B.t.t.B.z.z.z.z.C.u.C.u.p.w.J.;+'+8+b+M.$+r e s z B y C B =.K K E @.@.6.W Q W I E I F I K W @.V K z F @.W K K K @.9.9.a.5.l.7.7.l.7.<.8.7.%.7.5.@.@.a.6.9.7+K =.K P y F 9.&.&.K M P M m.4.E B P 7+=.m.=.L L E B P M M O O /./.3.D 1 ~     7 0 0 ",
"0 0 0 0 0 0 0 0 0 0 0 0 0 0 0 0 0 0 0 0 0 0 0 0 0 0 0 0 0 0 0 0 0 0 0 0 0 0 0 0 0 0 0 0 0 0 0 0 0 0 0 0 0 0 0 0 0 0 0 0 0 0 0 0 0 0 0 0 0 0 0 0 0 0 0 0 0 0 0 0 0 0 0 0 0 0 0 0 0 0 0 0 0 0 0 0 0 0 0 0 0 0 0 0 0 0 0 0 0 0 0 0 0 0 0 0 0 0 0 0 0 0 0 0 0 0 0 0 0 0 0 0 0 0 0 0 0 0 0 0 0 0 0 0 0 0 0 0 0 0 0 0 0 0 0 0 0 0 0 0 0 0 0 -.v.-+-+F.p.w.J.w.w.J.w.w.u.C.q.z.q.z.z.q.z.z.z.z.z.z.z.q.C.C.C.C.u.u.w.w.w.w.J.;+;+;+,+,+'+)+)+)+'+)+'+)+)+'+,+;+,+,+,+,+;+J.w.u.u.C.z.B.t.t.t.`.`.`.`.D.R.R.R.`.`.`.`.`.`.`.t.B.B.B.B.z.q.q.C.u.w.J.,+)+P.M.:+N.Y.=+*+>+&+9 k.]...I I G +.+._.'.! U.P.P.b+(+:+L.N.W.J.B.C.u.J.;+,+,+;+'+)+P.^+M.:+:+L.|+Y.S.=+>+.+;+p.u.C.u.p.w.w.;+w.p.p.p.p.w.J.p.w.J.;+{+{+'+w.C.z.B.z.q.q.B.D.r.R.`.`.`.D.r.`.D.`.D.t.t.`.R.r.r.r.r.O.G.G.O.G.O.r.R.R.r.O.r.r.r.O.O.r.D.r.D.t.t.B.z.B.B.t.B.z.z.B.z.C.C.C.u.p.w.J.,+)+8+b+M.' !.s y q v C E I K F E K 9.a.W W W ..F I I K W 9.W @.F B I W @.4.K K K K 4.6.9.a.9.5.l.W 5.l.l.l.l.7.9.l.7.6.9.W @.F =.K y y F I 7.Q E s P L a.9.@.K E L P M m.L L y L P L M s 1.R 2+3.l D [.      6 0 ",
"0 0 0 0 0 0 0 0 0 0 0 0 0 0 0 0 0 0 0 0 0 0 0 0 0 0 0 0 0 0 0 0 0 0 0 0 0 0 0 0 0 0 0 0 0 0 0 0 0 0 0 0 0 0 0 0 0 0 0 0 0 0 0 0 0 0 0 0 0 0 0 0 0 0 0 0 0 0 0 0 0 0 0 0 0 0 0 0 0 0 0 0 0 0 0 0 0 0 0 0 0 0 0 0 0 0 0 0 0 0 0 0 0 0 0 0 0 0 0 0 0 0 0 0 0 0 0 0 0 0 0 0 0 0 0 0 0 0 0 0 0 0 0 0 0 0 0 0 0 0 0 0 0 0 0 0 0 0 0 0 0 0 0 g -+-+F.u.w.w.w.J.J.w.u.C.C.q.z.q.z.z.q.q.q.q.z.z.q.C.u.w.w.J.;+,+,+)+)+{+]+P.P.b+^+^+^+(+(+ +(+(+(+ + +:+(+(+(+M. +(+M.(+(+^+^+^+^+]+P.'+,+;+J.w.p.u.C.q.q.q.z.q.z.q.q.q.C.C.C.u.p.p.w.J.;+,+,+)+P.]+_+ +L.W.Y..+*+>+e./ t x e H K K I @.Q *.D+8 D U.P.)+]+(+:+L.N.T.B.z.C.p.J.;+,+'+'+)+P.P.^+:+ +:+N.Q.S..+*+>+W.;+w.p.p.p.w.J.;+;+J.w.J.J.w.J.J.w.,+)+{+8+8+{+w.q.B.B.z.z.B.`.r.r.t.t.`.`.`.D.D.t.t.t.t.D.R.D.R.R.R.O.r.r.O.O.G.R.O.G.O.O.O.O.O.R.R.R.R.D.R.`.t.t.B.t.t.t.B.B.z.q.z.z.C.C.u.u.p.J.;+,+)+8+b+M.#+6 s s d q F E @.F F F 5.@.Q @.W @.=.K K @.W V &.Q F F Q I 4.=.K F K K 6.K K K a.6.W Q @.W W 9.7.l.7.7.7.7.5.@.9.@.4.=.F s C F 4.W F L R P 4.4.@.9.a.6.6.6.a.a.4.4.z =.=.M M P y R 2+/.g 0.[.      0 0 ",
"0 0 0 0 0 0 0 0 0 0 0 0 0 0 0 0 0 0 0 0 0 0 0 0 0 0 0 0 0 0 0 0 0 0 0 0 0 0 0 0 0 0 0 0 0 0 0 0 0 0 0 0 0 0 0 0 0 0 0 0 0 0 0 0 0 0 0 0 0 0 0 0 0 0 0 0 0 0 0 0 0 0 0 0 0 0 0 0 0 0 0 0 0 0 0 0 0 0 0 0 0 0 0 0 0 0 0 0 0 0 0 0 0 0 0 0 0 0 0 0 0 0 0 0 0 0 0 0 0 0 0 0 0 0 0 0 0 0 0 0 0 0 0 0 0 0 0 0 0 0 0 0 0 0 0 0 0 0 0 0 0 r   -+-+-+F.w.w.p.w.p.p.C.q.q.q.z.z.q.z.q.C.C.u.C.u.u.p.J.,+)+{+P.]+b+_+(+:+:+L.L.L.N.N.N.N.W.W.W.W.W.W.W.W.Q.W.W.W.W.W.W.W.W.W.W.N.W.N.N.L.L.L.:+ +M.^+V.P.P.P.)+)+'+,+'+'+'+'+'+)+)+)+{+8+8+P.^+^+ +U.L.N.Z.$+=+e.e.&+} j j /.1.O E K 4.F K @.V *.m D T.P.o.P._+:+L.W.I.t.q.u.u.w.J.,+'+)+P.P.^+M.:+:+[+Q.Y.S..+*+&+M.;+J.J.J.;+J.;+,+;+;+J.;+;+;+J.;+,+)+8+]+_+b+{+w.q.B.z.z.B.t.t.`.t.t.t.t.D.r.D.D.`.`.`.B.t.D.r.r.O.r.r.R.O.O.R.r.O.O.G.G.G.O.r.D.R.D.r.r.D.`.`.B.B.t.t.B.B.B.t.B.z.z.q.C.C.C.u.w.J.;+'+{+]+b+M.%+n 7 y y z G Q ..I E =.W @.I I Q F K I @.V W ..&.Q F I 4.E F Q I I Q @.K K @.K =.F K 9.W %.%.9.6.9.9.@.@.@.6.@.W K F =.E s B E 4.I E C O =.4.4.4.4.a.m.a.5.6.l.@.4.B C L L L P M O /./.2 0.<       0 0 ",
"0 0 0 0 0 0 0 0 0 0 0 0 0 0 0 0 0 0 0 0 0 0 0 0 0 0 0 0 0 0 0 0 0 0 0 0 0 0 0 0 0 0 0 0 0 0 0 0 0 0 0 0 0 0 0 0 0 0 0 0 0 0 0 0 0 0 0 0 0 0 0 0 0 0 0 0 0 0 0 0 0 0 0 0 0 0 0 0 0 0 0 0 0 0 0 0 0 0 0 0 0 0 0 0 0 0 0 0 0 0 0 0 0 0 0 0 0 0 0 0 0 0 0 0 0 0 0 0 0 0 0 0 0 0 0 0 0 0 0 0 0 0 0 0 0 0 0 0 0 0 0 0 0 0 0 0 0 0 0 0 r   2.-+-+F.F.w.w.p.p.u.q.z.q.q.z.z.z.z.z.C.C.w.J.;+'+{+P.]+M. +:+U.L.N.W.Q.Q.Q.Y.Y.Y.Y.Y.$+#+#+#+.+.+.+.+.+.+.+.+.+.+.+.+d..+#+#+#+#+#+$+$+Y.Y.Y.Z.Q.Q.W.W.N.L.L.L.U. + +M.M.M.M.M.M.M.M.M. +U.U.N.N.W.Z.$+.+*+e.e.} u u /.l 2+2+/.R L 4.L L =.6.W &.s ! T.P.'+)+b+(+L.Q.h B.C.u.w.w.J.,+)+{+]+P.^+M. +L.|+Q.Y..+@+&+^ P.,+,+;+,+'+,+,+,+'+,+,+'+'+,+'+{+8+]+_+(+:+_+{+p.q.B.z.B.t.B.B.t.B.B.D.`.D.`.`.t.`.R.`.t.`.t.`.t.t.D.t.t.D.R.R.r.O.G.O.R.R.R.r.r.r.D.R.`.`.t.B.q.z.B.`.B.t.t.z.B.z.q.q.C.C.C.p.w.;+'+)+{+]+^+ +#+6 0 f f C S ..&.Q I 4.4.I F K Q K W @.&.....&.V F I E F I I @.6.@.F I W 9.4.=.4.a.9.W 6.@.4.6.4.F a.a.4.F F I Q I L E B y =.=.a.4.z M L =.a.@.a.6.K a.6.6.6.6.@.I F F E =.s s P P 7+/.g D   =     0 0 ",
"0 0 0 0 0 0 0 0 0 0 0 0 0 0 0 0 0 0 0 0 0 0 0 0 0 0 0 0 0 0 0 0 0 0 0 0 0 0 0 0 0 0 0 0 0 0 0 0 0 0 0 0 0 0 0 0 0 0 0 0 0 0 0 0 0 0 0 0 0 0 0 0 0 0 0 0 0 0 0 0 0 0 0 0 0 0 0 0 0 0 0 0 0 0 0 0 0 0 0 0 0 0 0 0 0 0 0 0 0 0 0 0 0 0 0 0 0 0 0 0 0 0 0 0 0 0 0 0 0 0 0 0 0 0 0 0 0 0 0 q 0 0 0 6   0 -.-.-.-.f 0 0 7 r -.0 0 0 0 j   K.-+F.F.w.w.p.p.u.q.z.q.q.z.z.z.q.z.C.J.,+)+P.^+(+:+U.N.W.W.Q.Z.Y.Y.$+.+.+.+.+=+*+*+*+*+*+*+@+@+d.@+@+@+@+@+@+@+*+*+@+*+*+@+@+@+@+*+*+*+*+@+@+@+=+@+@+.+.+#+$+Y.Z.Z.++W.W.W.W.W.[.W.W.++Z.Z.%+#+.+@+*+e.e.^ ).C R /.l 3.3.3.3.2+1.P 4.M M 7+=.6.7.f 0.T.o.,+,+]+(+L.U.t.z.u.u.w.;+,+'+'+P.P.V.^+(+:+L.|+Q.$+.+*+/ A {+'+'+'+,+'+)+)+'+{+)+{+)+{+{+8+]+_+:+:+[+[+:+,+C.z.z.t.B.t.B.t.`.`.r.D.D.t.B.B.D.`.`.B.`.t.B.B.t.B.`.t.`.r.O.G.G.G.O.G.r.R.R.r.r.r.D.D.D.`.t.z.z.z.z.B.B.B.B.q.B.B.z.q.C.C.u.w.J.,+)+{+8+b+M. +A !.k.d e E G *.X @.@.Q K B F F V 5.X W W V W G K F I I F F 4.K K 4.@.W W a.F @.V 5.&.W 5.&.6.a.K I I K K K K H ..G E E B C E =.4.6.4.L =.=.a.a.9.@.9.a.=.m.m.m.m.@.K a.=.K =.z y 5+6+s l 0.++= * 8 0 0 ",
"0 0 0 0 0 0 0 0 0 0 0 0 0 0 0 0 0 0 0 0 0 0 0 0 0 0 0 0 0 0 0 0 0 0 0 0 0 0 0 0 0 0 0 0 0 0 0 0 0 0 0 0 0 0 0 0 0 0 0 0 0 0 0 0 0 0 0 0 0 0 0 0 0 0 0 0 0 0 0 0 0 0 0 0 0 0 0 0 0 0 0 0 0 0 0 0 0 0 0 0 0 0 0 0 0 0 0 0 0 0 0 0 0 0 0 0 0 0 0 0 0 0 0 0 0 0 0 0 0 0 0 0 0 0 0 0 0 0 0 d 7 -.0 r         7   r 7 r             r   2.-+-+F.p.w.h u.C.z.z.q.q.z.z.q.u.w.J.)+P.M. +L.N.W.Q.Y.Y.S..+.+.+*+*+*+*+*+@+@+@+@+@+@+@+e.) / / / 9 8 h.!.6 8 k k k k k k _ 2 _ 2 _ 1 1 1 1 1 @+@+@+@+*+@+*+*+*+*+@+@+@+@+@+@+@+@+@+@+@+*+*+*+*+e._ 2 k /./.R R 2+3.X.|.|.|.X.3./.O =.6+5+5+7+a.7.z ~ U.o.;+;+{+_+[+J.t.C.p.p.J.;+'+)+)+{+P.^+(+(+L.L.Q.Y.$+.+e.| W.P.{+{+)+)+)+{+8+8+8+{+8+8+]+b+_+(+[+|+Q.Y.Q.(+w.q.z.z.z.B.B.z.B.`.D.t.t.t.t.t.t.t.t.B.t.z.z.z.B.t.t.t.B.D.O.G.s.G.r.O.G.G.R.O.O.O.r.r.r.O.r.t.z.B.z.z.z.B.t.t.B.z.q.z.q.C.C.u.J.;+'+)+{+8+b+M.T.1 !.(.d z H ].*.%.Q ..G F B E I ` ` X W Q I I I I &.W @.Q @.I I I K K 6.K 4.W 7.5.%.&.&.V &.W W Z @.E F K G V Q @.G G B z C =.4.4.6.9.6.6.6.6.4.=.a.6.9.K =.L a.9.W I 6.K =.E =.O R 5+R 3.3 - - b -.0 0 ",
"0 0 0 0 0 0 0 0 0 0 0 0 0 0 0 0 0 0 0 0 0 0 0 0 0 0 0 0 0 0 0 0 0 0 0 0 0 0 0 0 0 0 0 0 0 0 0 0 0 0 0 0 0 0 0 0 0 0 0 0 0 0 0 0 0 0 0 0 0 0 0 0 0 0 0 0 0 0 0 0 0 0 0 0 0 0 0 0 0 0 0 0 0 0 0 0 0 0 0 0 0 0 0 0 0 0 0 0 0 0 0 0 0 0 0 0 0 0 0 0 0 0 0 0 0 0 0 0 0 0 0 0 7 -.-.f 0 0 r 7       m.        >.      j                 K.-+F.F.w.p.F.q.z.q.q.q.q.q.C.w.,+P.^+ +L.N.Q.Y.S..+=+*+*+*+*+*+*+*+@+@+@+e.) | f.6 e y M O O M P q }.j+j+j+q 4+2+2+2+2+2+2+2+2+2+2+/./.1.1.6+5+/././.l l l l 2 2 2 1 1 1 1 1 1 1 1 _ _ _ 2 l l 3.3.3.X.X.X.3.3.3+1+1+}+n.}+n.1+X.3.R L 5+4+4+5+a.7.z ++ +o.J.;+{+b+:+z.B.u.u.u.J.,+)+{+P.P.P.^+M.:+L.N.Q.Y.#+@+e.| U.V.{+{+8+8+{+{+]+b+]+P.^+_+M. +:+|+Q.S..+.+S.P.C.q.z.C.q.z.z.z.B.t.B.B.B.t.t.t.B.B.z.q.z.q.q.z.B.B.t.R.r.r.s.s.s.G.G.O.O.R.R.O.O.O.G.O.R.r.D.`.B.B.t.z.z.B.z.z.B.B.q.q.q.C.p.p.J.;+'+{+8+b+^+ +T.1 9 d d C +.*.Y %.V ..F E z K Q ;. .&.Q Q W @.@.&.5.W 7.X Q Q W W 5.W 4.F 5.9.9.5.Q K K V V 5.5.5.W K I G Q &.<.%.@.@.B z C =.=.4.6.9.5.7.9.7.5.5.@.a.=.=.L 6.9.6.6.I W z L =.@.B R M R N N 3 3 k 0 0 0 ",
"0 0 0 0 0 0 0 0 0 0 0 0 0 0 0 0 0 0 0 0 0 0 0 0 0 0 0 0 0 0 0 0 0 0 0 0 0 0 0 0 0 0 0 0 0 0 0 0 0 0 0 0 0 0 0 0 0 0 0 0 0 0 0 0 0 0 0 0 0 0 0 0 0 0 0 0 0 0 0 0 0 0 0 0 0 0 0 0 0 0 0 0 0 0 0 0 0 0 0 0 0 0 0 0 0 0 0 0 0 0 0 0 0 0 0 0 0 0 0 0 0 0 0 0 0 0 0 0 0 0 0 -.0 r -.  j 7           H.      2.#.$ #.#.#.* = - [.- 3 D I.-+F.F.p.F.F.q.z.z.q.q.q.C.p.,+P.M.L.W.Q.Y.#+.+*+*+*+*+*+*+@+@+@+e./ !.c o j+j+j+x 2+2+2+2+2+2+2+2+2+4+M D+v 2+2+3+3+3+3+3+3+3+3+3+3+3+3+3+3+2+4+3+3+3+3+3+3+3+3+3+3+3+3+3+3+3.2+1.2+3+X.X.X.1+}+}+a+a+v.a+A.n.1+1+A.A.A.A.A.A.n.|.X.1.7+1.2+2+5+4.7.L - M.'+p.J.{+b+P.`.q.C.u.p.;+,+)+P.]+]+V.^+M.:+[+|+Q.Y..+@+&+^  +^+P.P.^+^+P.^+^+^+^+^+M.:+:+L.W.Q.S..+*+>+=+,+q.z.C.C.z.z.z.z.B.z.z.B.t.t.`.t.B.z.z.z.q.q.C.q.z.z.B.`.O.G.s.G.s.s.G.s.O.R.r.R.r.G.G.r.r.t.t.t.t.t.z.q.z.z.q.z.z.q.C.u.u.u.w.J.;+,+'+{+]+^+M.U.N.( 9 0 d q +.T *.Y V T H E E G V X X W I F I Q K K @.@.I K I I X W I I Q @.K @.@.B E I V &.@.K F K K F I G @.W V &.W K B C C L =.4.6.@.@.9.6.9.7.9.K B =.K 7.9.a.4.m.4.4.4.B =.4.B O 1.x 1.g 3     0 0 0 ",
"0 0 0 0 0 0 0 0 0 0 0 0 0 0 0 0 0 0 0 0 0 0 0 0 0 0 0 0 0 0 0 0 0 0 0 0 0 0 0 0 0 0 0 0 0 0 0 0 0 0 0 0 0 0 0 0 0 0 0 0 0 0 0 0 0 0 0 0 0 0 0 0 0 0 0 0 0 0 0 0 0 0 0 0 0 0 0 0 0 0 0 0 0 0 0 0 0 0 0 0 0 0 0 0 0 0 0 0 0 0 0 0 0 0 0 0 0 0 0 0 0 0 0 0 0 0 0 0 0 0 0 0 r f j k         H.#.#.#.#.#.#.$ $ $ < 3 0.D 0.3 D b 2 b K.-+F.F.u.F.F.z.z.q.C.u.p.;+P.M.L.W.Y..+.+*+*+*+*+*+@+@+@+e.| c a j+j+j+j+j+j+j+1.3+3+3+3+3+3+3+3+3+3+2+3+4+4+3+X.X.X.1+1+1+1+}+}+}+}+}+}+}+}+1+X.1+}+}+}+}+}+}+}+}+}+}+}+}+}+}+}+1+}+a+~+~+c+c+c+<+d+d+c+c+~+v.A.}+v.v.v.v.v.A.A.>.N 1.P 4+2+2+5+a.7.L T.V.;+p.;+{+b+q.t.C.u.u.J.;+'+)+8+]+^+^+(+ +:+L.W.Y.#+d.e./ ] M.^+V.^+_+^+^+M.M.M.M. + +L.N.W.Q.$+.+*+>+!+%+w.C.q.u.C.C.q.q.z.z.z.B.B.`.t.t.`.z.z.q.C.C.u.C.C.q.z.z.`.t.r.O.s.s.G.G.r.r.D.r.O.G.r.r.R.R.t.`.`.t.t.q.q.B.z.z.q.q.q.u.p.p.p.w.,+,+'+)+8+]+^+ +U.[.( 8 s e w T G Y Q *.H I I Q W V V @.K E K K F @.@.K E E Q W W @.F E K K K 6.F E I X X @.@.I I Q I I G I I Q &.X W @.K B z C P 4.6.6.@.9.9.9.7.@.K 4.6.W @.a.m.4.m.a.K L 4.=.4.L L 1.1.1.j 2 -   t 0 r 0 ",
"0 0 0 0 0 0 0 0 0 0 0 0 0 0 0 0 0 0 0 0 0 0 0 0 0 0 0 0 0 0 0 0 0 0 0 0 0 0 0 0 0 0 0 0 0 0 0 0 0 0 0 0 0 0 0 0 0 0 0 0 0 0 0 0 0 0 0 0 0 0 0 0 0 0 0 0 0 0 0 0 0 0 0 0 0 0 0 0 0 0 0 0 0 0 0 0 0 0 0 0 0 0 0 0 0 0 0 0 0 0 0 0 0 0 0 0 0 0 0 0 0 0 0 0 0 0 0 0 f t -.0 7 k N     h h H.H.#.< ~ ~ ~ ~ 3 ~ - 3 A 1 ( b 2 2 b : n.K.F.F.F.F.F.z.q.q.C.u.J.P.M.L.Q.Y..+@+*+*+*+*+@+@+@+&+f.a d O 5+5+5+M q j+j+j+s 3+3+3+3+3+3+3+X.X.X.X.X.X.X.3+1+}+}+a+a+a+~+~+c+c+c+c+c+c+c+c+c+~+c+c+c+c+d+d+d+d+d+d+d+d+d+d+d+c+~+c+e+e+e+e+d+d+d+d+d+c+c+~+v.n.}+~+~+v.v.v.A.A.>.N 1.P 4+3+2+6+a.l.s U.P.;+u.;+{+8+t.B.u.p.p.;+'+)+{+P.]+]+^+(+:+L.N.Q.Y.#+@+e.| #+M.M.V.^+^+M. +:+U.:+U.U.L.N.W.Q.Y..+*+&+!+f. +p.u.u.C.C.p.u.C.q.C.z.q.z.t.t.B.B.q.q.u.u.u.u.u.q.q.t.D.t.D.O.O.s.G.G.O.D.O.G.G.G.O.r.D.`.t.`.D.`.t.B.q.z.z.z.z.q.C.C.u.p.w.w.;+,+'+{+8+b+^+M.U.T.- _ } 7 _.v G S ..I T H I K @.@.Q I F H G =.E K K F F @.%.&.W I H F @.E 4.F K K @.&.&.V &.&.W I I F K W V V &.Z X V K K E C y M 6.W 9.9.5.9.@.9.9.6.@.@.a.7+L 7+m.m.m.4.E E L =.M O 1.5+3./.b   D 7 0 p 0 ",
"0 0 0 0 0 0 0 0 0 0 0 0 0 0 0 0 0 0 0 0 0 0 0 0 0 0 0 0 0 0 0 0 0 0 0 0 0 0 0 0 0 0 0 0 0 0 0 0 0 0 0 0 0 0 0 0 0 0 0 0 0 0 0 0 0 0 0 0 0 0 0 0 0 0 0 0 0 0 0 0 0 0 0 0 0 0 0 0 0 0 0 0 0 0 0 0 0 0 0 0 0 0 0 0 0 0 0 0 0 0 0 0 0 0 0 0 0 0 0 0 0 0 0 0 0 7 0 7 0     r j     h H.H.I.* < ++~ ~ 0.D A ' 0.3 0.N b b g b g 2 N K.F.F.F.F.F.z.z.C.C.w.o.V.L.W.Y..+=+*+*+*+*+@+@+i f.a j+z 4+2+2+2+2+2+3+2+4+L b.2+3+X.X.X.X.X.1+1+1+}+}+a+a+a+}+a+~+~+c+c+d+d+d+e+e+e+e+e+e+e+e+e+d+d+e+e+e+e+e+e+e+e+e+e+e+e+e+d+d+c+d+d+d+d+d+d+d+d+c+c+c+~+v.A.1+}+~+~+~+v.v.A.n.|.3.R L 4+2+4+7+6.8.j M.o.w.u.;+{+w.r.q.u.w.w.;+,+'+8+P.P.^+(+:+:+L.N.Q.Y.d.@+^ | W.M.M.M.M.M. + +U.L.L.L.N.N.W.Z.Y.d.*+e./ f./ P.w.u.u.u.p.u.u.u.p.u.C.q.q.z.z.z.z.q.C.u.p.p.u.C.z.z.t.B.r.O.O.G.r.R.`.D.G.O.O.G.O.r.D.t.`.`.`.t.t.t.z.z.q.q.z.q.q.C.u.u.p.;+;+;+'+)+8+]+^+M.U.T.[.++( : ).~.v T S T G S H F I Q W @.F F F E K K K I @.@.@.Q @.I K K K E @.K I I W @.@.K I @.Q W Q G I W W l.W W X Z 5.K K E C y y I 5.7.5.9.9.5.9.a.4.4.=.P =.=.L 4.6.9.W Q B K L B y M 1.2+l N ~ -     f 0 ",
"0 0 0 0 0 0 0 0 0 0 0 0 0 0 0 0 0 0 0 0 0 0 0 0 0 0 0 0 0 0 0 0 0 0 0 0 0 0 0 0 0 0 0 0 0 0 0 0 0 0 0 0 0 0 0 0 0 0 0 0 0 0 0 0 0 0 0 0 0 0 0 0 0 0 0 0 0 0 0 0 0 0 0 0 0 0 0 0 0 0 0 0 0 0 0 0 0 0 0 0 0 0 0 0 0 0 0 0 0 0 0 0 0 0 0 0 0 0 0 0 0 0 0 0 -.              2.H.H.I.n.,., < - ~ ' ] ' ] D D 0.' D ( b b b g g g H.-+F.F.F.F.z.q.F.u.J.V. +W.Y..+.+@+*+*+*+*+e./ c j+j+j+C 2+2+2+3+3+3+3+3+3+3+3+5+3+X.X.X.1+1+}+}+a+a+~+~+c+c+c+~+~+c+d+d+e+e+e+e+e+e+e+e+e+e+e+e+e+e+e+e+e+e+e+e+e+e+e+e+e+e+d+d+d+d+~+c+d+d+d+d+c+c+c+c+c+~+v.A.}+X.1+v.v.v.v.A.n.|.3./.M m.5+5+7+a.7.g.b V.,+u.p.,+{+B.t.C.p.w.J.;+,+)+{+P.^+^+(+:+L.[+W.Q.$+d.@+&+| N.M.M.M. +M.U.L.L.L.L.N.W.++Z.$+#+@+e.&+5 f.1 '+p.u.p.p.J.w.w.p.J.w.u.u.C.q.C.u.C.C.p.w.J.p.u.C.C.z.t.D.r.O.G.O.R.r.r.G.G.O.O.O.r.D.D.D.D.`.`.t.B.t.z.q.q.z.z.q.C.u.u.p.w.;+;+'+)+{+]+V.M.M.U.T.[.3 _ } ).~.D+U H T w E H E V &.&.I I I I @.K Q W W @.K K I Q G I Q G Q I @...@.K K K Q Q W &.V X X &.&.&.@.7.&.5.5.9.K 4.E y C y 6.5.7.g.9+8.@.=.=.4.=.L =.=.K 7.5.5.6.@.@.F 4.L z B P 1././.2 0.|.  j -.0 ",
"0 0 0 0 0 0 0 0 0 0 0 0 0 0 0 0 0 0 0 0 0 0 0 0 0 0 0 0 0 0 0 0 0 0 0 0 0 0 0 0 0 0 0 0 0 0 0 0 0 0 0 0 0 0 0 0 0 0 0 0 0 0 0 0 0 0 0 0 0 0 0 0 0 0 0 0 0 0 0 0 0 0 0 0 0 0 0 0 0 0 0 0 0 0 0 0 0 0 0 0 0 0 0 0 0 0 0 0 0 0 0 0 0 0 0 0 0 0 0 0 0 0 0 0 -.          H.I.#.#.,.< < , - %+~ 3 0.0.D ' ( A ( ( 2 b b 2 b b b N K.-+F.F.F.F.F.F.w.o.V.L.Z.#+=+@+@+@+@+*+*+^ 7 a j+j+j+}.2+3+3+3+3+3+3+3+3+3+X.X.3+3+X.1+1+}+a+~+~+c+c+d+d+d+e+e+d+c+d+e+e+e+e+e+e+e+e+e+e+e+e+e+e+e+e+d+e+e+e+e+e+e+d+d+d+d+d+d+d+c+c+a+~+c+c+c+c+c+~+~+~+v.A.}+1+X.5+4+X.}+}+}+}+}+}+1+2+4.9.5+4+6+7+6.9.< o.J.C.p.,+,+r.B.C.p.p.J.,+'+)+P.P.^+_+(+:+L.N.|+Y.#+.+e./ / U.M.M.M. + +L.N.N.N.W.W.++Z.$+#+d.@+e./ 5 f.~ ,+w.w.J.;+;+;+;+J.J.J.J.w.p.u.p.p.p.w.;+;+,+;+w.u.C.q.D.r.D.r.r.r.O.O.O.G.O.r.r.r.O.r.r.`.R.D.D.`.B.z.z.q.C.q.q.C.u.p.p.J.J.;+'+'+)+8+^+^+M.U.T.[.- D _ t 7 k.U S v S H z v B %.&.I G @.W W F I Q V @.I Q W W W Q Q Q &.I I Q Q Q @.5.&.W %.8.X X X V &.X &.5.5.7.5.9.9.6.F E C C L 9.W 5.5.5.@.F F E E F F K 9.9.W 5.5.a.F Q @.E L B F E z s u 2 0.    -.0 0 ",
"0 0 0 0 0 0 0 0 0 0 0 0 0 0 0 0 0 0 0 0 0 0 0 0 0 0 0 0 0 0 0 0 0 0 0 0 0 0 0 0 0 0 0 0 0 0 0 0 0 0 0 0 0 0 0 0 0 0 0 0 0 0 0 0 0 0 0 0 0 0 0 0 0 0 0 0 0 0 0 0 0 0 0 0 0 0 0 0 0 0 0 0 0 0 0 0 0 0 0 0 0 0 0 0 0 0 0 0 0 0 0 0 0 0 0 0 0 0 0 0 0 0 0 0 k     H.H.I.H.#.,.< < [.++< < ++! ! 0.D 0.0.' D N D ( _ _ g b g 2 A.-+-+F.F.F.F.F.w.o.M.N.$+.+@+@+@+@+@+@+^ j /.2+2+1.q j+O 3+3+3+3+X.X.X.X.X.X.X.X.X.3+1+}+}+a+~+c+c+d+d+d+e+e+e+e+e+d+d+e+e+e+e+e+e+e+e+e+e+e+e+e+e+e+d+c+d+d+d+d+d+d+d+d+d+d+c+c+c+~+~+X.1+a+a+a+~+~+~+c+c+c+d+d+d+~+4+X.c+d+d+d+<+<+-+K.A.X.3+1+X.2+5+m.R V.,+p.C.w.'+C.r.z.C.w.w.;+,+)+{+P.P.^+(+:+[+L.N.Q.Z.#+@+e.| 1  +M. + + +U.L.N.N.W.Z.Z.Z.%+$+d.@+e./ | 5 f. +'+,+,+,+,+'+,+;+,+;+J.J.;+J.w.w.p.w.;+,+)+,+,+w.C.q.z.t.t.r.`.r.O.r.D.r.R.R.R.`.r.O.r.`.`.`.D.`.`.t.B.z.z.C.C.u.p.p.w.;+;+,+'+)+)+{+P.^+M.U.T.[.++%+D : 8 ).6 j.H B F H B B B W @.I @.7.W F I Q @.Q 9.W Q W W W @.W 7.I I G I Q Q Q @.W 7.5.W %.<.Z  .%.%.7.5.5.7.5.9.6.9.4.B C y a.5.5.5.W Q G I E F K F @.@.6.6.@.W 9.@.I W I K F B E E C y j ( 0.  j 0 0 0 ",
"0 0 0 0 0 0 0 0 0 0 0 0 0 0 0 0 0 0 0 0 0 0 0 0 0 0 0 0 0 0 0 0 0 0 0 0 0 0 0 0 0 0 0 0 0 0 0 0 0 0 0 0 0 0 0 0 0 0 0 0 0 0 0 0 0 0 0 0 0 0 0 0 0 0 0 0 0 0 0 0 0 0 0 0 0 0 0 0 0 0 0 0 0 0 0 -.-.0 -.0 0 0 0 0 0 0 0 0 0 0 0 0 0 0 0 0 0 0 0 0 0 0 0 u       * $ I.,., , [.++++! %+' ! 0.0.] ( 1 1 D b ) _ : : : 2 2 2 2 E.-+-+-+F.F.u.;+P. +++#+.+@+@+@+*+@+e.j 1./.2+2+2+2+2+6+2+3+3+3+X.X.X.X.X.1+1+1+1+1+X.}+a+~+~+c+d+d+d+e+e+e+e+e+e+e+d+d+d+e+e+e+e+e+e+e+e+d+d+d+d+d+d+c+a+c+c+c+c+c+c+c+~+~+~+~+~+~+a+X.a.6+}+c+e+e+g+g+g+/+/+/+/+g+g+d+c+e+e+e+e+<+<+-+K.v.n.X.1+X.2+5+7+>.'+w.C.C.J.'+D.`.q.u.w.w.;+,+)+8+P.^+^+(+:+:+L.|+Q.Y.d.@+^ 5 '  +M. + + +L.L.N.W.Z.Z.%+$+$+d.] e.&+| 5 5 } ^+)+)+'+)+'+)+'+'+,+'+,+,+,+;+;+J.;+;+'+)+)+)+,+w.C.q.z.z.B.`.D.R.R.D.O.O.R.`.`.r.`.D.B.t.`.`.t.t.t.B.B.z.C.u.u.u.u.p.J.;+'+)+)+{+]+^+M. + +U.[.[.3 0.( : 8 t 8 H w z B w F E F K @.Q &.K E F G W &.@.K @.V W @.Q W &.F F I V &.K I Q V Q I @.W V X X X %.X &.7.5.5.5.5.9.9.K B C C 9.5.7.5.5.Q K F I W Q W W W 5.W 5.9.@.@.@.Q Q @.I P =.E C r (     r -.0 0 0 ",
"0 0 0 0 0 0 0 0 0 0 0 0 0 0 0 0 0 0 0 0 0 0 0 0 0 0 0 0 0 0 0 0 0 0 0 0 0 0 0 0 0 0 0 0 0 0 0 0 0 0 0 0 0 0 0 0 0 0 0 0 0 0 0 0 0 0 0 0 0 0 0 0 0 0 0 0 0 0 0 0 0 0 0 0 0 0 0 0 0 0 0 0 0 0 0 f 7 6   r 0 0 0 0 0 0 0 0 0 0 0 0 0 0 0 0 0 0 0 7 l u     h h 2.#.,.>.[.++%+%+d.d.d.' D 0.D 0.0.A ( ( ) } 8 t l 2 2 k k } n.-+-+-+-+F.F.,+V.T.%+#+.+@+@+@+@+@+/ j 1./.2+2+2+3+3+3+3+2+3+X.X.X.X.X.1+1+1+}+}+a+a+}+a+~+c+c+d+d+d+d+d+e+e+e+e+e+d+d+c+d+d+d+d+d+d+d+d+d+d+c+c+c+c+c+a+2+}+a+~+~+~+~+c+c+d+d+e+e+e+g+e+}+c+g+g+/+/+/+/+/+/+/+/+g+g+g+e+e+e+e+e+<+<+<+-+-+v.A.X.1+X.2+5+1.o.J.u.q.u.;+J.r.B.u.p.J.J.,+'+)+{+]+]+_+(+:+:+L.|+Z.$+d.1 / 5 Z. +M. +U.U.L.N.N.++Z.%+$+$+d.@+1 ^ / | 5 6 : ^+8+8+{+{+)+{+)+'+'+'+)+)+'+'+,+'+'+'+{+8+]+]+)+p.q.q.B.z.B.D.`.r.D.R.R.D.D.`.D.D.t.t.t.`.D.R.`.`.t.B.z.q.q.C.u.p.w.;+;+,+)+)+{+P.V.^+ +U.U.< [.~ 3 b _ } t } 8 v p p z F E G @.&.Y Q E E F K Q Q K Q @.Q W I Q &.W E E E G W K I Q Q I K @.&.%.%.9.7.&.W 9.5.5.l.5.5.9.5.9.K z C 4.5.@.9.5.5.9.5.9.5.&.W 5.W @.6.@.9.5.9.7.6.6.6.Q I P P z s x (   d 0 0 0 0 0 ",
"0 0 0 0 0 0 0 0 0 0 0 0 0 0 0 0 0 0 0 0 0 0 0 0 0 0 0 0 0 0 0 0 0 0 0 0 0 0 0 0 0 0 0 0 0 0 0 0 0 0 0 0 0 0 0 0 0 0 0 0 0 0 0 0 0 0 0 0 0 0 0 0 0 0 0 0 0 0 0 0 0 0 0 0 0 0 0 0 0 0 0 0 0 0 0 7 J f       t 0 0 0 0 0 0 0 0 0 0 0 0 0 0 0 0 7 J         I.H.@ M.< ++Z.%+%+! %+%+0.~ 3 3 0.0.N 2 2 N : } j j } 7 r r t : v.-+-+-+F.F.;+V.N.$+.+@+@+@+@+@+e.n k./././.2+3+3+3+3+3+3+3+X.X.X.1+1+1+1+}+a+~+~+~+~+a+a+~+c+c+d+d+d+d+d+d+d+d+d+d+d+~+~+c+c+c+c+c+c+c+c+c+c+~+~+~+a+}+5+9.4+~+d+e+e+g+g+g+g+g+g+g+g+g+/+g+g+g+g+g+g+g+g+/+/+/+g+g+g+g+e+e+e+e+e+<+<+<+-+K.v.A.3+3+X.4+1.I.w.u.q.q.w.'+z.D.z.u.p.J.;+)+'+)+{+]+b+(+(+:+:+N.W.Y.$+d.e./ | [. + +U.L.L.L.N.++++Z.%+! d.A ( 1 ^ / | 5 -.A ^+^+]+8+8+8+8+)+)+{+{+)+{+{+{+{+)+{+8+_+(+:+(+'+u.z.z.B.z.t.t.t.`.`.`.D.`.`.t.t.B.B.B.B.`.R.`.`.t.B.q.q.q.C.u.p.w.;+,+'+)+{+P.V.V.M.M.U.T.< [.~ 0.D ( _ : : j J C p C B B F G Q V I E E F Q Q F E I Q I I Q V ` Q B B F Q K B E I F E I V %.&.7.%.7.5.5.7.%.7.9.@.5.5.9.5.W I C L @.5.5.9.5.W 9.9.9.5.5.l.5.5.W W 9.@.6.6.a.4.4.a.@.K P L L s u _ 3   0 0 0 0 0 ",
"0 0 0 0 0 0 0 0 0 0 0 0 0 0 0 0 0 0 0 0 0 0 0 0 0 0 0 0 0 0 0 0 0 0 0 0 0 0 0 0 0 0 0 0 0 0 0 0 0 0 0 0 0 0 0 0 0 0 0 0 0 0 0 0 0 0 0 0 0 0 0 0 0 0 0 0 0 0 0 0 0 0 0 0 0 0 0 0 0 0 0 0 0 0 0 7               -.0 0 0 0 0 0 0 0 0 0 0 0 0 j       h   h I.,., ,.[.++[.[.[.~ %+! 3 0.D D ( ( N 2 b 2 u d s j f s s J J g F.-+-+-+F.2.V.T.$+.+@+@+@+@+@+e.J x R /./.2+3+3+X.X.X.X.X.3+X.X.1+1+1+}+a+~+~+c+c+c+c+a+~+~+c+c+c+c+c+c+c+c+c+c+c+c+c+~+}+~+~+~+~+~+~+a+~+~+~+c+c+d+d+d+}+a.c+g+g+g+g+g+g+g+g+g+g+g+g+g+g+g+/+/+g+g+g+g+g+g+g+g+g+g+g+e+e+<+e+e+<+<+<+-+K.v.v.}+3+2+3+2+I.u.q.z.B.C.;+,+D.z.u.p.w.;+,+,+'+)+]+]+^+(+(+:+L.|+Q.Y.#+] e.| / N. + +L.U.L.N.W.Z.Z.%+%+! d.] 1 i / / 5 n -.++M.^+^+b+b+]+]+]+]+]+b+b+8+8+8+]+]+_+:+[+[+L.:+;+C.q.z.q.B.t.t.B.`.t.t.t.t.D.t.B.B.B.B.`.`.t.t.B.B.z.C.u.C.u.p.J.J.;+'+{+8+P.P.^+^+ +U.T.T.[.~ 0.0.b 2 : _ : j t s p d v B F Q Q I E E I Q K E E Q V @.I Q Q V G B v F Q I B F Q F I Q Q Q W V %.%.%.l.l.l.9.6.a.5.9.9.5.&.Q @.F 6.W 5.V 5.5.W 5.@.9.W 9.W 5.7.l.l.9.6.4.m.4.4.L =.Q @.E E B f t 2 !   0 0 0 0 0 ",
"0 0 0 0 0 0 0 0 0 0 0 0 0 0 0 0 0 0 0 0 0 0 0 0 0 0 0 0 0 0 0 0 0 0 0 0 0 0 0 0 0 0 0 0 0 0 0 0 0 0 0 0 0 0 0 0 0 0 0 0 0 0 0 0 0 0 0 0 0 0 0 0 0 0 0 0 0 0 0 0 0 0 0 0 0 0 0 0 0 0 0 7           H.@ 2.@ 2.    -.0 0 0 0 0 0 0 0 -.0 r           2.E.H.H.$ T.< ++++%+$+d.d.! %+++++3 0.A ( _ 2 k u x x j u u u J u j n.-+-+-+F.F.V.T.$+.+@+@+@+@+@+^ x R 1.2+/./.2+3+X.X.X.X.X.X.X.1+1+1+1+}+a+~+c+c+c+c+c+c+a+a+~+~+c+c+c+c+c+c+c+c+c+c+c+~+1+6+3+}+a+~+c+d+e+e+g+g+g+g+g+g+g+/+d+g+g+g+g+g+g+g+g+g+g+g+g+g+g+g+g+g+g+g+g+g+g+g+g+g+g+g+g+e+e+<+c+<+<+<+<+-+K.v.v.A.1+3+5+|.2.z.B.t.t.q.J.)+J.D.q.u.w.J.;+,+,+'+{+]+]+^+(+(+:+N.W.Q.$+#+@+^ 5 i L.L.L.L.U.L.N.++++Z.%+! 0.A ] 1 ^ } 9 5 6 ).[. + +M.M.^+M._+^+^+^+_+_+_+(+(+ +:+|+Q.Y.S.Q._+w.q.z.z.q.t.t.B.t.t.z.z.t.t.D.t.t.t.B.B.`.`.t.B.B.B.z.C.u.p.J.;+,+,+'+)+8+^+M.M. + +T.T.[.[.++0.0.b 2 _ _ _ : j u S w e B E K V W E F Q @.E =.@.X X V @.Q ..Q Q E E I Q F B I 7.W W 8.<.Z X &.V W W 5.5.6.L 9.6.4.7.7.5.W W 5.5.5.W 5.V V &.5.W Q 6.@.W 5.7.5.5.@.I 4.a.=.7+M M 7+4.K @.F E z t _ A ~   7 0 0 0 0 ",
"0 0 0 0 0 0 0 0 0 0 0 0 0 0 0 0 0 0 0 0 0 0 0 0 0 0 0 0 0 0 0 0 0 0 0 0 0 0 0 0 0 0 0 0 0 0 0 0 0 0 0 0 0 0 0 0 0 0 0 0 0 0 0 0 0 0 0 0 0 0 0 0 0 0 0 0 0 0 0 0 0 0       8 0 0 j g         H.@ #.$ $ $ #.M.#.@ >.g k   e 0 0 0 0 r t     h E.2.2.h 2.@ #. +T.Z.$+@+e.i i 1 i ^ ^ ( _ _ _ 8 7 8 R j j j u J J r f 7 j v.-+-+-+F.@ T.$+.+@+@+@+*+@+/ s O 1./.2+2+2+3+X.X.X.X.1+1+1+X.1+1+1+}+a+~+~+c+c+c+c+~+~+a+X.a+~+~+~+~+~+~+~+a+a+a+}+}+3+7+5.X.d+e+e+e+g+g+g+g+g+g+g+g+g+g+/+/+g+g+g+g+g+g+g+g+g+g+g+g+g+g+g+g+e+g+g+g+g+g+g+g+g+g+g+e+e+e+<+c+c+d+c+c+~+v.v.A.}+1+|.H.z.`.D.D.D.z.J.'+8+C.z.C.p.w.;+,+'+'+)+{+P.]+^+_+:+:+N.Q.Z.#+d.1 ^ 5 d.L.L.U.U.U.L.N.W.++%+! ! D A ( i ) } 9 h.6 8 [.U.U.:+ + + +M.M.M.M.:+ +:+L.L.N.Q.Y..+=+*+.+P.u.q.z.z.q.z.B.t.t.B.B.B.z.t.t.t.t.z.B.t.`.`.t.B.B.q.C.p.J.;+,+)+'+'+{+{+P.M. +U.U.T.[.[.++3 3 0.D b 2 _ _ k j k F Y S d z G I V F F V K F Q X ` V X Q @.G I Q I E Q I F K 5.V @.W X X %.Z Z Z %. .%.Z 7.m.a.5.a.L @.7.7.&.&.5.&.5.5.7.7.7.&.V W @.a.9.5.9.@.9.9.I =.a.m.L 7+7+m.a.9.K @.E z y } i {         0 0 0 ",
"0 0 0 0 0 0 0 0 0 0 0 0 0 0 0 0 0 0 0 0 0 0 0 0 0 0 0 0 0 0 0 0 0 0 0 0 0 0 0 0 0 0 0 0 0 0 0 0 0 0 0 0 0 0 0 0 0 0 0 0 0 0 0 0 0 0 0 0 0 0 0 0 0 0 0 0 0 0 0 J 7 k           H.E.H.#.H.I.H.H.n.n.,.- ++%+, [.T.U.T., ,.n.>.* N k k         H.I.H.I.H.#.T.[.#+.+e.1 ^ / 9 9 ^ ^ '.} m n e 7 f e y s s s x y s y q y u E.-+-+F.2. +Z.d.@+@+@+@+1 / e O 1./.2+2+2+2+X.X.1+1+1+1+}+1+1+1+1+}+}+a+~+~+~+c+~+~+~+a+}+2+1+}+a+a+}+}+}+a+~+c+d+d+e+e+c+X.d+e+e+e+e+e+g+g+g+g+g+g+g+g+g+g+/+e+g+g+g+g+g+g+g+g+g+g+g+g+g+g+g+e+e+e+g+g+g+e+g+g+e+e+e+e+<+d+c+c+c+c+~+~+v.A.}+A.h z.r.r.r.r.D.z.w.'+{+{+t.q.u.p.w.,+,+'+'+'+8+]+^+^+(+:+L.|+Q.Y.#+A e./ f.Z.L.L.L.L.L.N.W.W.++%+! #+' A 1 i ) } 8 ).-.t [.T.T.L.L.L.U.U.L.L.L.L.L.N.N.Q.Z.S..+*+&+!+=+;+u.C.q.C.q.z.q.q.z.z.B.t.t.t.B.B.B.B.`.B.t.`.z.q.C.u.p.J.,+,+)+{+{+8+]+^+M. +U.T.T.[.[.- 3 0.0.D b ( 2 _ _ _ k r ..` T B C W &.I G G I @.&.Z %.X Z &.Q F @.W I E Q I E I V @.Q V &.&.X %.%.Z 8.8.Z Z Z 5.a.@.4.6.=.6.5.&.Q Q W W W W V &.&.W @.W 5.7.5.7.7.7.7.9.@.=.6.4.9.@.9.9.6.@.W 4.=.y s } '.1       -.0 0 0 ",
"0 0 0 0 0 0 0 0 0 0 0 0 0 0 0 0 0 0 0 0 0 0 0 0 0 0 0 0 0 0 0 0 0 0 0 0 0 0 0 0 0 0 0 0 0 0 0 0 0 0 0 0 0 0 0 0 (.f d 0 0 0 0 0 0 0 0 0 0 0 -.0 0 0 7 6 -.j         H.h E.K.H.v.v.2.H.$ #.* n.>.< ~ 3 3 A d.#+$+%+%+%+++~ ~ - < - - < n.#.I.H.#.n.#.,.T.Z.d.@+*+@+] A ' ( } 6 7 m h.8 9 8 7 s r 7 u r e z s C B z B /.F.z.-+p.V.++#+@+@+*+*+e.9 C y R /.2+2+3+3+3+X.1+1+1+}+}+}+}+1+1+1+}+}+a+~+~+~+~+~+~+a+}+1+7+4+X.1+a+c+d+e+g+g+g+g+g+g+g+e+e+e+e+e+e+e+e+g+e+g+g+g+g+g+g+g+g+g+e+g+g+g+g+g+g+g+g+g+g+g+g+g+g+g+e+e+e+e+e+e+e+e+e+e+e+e+d+d+c+c+~+c+c+~+a+v.2.C.z.`.r.O.O.r.`.z.p.,+{+b+)+t.C.p.w.J.,+,+'+'+)+8+]+^+_+(+:+L.|+Q.$+#+@+e.| 5 W.L.L.L.L.N.N.W.++++Z.! #+A ] 1 ^ ) } 8 ).0 t ++W.N.N.N.N.N.N.N.N.W.N.W.Q.Z.%+#+=+e.&+!+!+$+w.u.u.u.C.C.C.q.q.q.q.z.B.B.t.t.B.z.B.B.z.B.q.C.u.p.w.;+,+'+)+{+8+]+^+M. +U.U.T.[.[.[.++3 0.0.D b b 2 2 2 2 g k &.&.Z Y T z @.V Q G ..V Z  .^.$.<.7.&.F V W V F I I I Q ......Q V V Y X %.%.Z Z Z <.<.Z 7.6.4.7+6.4.m.a.9.5.7.7.X V &.7.W W W 5.5.@.@.9.5.7.l.%.9.L a.a.7+4.a.a.a.6.6.4.K =.y e t _ A         0 0 0 ",
"0 0 0 0 0 0 0 0 0 0 0 0 0 0 0 0 0 0 0 0 0 0 0 0 0 0 0 0 0 0 0 0 0 0 0 0 0 0 0 0 0 0 0 0 0 0 0 0 0 0 0 0 0 0 0 0 0 0 8   j 8               g N   N |.  g >.  H.H.H.I.n.n.v.A.>.n.A.n.>.- [.< [.~ 3 3 3 3 3 - ~ - 3 - < < - < < 3 3 < >.>.>.>.- - >.- - ~ ! ! A 1 ^ ( A ( ] ' ' ( r d q e d f e y r q C e s f e y f z N -+F.F.o.T.%+d.@+*+*+e.9 z y O 1./.2+3+3+3+3+X.1+1+}+}+}+}+}+1+3+1+1+}+a+a+v.v.a+}+1+X.3+6+7.4+c+e+e+e+e+e+e+e+e+g+g+g+e+e+e+d+e+e+e+e+e+e+e+e+e+g+g+g+g+g+g+g+e+e+g+g+g+g+g+g+g+g+g+g+g+g+e+e+d+e+e+e+e+e+e+e+e+e+e+d+d+d+c+~+~+c+~+E.E.z.B.`.r.O.O.O.D.t.q.p.,+8+b+:+w.z.p.w.J.;+,+'+)+)+{+]+]+_+(+:+L.[+|+Z.$+d.@+^ 5 / N.L.U. +L.N.N.W.++%+$+! ' A ] 1 [ '.t h.7 0 } ++++[.++++[.W.W.++++++++Z.$+$+#+@+e.&+| | f.L.w.p.p.p.u.w.p.u.C.q.u.C.z.z.z.z.B.z.z.z.z.q.C.u.w.J.,+'+)+{+{+b+^+M.M. +U.T.[.[.[.++++3 0.0.D b b b g 2 2 g g F  .`  .Z ..X W &.V V &. . .<.^.^.Z ` Q G Y ....G I F G ....Q V X %.Z Z %.X X %.X Z Z <.l.l.7.a.L 4.4.6+m.m.6.6.9.&.%.Z V 7.W 5.V W W @.6.@.9.W 9.4.a.@.m.7+M 6+7+m.a.@.9.@.=.y m } [ 0.      e 6 0 0 ",
"0 0 0 0 0 0 0 0 0 0 0 0 0 0 0 0 0 0 0 0 0 0 0 0 0 0 0 0 0 0 0 0 0 0 0 0 0 0 0 0 0 0 0 0 0 0 0 0 0 0 0 0 0 0 0 r   0 0 u           E.E.E.H.@ I.H.E.2.v.v.I.>.n.>.- ++! ' 0.3 3 0.0.1 ( b A D ' ( 1 A ! 3 - >.n.n.n.>.>.>.3 3 3 3 3 3 3 3 - 3 >.>.>.>.>.|.N b 2 l g 2 ( ' A ] 1 ] D ( : t r r x f f J s s s x J J x s >.-+F.2.$ ++d.@+*+e.e.| v z O R /.2+3+X.X.X.X.1+1+1+}+}+a+}+}+1+3+X.1+1+}+1+1+1+1+a+~+c+c+c+X.~+e+g+e+e+e+e+e+e+e+e+e+e+e+e+d+d+d+d+e+e+e+e+e+e+e+e+e+e+e+g+e+e+e+e+e+e+e+e+g+e+g+g+g+e+e+e+e+e+d+d+d+d+d+d+d+d+d+d+d+d+c+c+~+~+E.K.z.B.D.r.r.r.O.r.D.`.z.C.w.'+8+_+(+:+q.C.p.;+,+;+,+)+)+{+8+b+^+^+(+:+L.N.W.Y.$+d.1 / 5 i N.L.:+U.L.N.N.W.++%+$+$+D A ( 1 ^ / 9 m 6 0 : %+++++++++++Z.Z.Z.%+%+%+$+#+d.@+e.&+/ | f.f.V.J.;+J.;+;+J.w.w.p.u.C.q.C.q.q.q.q.q.C.C.q.C.p.w.J.;+)+{+8+8+]+M. +U.U.T.T.[.[.++++~ 3 3 0.D b b b b g 2 g g P  .` X X &.G W Q @.I I @.Q V %.Z Z %.%.@.W ....F F F I ..Q ..V V X %.X X X %.%.Z <.Z  .Z 7.W 6.=.4.l.7.m.7+m.a.9.9.5.7.5.5.W W W 5.&.5.9.6.9.6.a.7+=.6.K m.7+M m.m.4.m.7+7+m.P x 8 '.A       -.0 -.0 0 ",
"0 0 0 0 0 0 0 0 0 0 0 0 0 0 0 0 0 0 0 0 0 0 0 0 0 0 0 0 0 0 0 0 0 0 0 0 0 0 0 0 0 0 0 0 0 0 0 0 0 0 0 0 0 0 0 0 -.J r   2.2.H.2.@ #.H.H.2.,., >.n.A.A.n.>.3 D 0.' N 0.3 - >.n.n.n.>.g 2 N >.n.|.b _ ) _ ( ( 2 b 2 g |.N >.3 3 3 3 |.N N N D 0.D 0.0.N N |.|.3 N b 0.2 ( 2 : } 9 ^ _ i _ ^ : t J r r J y s y C y y y >.F.F.I.T.0.A @+@+e.) j.B P R 1.2+3+X.X.X.X.X.1+1+}+}+}+}+}+1+X.4+m.3+X.1+a+c+e+e+e+e+e+e+e+d+d+e+e+e+e+e+e+e+e+e+e+e+e+e+e+d+d+d+d+d+e+e+e+e+e+e+e+e+e+e+e+e+e+d+d+d+e+e+e+e+e+e+e+e+e+e+e+d+d+d+d+d+d+d+d+d+d+d+d+d+<+K.K.z.B.t.`.D.r.r.r.r.D.D.t.B.q.p.;+'+]+_+:+[+ +B.p.J.;+;+;+,+)+{+{+{+]+b+_+(+:+L.N.Q.$+d.@+i | n A N.L.L.L.N.N.N.++++%+%+! D A ( 1 ^ } t ).6 d 2 ~ Z.Z.Z.%+$+$+! $+#+d.d.A A 1 e.&+/ | 5 f./ P.'+,+,+)+'+,+,+;+w.w.w.p.C.C.C.C.C.C.C.C.u.w.;+,+'+)+8+]+]+^+(+U.L.T.T.[.[.++++3 3 3 0.0.0.b b b b b g g b j X `  .` Y ..G I H H Q Q @.@.@.W 5.%.X V G T T F F I V ..*.V V X Z Z Z X X Z &.&.V V X <.8.9.a.=.=.m.a.6.9.4.4.4.a.a.W V Q W W V &.V W 6.a.a.K =.=.K 4.L =.6.I K =.F P y O 5+4+R J 8 1     q 0 7 0 0 0 0 ",
"0 0 0 0 0 0 0 0 0 0 0 0 0 0 0 0 0 0 0 0 0 0 0 0 0 0 0 0 0 0 0 0 0 0 0 0 0 0 0 0 0 0 0 0 0 0 0 0 0 0 0 0 0 0 0 0 -.        I.#.A.A.A.A.A.A., 3 n.A.A.n.|.|.j 2 g 2 l k k } 2 b 3 - n.n.|.1+n.|.>.n.g 2 : _ 2 8 k g b k b N ( b b 2 _ _ g 2 2 g 2 _ 2 _ g b N g N N 3 g 2 b k _ k t m 9 } } 8 7 r r 8 J J s r r 7 f e |.F.@ $ ++' @+@+e.^ q +.z y 1./.3+X.X.X.X.X.1+1+1+}+}+}+}+1+3+4+a.l.3+~+e+g+/+g+e+e+e+e+e+e+d+d+d+e+d+e+e+e+e+e+e+e+e+e+e+e+d+c+d+d+d+d+d+e+e+e+e+e+e+e+e+e+e+d+d+d+d+d+d+d+d+d+d+e+d+d+d+d+d+d+c+A.A.c+<+<+-+R.-+t.t.`.D.D.D.r.r.O.r.r.O.D.t.t.B.z.q.p.;+)+]+_+(+:+[+V.q.J.;+,+,+,+'+)+{+8+P.]+^+(+:+:+L.|+Z.%+d.@+^ | 6 ! N.L.L.L.N.N.W.++Z.%+$+! ' A ( i ^ } 8 ).6 (.( %+%+%+%+$+#+' ' ' A @+] 1 1 e.^ / | | f.f.] {+{+)+'+{+'+)+'+,+J.J.J.w.w.w.C.C.p.u.p.w.J.;+'+)+{+]+b+]+^+ +U.L.N.[.[.[.++++~ ! 3 0.0.N D b b b b b b b l G Y Y ` ` *.T G I I E E K I @.@.W 5.%.X Q H S E G ....I Q V X ` Z Z Z X X V T T ..&.` X ` 5.7.9.9.a.4.6.5.9.7.4.4.4.6.K G Q W V ....Q Q I F F B B E K 4.L K L =.L 7+4.4.L M R 5+4+j : 0.  8 0 0 0 0 0 0 0 ",
"0 0 0 0 0 0 0 0 0 0 0 0 0 0 0 0 0 0 0 0 0 0 0 0 0 0 0 0 0 0 0 0 0 0 0 0 0 0 0 0 0 0 0 0 0 0 0 0 0 0 0 0 0 0 0 j       I.  #.>.n.n.>.>.n.n.A.A.A.N n.n.N N b g g g /.y l l 3.b N N |.N N 3.X.1+N N |.N N j k k } 2 2 2 k k g : : } t u j j _ k 2 _ ( b ( b 2 k k l b g k _ _ k _ : : t 8 !.m 7 7 J 7 e z y f r s x y 3.h @ T.! @+1 e.^ 5 b.b.C O 1.2+3+X.X.X.X.X.X.1+1+1+1+X.2+2+3+3+6+5+c+e+g+g+e+e+e+e+e+e+d+d+d+c+d+d+d+d+e+e+e+e+e+e+d+d+d+d+d+c+c+c+d+d+d+d+d+d+d+d+d+d+d+d+d+d+d+c+c+c+c+c+d+d+<+<+<+R.R.-+z.-+B.B.B.B.B.B.t.`.r.r.r.r.O.r.r.O.r.D.D.t.t.B.z.q.C.u.J.,+{+b+_+(+:+[+|+o.p.,+,+,+,+'+'+)+{+8+]+b+_+_+:+[+|+W.Z.#+d.e./ 5 5 ++N.L.L.L.N.N.W.++++%+$+#+' A ( i ) } 8 8 f 0 ' %+~ %+$+d.d.d.A ] ] 1 1 1 e.^ / / | 5 n 6 Z.]+{+8+{+{+)+)+'+'+;+;+,+,+;+J.w.w.J.p.J.J.,+'+)+{+]+b+^+M. +L.N.W.[.++++++~ 0.0.0.0.D D b b b b b g b b g K ` ` Y *.*.....Q I I I K K K F F E E I Y E H H Q G S H Q V &.` ` X ......G T V Y Y V *.Y Y ` ` %.X @.@.@.@.9.5.W 4.a.6.5.V X V V W V W @.E F F Q Q I E P 4.6.=.L P 6.E M P P M O R } b     -.0 0 0 0 0 0 0 ",
"0 0 0 0 0 0 0 0 0 0 0 0 0 0 0 0 0 0 0 0 0 0 0 0 0 0 0 0 0 0 0 0 0 0 0 0 0 0 0 0 0 0 0 0 0 0 0 0 0 0 0 0 0 6       #.$ #.>.- N g g |.}+>.n.A.>.n.n.n.>.|.N l l k j R 1.3.|.|.3.l l l l 3.N g 1.O j g N |.g 2 k J x t J J u 2+1././.x j u u u j j j k : : _ j : 2 ( ( 2 _ _ 1 u u j t 8 7 7 8 x s y C e y y e C y y C y A.V.[.! @+1 i '.o b.+.C O 1.3+X.X.1+X.X.X.4+X.X.3+X.1+}+}+1+1+3+}+e+e+e+e+e+e+e+e+e+d+d+d+d+c+d+d+d+d+d+d+d+d+d+d+d+d+d+d+d+~+c+c+c+c+c+c+d+d+d+d+d+d+d+d+c+-+<+-+K.-+z.B.z.B.B.B.t.`.t.t.`.D.r.r.r.O.O.r.O.r.r.r.r.r.r.D.D.t.`.B.B.q.q.C.u.w.J.;+'+{+]+b+_+:+[+|+|+,+,+)+'+'+)+)+)+8+8+]+]+b+^+_+:+L.N.Q.Y.#+@+i | n } ++N.L.L.L.N.N.W.++++%+$+d.' A 1 i : } 8 ).-.-.0.~ %+! ' A A A ] ] 1 1 e.i ^ ^ / | | 5 n n W.^+b+]+]+8+8+8+{+)+)+)+'+)+'+,+,+;+;+;+;+,+)+{+8+]+b+^+M. +U.N.[.[.++++~ %+0.0.D D D b b b b b b b b N b z $. .` Y X &.X X 7.W Q Q Q G K I I ..V W F E G T S S T ....X  .&...V Y Y ....*.......X ` `  .<. . .5.6.@.W &.X @.W W K @.I V &.V ..V V Q Q Q &.V I I H E K @.4.K F B P =.4.P O 6+O 1.^         0 0 0 0 0 0 0 ",
"0 0 0 0 0 0 0 0 0 0 0 0 0 0 0 0 0 0 0 0 0 0 0 0 0 0 0 0 0 0 0 0 0 0 0 0 0 0 0 0 0 0 0 0 0 0 0 0 0 -.-.-.-.    #.A.A.>.>.>.n.N |.1+X.}+}+a+n.|.|.n.|.N g k t u y 4+4+X.1+1+1+1+1+3+2+3+l g 3.X.2+1.j g 3 |.g k g j x y e s /.R R y j u R x x u j u j u J 8 t : i ( ( _ ^ : : k /.j x x 8 8 m m x s z H E y y e e y z B n.V.[.#+@+1 ) 6 o b.+.y R /.3+X.1+1+1+X.2+m.6+1+a+a+~+~+a+a+~+a+~+d+d+e+e+e+e+e+d+d+d+d+d+c+~+c+c+d+d+d+d+d+d+d+d+d+c+c+c+c+~+~+c+c+c+c+c+c+K.R.-+-+B.B.B.t.D.D.t.t.D.D.r.O.O.G.O.O.O.G.O.r.r.O.O.O.G.r.r.r.r.D.`.`.t.t.t.t.z.q.C.C.u.p.w.J.,+'+)+8+b+_+(+:+:+|+|+W.)+{+8+8+{+8+{+{+8+8+]+b+_+(+(+:+L.W.Q.$+d.1 &+| 6 _ W.N.L.L.L.N.N.[.++Z.%+$+D A ] 1 [ ) 9 8 7 0 7 ! %+! ! D ' A A ] ( 1 1 1 _ ^ ) ) 9 9 !.6 n T.M.^+^+b+b+b+b+]+8+]+{+8+{+{+)+)+)+'+,+'+{+8+]+b+^+ +:+U.N.W.W.++%+%+! 3 0.0.D D D b b b b b b b b N N O ^. . . .Y Y  .%.V G I G ..V W W @.@.W W I v S T F w G ....Y Y ..T Y *.*...T T T ..Y X ` Z <. .Z  . .Z V W 5.Z V V ....Q Q ....V ............G F B E w E E E =.F =.L K E F E =.L M 1.3.(     6 6 0 0 0 0 0 0 0 ",
"0 0 0 0 0 0 0 0 0 0 0 0 0 0 0 0 0 0 0 0 0 0 0 0 0 0 0 0 0 0 0 0 0 0 0 0 0 0 0 0 0 0 0 0 0 0 0 7           n.n.A.A.A.>.>.>.n.A.n.1+a+a+a+}+1+}+1+|.1+3./.1./.1.3+}+}+}+}+X.1+1+X.X.X.X.3.3.3.N g j g g g N g N l x x C C O O R C y x C P R u u R u j u J J t J r r 8 t 8 t t } k j u x s J 7 J s y z y y E f s z B B B 1.V.[.$+@+i t d o D+b.y 1./.2+X.X.3+2+4+4+7+1+a+~+~+c+d+e+e+e+d+c+d+d+d+e+d+d+d+d+d+d+c+c+c+~+c+c+c+c+c+c+c+c+c+c+c+c+c+c+c+K.K.K.B.t.`.r.r.D.r.r.r.r.r.O.G.G.G.G.G.G.G.G.G.G.s.G.G.G.G.O.r.r.r.r.r.D.`.`.t.t.B.z.q.q.z.q.C.u.u.w.;+J.;+;+,+)+{+]+b+_+_+:+:+[+|+|+W.^+b+b+8+8+]+8+8+8+]+]+b+_+_+:+L.|+W.Z.#+@+e./ 5 6 A W.N.L.L.L.N.W.[.++%+$+#+d.A ] 1 ^ : } 8 ).0 r 0.%+$+! ' ' A ] 1 1 1 1 i i ^ ) : t h.n -.8 L. + +:+(+(+_+_+_+b+b+]+]+]+]+8+8+8+{+{+8+]+b+^+M.M.U.T.N.W.++++%+0.0.D D D D b b b b b b b b N N N N R  .;.`  .` Y ..T S S Q V ..@.V @.F F I Q G w H S H w G G ..Y ..G *.Y *.*.+.G I T ....+...*.Y `  . . .` ` @.Q ` ..Q ..Q Q @.G Q Q *...T T T T S E H H w v B C =.E =.I F K W @.I 4.P M O k !     d -.0 0 0 0 0 0 0 ",
"0 0 0 0 0 0 0 0 0 0 0 0 0 0 0 0 0 0 0 0 0 0 0 0 0 0 0 0 0 0 0 0 0 0 0 0 0 0 0 0 0 0 0 0 0 r           n.>.|.n.n.>.>.>.1+A.n.X.N |.1+}+1+}+1+X.1+3.|.1+X.1+}+1+}+1+|.|.3.X.X.|.3.3.3.3+/.3./.l N g g 2 2 2 l 2 3.u u y z E =.P B R y P y s x J r J f J J s e C x u u u 8 u j 8 u u R R s s x x s f t r r y z C C B B B B |.U.%+@+) n k.~.j.b.B /.2+2+2+3+X.1+}+}+X.a+~+~+d+e+e+e+d+d+d+c+c+d+d+d+d+d+d+d+c+c+c+c+~+a+~+~+~+c+c+c+c+c+-+K.K.B.t.D.D.r.r.O.O.G.s.s.G.G.G.G.G.G.s.G.G.G.O.G.s.G.O.O.O.O.O.O.r.D.D.t.B.B.B.B.B.q.q.C.C.C.C.u.u.u.p.p.w.J.J.,+'+'+)+)+{+]+b+_+_+(+:+L.[+|+W.Q.Q.M._+(+b+b+]+]+8+]+b+b+_+(+(+:+L.|+Q.$+d.@+&+| n 6 ! W.N.N.N.N.N.W.W.Z.%+$+#+d.A ] 1 ^ : t 8 6 d 8 0.! ! 0.' A A ] ( 1 1 1 _ _ ^ ) } 9 5 n -._ T.T.L.L.U.:+:+(+(+(+_+b+^+_+b+b+b+b+^+^+^+M.M. + +U.N.W.++++%+! 0.D D D b D b b b b b b N b N N N N k &.;.;. .Y *.T T T G G Q V %.W @.W &.X V I F H F H w H ....*.G S ....+...S H ..*.+.....*.Y Y ` Y Y Y ` &.&.W Y Q Q I G Q G Q G T T T T B+S C+w w C+H w q z z B P G E I 4.Q @.F L y 1.1./.b       ).H v 0 0 0 0 0 0 ",
"0 0 0 0 0 0 0 0 0 0 0 0 0 0 0 0 0 0 0 0 0 0 0 0 0 0 0 0 0 0 0 0 0 0 0 0 0 0 -.0 0 0 0 -.            >.|.|.|.|.|.|.N |.|.N 3.3.3.3.3.|.X.1+X.3.3.3.X.|.1+1+|.|.N g g 3.3.3.3.3.3.3.3+3+2+3+2+2+l g 2 _ g g g g l l l l j R B L O s y O z y s x s f J x r u u u /.j u r f s 8 s s x x O s x y r J J r r y e d B E B E H H L $ [.{ ^ 5 k._.}.b.S 2+2+4+4+}+a+~+a+}+1+a+~+c+e+e+e+d+d+d+d+c+c+c+c+d+d+d+c+c+c+~+~+~+~+a+~+v.K.K.K.z.B.B.t.`.r.O.G.s.s.G.G.s.s.G.G.G.G.G.O.O.O.O.O.O.r.r.r.r.D.`.t.t.t.t.t.B.z.z.q.q.C.u.u.p.w.w.w.J.w.J.J.J.;+;+;+J.;+'+'+)+{+{+8+]+b+b+_+_+(+:+L.L.L.|+W.Q.Q.L.b+:+:+(+_+]+]+_+_+b+_+(+:+L.N.Q.Z.$+@+e./ | n ).%+W.N.N.L.N.N.W.++Z.Z.%+$+d.] ( 1 ^ } 9 8 6 d } 0.%+! ' A A ] ( 1 1 i 1 _ _ [ : } 8 m 6 -.( [.[.W.W.N.N.N.L.:+:+:+ +(+(+(+ +(+ + + +U.L.T.T.T.[.[.++Z.! 0.D D D b b b b b b b b b b N N N N N l &.$.;.` Y *.....Y &.X V I G @.W Q V Y ..G E S E H H I ..+.T S S T S +.S H G ..T B+S S T +.+.*.*.Y ..G G Q I G ..@.K K I G G ..T B+U U B+D+w C+C+C+w z B B B B F L @.I B H K L M M O y /.N A A D 7 0 0 0 0 0 0 0 0 0 ",
"0 0 0 0 0 0 0 0 0 0 0 0 0 0 0 0 0 0 0 0 0 0 0 0 0 0 0 0 0 0 0 0 0 0 0 0 0 j       r J           n.|.|.|.|.N N |.3.N N N N g u /.3.3.j R R /.R 5+3.3.3.|.N N 3.g g g l g 3.l /.2+/.l /./.1.6+2+2+/.k k _ : k : 3.X.l k l g j s s x s C y s e e s 7 r 8 s r J u x J s s y C 7 q d C s P O 2+y z z z z d d p w z F K F E F K 3 T.! 1 5 (._.}.U {.7+4+4+X.a+~+a+a+}+}+a+~+d+d+e+d+d+d+d+c+c+~+c+c+c+c+c+c+~+~+~+v.E.K.E.z.z.B.t.D.D.D.r.r.r.D.O.G.G.G.O.O.O.O.O.r.r.r.D.`.t.t.t.`.t.t.B.z.q.q.q.q.q.u.p.p.w.w.w.J.;+;+;+,+,+'+)+'+'+'+'+'+'+'+)+)+)+)+{+8+8+]+]+b+_+_+(+(+(+:+L.L.L.N.N.W.Q.Z.W.b+[+[+[+:+(+_+_+(+(+(+(+:+L.W.Q.Y.d.@+e./ | 6 8 %+W.N.N.N.N.N.W.++Z.%+$+#+d.A ( 1 ^ } t m 6 d _ 0.! ! ! A A ] ( ( 1 1 _ _ [ : : } t m 6 f b %+++++++W.W.N.N.N.N.N.L.L.U.U.L.L.L.L.N.N.[.[.[.++++~ 3 0.D D ' b b b b b b b b b b b N N N N N g W ^.$. .Y Y  .` V Q I H H F G ..` ` ` Y *.w S w w w T T S C+w U S S T H C++.T S S T T *.......V V ..Q I I K F K K 4.=.@.X Y T T T T T B+T G G H w v v E K K K E E E K =.B P P y x u /.l 3.N {     t 0 0 0 0 0 0 0 0 0 ",
"0 0 0 0 0 0 0 0 0 0 0 0 0 0 0 0 0 0 0 0 0 0 0 0 0 0 0 0 0 0 0 0 0 0 0 6 j j #.          , $ #.A.>.|.N N 3.N N l l N N N 2 2 N l k l 3.g l l 3+X.3.3.3.N g N N g g l l l 3.3+X.3+3+3.3.3.3.3.3.3.3.l j t 8 j t k g l g g l g l x f z y C z z B y y r 6 7 8 f f s y R R 1.y J e v q C y s /.R z B q v v p z H I F E E E F F j  +%+1 9 -._.o j.b.6+1+}+}+a+~+a+a+a+}+a+c+d+d+d+d+d+d+c+c+~+~+~+c+c+~+~+~+K.K.z.B.B.t.t.t.`.`.D.D.D.D.D.`.t.B.t.r.r.r.`.`.`.t.t.B.B.z.z.q.C.u.C.u.u.p.p.w.J.J.J.;+,+'+o.'+'+o.o.o.)+P.{+)+{+{+{+8+{+8+8+{+{+{+8+8+{+8+8+b+b+b+b+_+(+(+(+:+:+L.L.N.N.N.N.W.Z.Z.Z.:+:+[+|+[+[+:+:+:+:+[+:+L.N.Q.Y.#+@+e.&+/ 5 0 : Z.W.N.N.N.N.N.W.Z.Z.%+$+#+A A ] 1 ^ } t ).f d 2 0.! ! ! ' A ] ] ( 1 i _ ^ ^ ) : } 8 ).6 -.A ! %+Z.++Z.Z.Z.++++W.W.W.W.W.N.W.W.W.W.++++Z.%+%+! D D D D A b b b b ( b b b b b b b N N N N N g @.^.^.^. . .` ` *.....Q ..*.` ].].Y ].*.+.w H w w v U U w w w C+w C+C+C+C+j.H S S B+B+S B+T ..*.V ..Q @.@.Q 4.=.=.7+P F @.Y *.+.G B+T T T B+H H G H F E B L z E E E Q F E z O u x x /.l g ( A       7 -.0 0 0 0 0 0 0 0 ",
"0 0 0 0 0 0 0 0 0 0 0 0 0 0 0 0 0 0 0 0 0 0 0 0 0 0 0 0 0 0 0 0 0 0 f f       , ,     ,.>.|.N |.X.1+/.l 3.3.g 2 g N b 2 : l g 2 _ 3.X.N N |.X.X.3.N N N N N 3.N N 3.X.X.1+X.3+X.2+3.3.3.3.3.N N g u t t J u t t k k k 2 g g b j J u s z d v e e f d d d d C O O M /.1.u O J f H v z B E L y s d z e y C y e y y B B w E F F M.++A '.6 a o j.b.X.}+}+a+a+~+a+a+a+}+a+c+c+d+d+d+c+c+c+~+~+a+~+v.K.F.z.B.t.`.`.`.t.`.t.t.t.t.t.B.B.B.B.z.q.q.z.z.z.t.B.q.q.C.u.p.u.u.p.J.;+,+,+,+'+o.o.P.P.P.P.P.V.V.P.V.^+V.^+V.P.P.P.P.]+]+]+]+]+8+]+]+]+]+]+]+b+b+b+_+_+(+_+(+(+(+:+:+L.L.N.N.N.W.W.Q.Y.Y.%+Z.(+[+|+|+|+|+|+|+|+|+N.N.W.Q.#+.+@+e./ | 5 k.2 Z.W.N.N.N.N.[.W.Z.Z.%+#+#+d.A ( 1 ) } t ).f d A 0.0.! #+' A A ( ( 1 1 _ _ ^ : } t 8 ).-.-.A ! ! $+$+$+$+%+%+%+Z.Z.++Z.Z.Z.Z.++++%+%+$+' d.A A ( ( ( ( ( ( b b b b b b b b b b N N N N N g F ;.;.;.$.$.$. . . . . .$.$. . .` ].Y +.T w H U H v C+j.o v j.}.j.D+j.D+j.}.w C+B+T T T T ..T T ..*.W @.W %.%.X G @.K K +.+.T B+G T G H w H S H w v E K @.G I ..B+G I H B C v C s y s u l ( ( A     t 7 0 0 0 0 0 0 0 0 0 ",
"0 0 0 0 0 0 0 0 0 0 0 0 0 0 0 0 0 0 0 0 0 0 0 0 0 0 0 0 0 0 0 0 0 0 j j k   , ~ 3 >.|.3 3 N >.|.N l g N N N b g k : g g g g l l : } j k k 3.3.l 3.g g l g g 3.g 3.3.3.X.X.X.1+1+X.1+X.X.2+l 2+j l j J r u u J j j j k k k k g N j u x O C y e C H w v d p v z B y 1./.j O f q E F L B F F K E e r 7 f e e d z z z E E F E F < [.A : n d o }.U 1+}+a+a+~+a+a+a+}+1+a+~+c+c+c+c+c+~+~+~+v.h z.B.t.t.`.t.D.`.t.B.z.q.q.q.q.q.z.q.C.C.u.u.p.p.p.p.p.p.w.;+,+o.o.o.P.P.V.P.P.V.V.V.V.^+^+M.M.M.M.M.M.M.M.M.^+_+_+_+^+^+^+b+b+b+b+b+b+b+b+b+b+b+b+_+_+_+(+:+(+(+:+:+:+:+L.L.L.N.N.N.W.W.W.Z.Y.%+%+$+N.[+|+|+|+|+Q.Q.Q.Q.Q.Q.Y.#+.+@+e.e.) | 6 (.A Z.W.N.N.N.N.W.++Z.%+%+#+#+d.A ( 1 ^ } 8 ).0 f D 0.! ' d.' A ] ( 1 1 1 _ _ [ : } t 8 7 -.f A ' ' ! #+d.#+#+#+#+#+$+$+$+$+$+$+! ' ' d.A ] ] ( 1 1 ( ( ( 2 ( 2 2 ( b b b b b b N N N N N g K ].].].;. .$.^.^.$.$.$.$.;.;.;.].Y *.+.+.S U +.S }.j.}.o }.j.}.D+U B+U +.T *.*.V Y Y Y X &.` ` X ` ` Y Y ..*.Y V X &.&.V +.T +.T ....T G G K I G K H H I S S U w v I G v C B H z s e r k _ _ D       r 0 0 0 0 0 0 0 0 0 0 ",
"0 0 0 0 0 0 0 0 0 0 0 0 0 0 0 0 0 0 0 0 0 0 0 0 0 0 0 0 0 0 0 0 0 0         $ >.>.>.|.3 >.3 b b ( b b b g 2 2 2 j u /.X.3.l } j j j j 7 8 u k l 3.g g 3.k l l 3.3.3.l /.3.3.3.1+2+3.N X.N 3.l g g k x x J u x j u R R l /.k l g g j j r s B C B z z d e p p e y y y j x y f f f E F L E Q 6.4.E E q e d q d q v v E E F F F N T.' [ 8 d o j.D+1+a+a+a+~+a+a+a+}+1+a+~+c+c+c+c+~+v.E.z.z.B.t.D.`.t.t.B.z.z.q.q.u.u.p.p.w.w.w.J.;+;+o.'+o.o.o.o.P.V.V.V.M.M.M.M. + + + + + + +M. + + + +:+:+:+ + +:+:+(+(+(+(+(+(+_+_+_+_+_+_+_+_+_+_+_+(+(+(+(+(+(+(+:+:+:+:+:+L.L.L.L.L.N.N.N.W.W.Z.Z.Y.$+$+#+$+L.[+|+|+Q.Q.Y.Y.Y.Y.Y.S..+.+@+*+i ) 9 6 -.d.Z.W.N.N.N.N.W.++Z.%+$+#+d.d.A ( _ : } 8 7 e r D ! ! #+' ' A ] ( ( 1 1 1 _ _ : } t m 6 0 f ' ' d.' ' A A A d.d.A d.d.d.A d.d.' A A ( ( ( ( ( _ _ 2 2 2 2 2 2 2 2 2 ( b b b b b N N 3 g I ;.` *.Y ].`  .$.^.$. .;.;.;.;.;.].].{.+.*.+.B+D+}.}.o }.B+b.B++.B+b.T ..T U +.*.Y  . .` ` Y Y Y Y ` ` Y Y Y *.*.*.+.+.+.*.Y *.B+....*...Q Q W I I G G T H w w w w G Q S B B E B q f r 8 } _ A       e 0 0 0 0 0 0 0 0 0 0 0 ",
"0 0 0 0 0 0 0 0 0 0 0 0 0 0 0 0 0 0 0 0 0 0 0 0 0 0 0 0 0 0 0 0 0 0 7     $ ,.< 3 3 3 3 D N b 2 : 8 8 7 x x J k g 3.N 3.N g k k } t t u u u J j k l l l t t j /././././.1.R 1.3+2+/.l l l k j u 1.R O y u u s x u x R 1./.R x k g g g k t r C y s C e p v d w w B C u s z x 7 f F 4.M 4.F 4.6.K I v B p v q p B F H v v B z N T.' _ 8 e p }.U 1+a+a+a+a+a+a+a+}+1+}+a+~+~+v.h C.z.t.t.t.B.B.B.z.q.q.q.C.u.w.J.;+,+,+)+P.P.P.V.^+^+M.M.M.M.M.M. + +:+ + +U.L.L.L.L.L.L.L.L.L.U.L.L.L.L.L.L.L.:+:+:+:+:+:+:+(+(+(+(+(+(+_+_+(+(+(+(+(+:+:+(+:+:+(+:+:+:+:+:+:+L.L.L.L.L.N.N.W.W.W.Q.Z.Z.%+$+$+#+d.#+[+|+|+Q.Q.Y.Y.Y.Y.S.S.d..+@+@+e.) 9 n !.! Z.W.W.N.N.W.W.Q.Z.%+$+$+#+d.] ( _ : } 8 7 d t D ! $+#+' A A ] ( 1 ( 1 _ _ _ : } t m 6 e f ' ' d.' A A A ] ] ] ] ] ] ] ] ( 1 ( 1 1 ( ( ( 2 _ _ _ 2 2 2 _ 2 _ 2 2 2 b b b b N N N |.l G *.{.*.*.*.*.*.` ;.$.$.;.;.;.;.;.;.;.;.` *.*.B+B+U o o U +.*.*.+.T *.].+.B+S U U U U +.*.*.+.+.+...B+U D+C+j.j.j.}.o o }.H C+T Y *.U S G G G G Q V +.T B+w o w v w H G G G F E v C e e ).} 1 1         -.0 0 0 0 0 0 0 0 0 0 0 ",
"0 0 0 0 0 0 0 0 0 0 0 0 0 0 0 0 0 0 0 0 0 0 0 0 0 0 0 0 0 0 0 -.-.0 0 8   ~ ~ 0.0.3 0.2 _ k } : } 8 r f y y O /.3.3.g g g 2 k j t J 8 J J u J 8 j j j j u 7 x u R y x u 1.O M 1.4+O O O O 1.1.u 1.R M R 1.J u 1.1./.R M R 2+R 1.l l l g _ k t 8 7 s y e e q v q z p z y y e d d v B P B K L =.K @.K @.I H H G G K F E E w w b < ' : m e p j.b.1+a+a+a+a+a+a+}+}+1+}+A.2.u.q.z.B.t.t.z.q.q.q.C.u.p.p.w.J.,+)+{+P.^+^+M.(+ +:+ +:+ +L.L.L.U.U.U.U.L.L.L.L.L.N.N.N.N.N.N.N.N.N.N.N.N.N.L.L.L.L.L.:+L.:+:+:+:+:+:+:+:+(+(+(+(+:+:+(+:+:+:+:+:+:+:+:+:+:+:+:+:+:+L.L.L.L.N.N.W.W.W.Z.Z.Z.%+%+$+#+d.A ] $+[+|+|+Q.Q.Y.Y.S.Y.S..+.+@+@+e./ | n t d.Z.W.W.W.N.W.Z.Z.Z.%+$+$+#+' ] 1 _ : } 8 6 d } ' ! $+#+' ' A A 1 ( ( 1 _ _ : : } t m 7 e f ' ' A A A A ] ] ( 1 ( 1 1 1 1 1 1 1 1 ( ( ( 2 _ 2 _ 2 2 2 _ k _ _ _ 2 2 b b b N N N 3 1...].].{.*.*.......+.Y ` ` ;.;.;. .$.$. .;.;.Y *.].+.C+B+*.T G F F S D+D+B+H C+w C+U +.+.T +.+.+.+.*.+.T T +.U D+D+S j.}.}.U U b.U +.*.T B+S S G Q X ..+.C+w w H w w F ..T H G F v d f e 8 '.( !   t   6 0 0 0 0 0 0 0 0 0 0 0 0 0 ",
"0 0 0 0 0 0 0 0 0 0 0 0 0 0 0 0 0 0 0 0 0 0 0 0 0 0 0 0 0 0 -.6 7 0 0 7   [.0.N 2 ) ^ } t m 8 r J J J j /.2+2+3.l g g 2 _ _ : t t r J J x x x y r 8 u x x J s x x O P z C s L F M M =.P P P 1.O 1.2+2+1.O R R u 1.1.1.4+/././.u j l k l k : k t 8 u e q e v Q F E E E d d v w q C E H F K F K K K K I @.&.%.W G K E =.E E E b [.b : ).e p w B+X.a+a+}+a+a+a+}+}+A.H.p.q.z.B.B.B.B.q.u.u.p.w.J.;+,+)+{+P.b+^+(+(+:+:+[+N.N.|+N.N.N.N.W.W.N.N.N.N.N.N.W.W.W.W.W.W.W.W.W.W.W.W.W.W.N.N.N.N.N.N.N.L.L.L.L.L.L.:+:+:+:+:+:+:+:+:+:+:+:+:+L.:+:+:+:+:+ +:+:+:+:+L.L.L.L.N.N.W.Q.++Z.Z.Z.Z.%+$+#+d.d.@+@+@+$+[+|+|+Q.Y.Q.Y.Y.S.#+d..+@+e./ 9 n } #+Z.Q.W.W.Q.W.Q.Z.%+%+#+#+D A ] 1 ^ : t m 6 d : ' $+! #+#+' A A ( ( ( 1 _ _ _ : } t m 7 e f ' ' A A A A ] ] ( 1 ( ( 1 1 1 1 1 1 1 ( ( 2 2 2 2 2 2 2 k _ k _ k 2 2 2 b b b N N N P ;.;.;.;.` ` ].].*.*.*.+.+.Y Y Y ` ;.` ` ` ;. . .` Y +.Y  . .^. .V Q T T B+D+D+j.U U v j.U B+B+U +.+.+.T B+S D+o o }.j.D+j.C+j.}.C+U D+S G G S H H S H w w v v w v H ..G T G H F z e d d e t 1 D : 0 0 0 0 0 0 0 0 0 0 0 0 0 0 0 0 0 ",
"0 0 0 0 0 0 0 0 0 0 0 0 0 0 0 0 0 0 0 0 0 0 0 0 0 0 0 0 0 0 0 7 (.s -.:   < 3 N b _ : j k k j j u /./.2+3.3.g l g 2 j t u 8 8 8 7 f f y x s x J s x r 7 s f s y s O M L E P 5+6+M 5+O B M R 4+2+2+1./.R R O O x R 2+5+M 1.l l l l g k k k k : ^ / ^ } 8 s z z z H =.v v v T H o p v H E z E E 4.Q Q Q I F E K 4.B z z B B B g ++( } 7 e p H U 2+a+a+}+a+a+}+A.2.p.q.z.z.B.z.q.q.u.p.J.,+'+)+P.]+^+^+(+(+:+:+L.[+|+N.|+|+W.Q.Q.W.Q.Q.Q.Q.W.W.Q.Q.W.W.W.W.W.W.Q.W.++Q.Q.Q.Q.W.W.Q.W.W.W.N.N.W.N.N.L.N.N.L.L.L.L.L.L.L.L.L.L.:+L.:+L.L.L.:+:+:+:+:+ + +:+:+:+L.L.N.N.N.W.W.Z.Z.Z.Y.%+$+$+#+#+d.@+@+@+1 i d.[+|+Q.Q.Q.Y.Y.S.S.d..+@+1 ^ / !.) d.Z.Z.Q.Q.Q.Q.Z.Z.%+%+$+#+' A ] 1 ^ : t m f d _ ' ! %+! 0.' A ] ( ( 1 1 _ _ _ : } 8 m f d r ' D A A A ] ] ] ( ( 1 1 1 1 1 1 1 1 1 1 2 2 2 2 2 2 2 k k k : k k 2 2 g b b N N 3.6.$. .;.;.;.;.;.;.].].].].].*.*.Y *.Y *.*.Y ].].].Y Y +.*.].].].` ].Y Y *.B+B+Y +.U j.U U w U U b.b.b.+.*.*.+.T S o p ~.~.o w D++.+.B+D+B+U T Q ..+.+.T C+j.w v ~.w w w C+w p z B d d e 0 f 8 ) 1     q -.-.0 0 0 0 0 0 0 0 0 0 0 0 0 0 ",
"0 0 0 0 0 0 0 0 0 0 0 0 0 0 0 0 0 0 0 0 0 0 0 0 0 0 0 0 0 0 0 7 f   8   = 0.|.1+x u 8 j k l /././.4+2+2+/.l 2 k j } t t u J r 7 f e d z C C C x y f e 7 r s y y M y M 7+=.=.5+1.1.4+R 4+5+1.3+3+5+1.4+M 5+M O y O 1.2+4+5+1.l g /.J k l k 2 : 8 7 e 6 7 7 7 -.q B B v P z B I T w w E E H E I K @.7.&.W I I K F B z C q v F g 3 ( } 7 e p w S 5+a+}+}+}+A.;+p.C.q.z.z.z.q.C.w.J.,+)+{+]+b+_+(+:+:+:+[+|+|+|+|+Q.Q.Q.Q.Q.Y.Y.Y.Y.Y.Z.Y.Z.Z.Z.Z.Z.Z.Z.Z.++Z.Z.Z.Z.Z.Z.Z.Z.Z.Z.++++++Q.W.W.W.W.W.W.N.N.N.N.N.N.N.L.L.L.L.L.L.L.:+:+L.L.:+:+:+:+:+:+:+:+U.L.L.L.N.N.W.W.Z.Z.Z.Z.$+$+$+#+$+#+d.d.@+@+1 e.e.^ 1 Q.[+Q.Q.Q.Y.Y.S.#+d.d.] 1 ^ 9 ^ d.%+Z.Z.Q.Q.Q.Z.Y.%+$+$+#+d.A ] 1 i : 8 m f d 1 #+$+%+! D ' A ] ( ( 1 1 _ _ : : t 8 m f d J D ' A A A A ] ( ( ( ( 1 1 1 1 1 1 ( ( ( 2 2 2 2 2 k k k : k _ _ k 2 2 g b N N N 1.:.^.$. .;.` ;.;.;.;.].].].].].].` ].].Y *.*.{.*.{.].+.*.*.{.+.+.B+U B+B+B+B+T +.Y Y +.B++.T U j.C+o }.j.}.w v w j.j.}.}.}.}.j.}.j.D+U B+b.B+U B+U D+C+}.o ~.~._.p p w w w w B z d p d e f t 1 {         v p 0 0 0 0 0 0 0 0 0 0 0 0 0 0 ",
"0 0 0 0 0 0 0 0 0 0 0 0 0 0 0 0 0 0 0 0 0 0 0 0 0 0 0 0 0 0 0 -.      - ~ N N k j /.g 3.g l 3.3.l l 3.l g k } } : } j t 8 r x y C P C C M O P y y s y C f y y y y C P M L M 5+2+2+2+5+6+4+O M 5+3+4+6+=.P O O O O 1./.l /.1.R u l j u j k k 2 k J e e d -.e p p w H B C P 6.9.K S C+w w K 4.F 4.a.9.@.9.@.F E B v v B B E I - 3 ( : r e q w S L }+}+A.,+w.u.C.q.q.z.q.C.p.J.'+{+^+_+^+(+:+[+[+|+|+Q.Q.Q.Q.Q.Q.Y.Y.Y.Y.Y.Y.$+$+$+%+%+$+%+$+%+%+%+Y.%+Z.%+%+%+%+%+Z.%+%+Y.Z.Z.Z.Z.Z.Z.Z.Q.++Q.W.W.W.W.W.W.N.N.N.N.L.L.L.L.:+:+U.:+:+:+:+:+:+:+:+:+L.:+U.L.N.N.W.W.Q.Z.Z.Z.Y.$+$+$+$+$+#+d.d.@+@+1 e.e.^ ^ ) ) #+|+|+Q.Y.Y.Y.$+#+d.@+@+i ^ 1 #+$+Z.Z.Z.Z.Z.Y.Y.$+$+$+$+d.A ] 1 ^ : t m 0 d ( #+! ! $+#+' A ] ( ( 1 _ _ ) : : t 8 m f d t D ' A A ] ] ] 1 ( ( 1 1 1 1 1 1 ( ( ( _ 2 2 2 2 2 l l k } : k k k _ 2 g N N g g 1.c.:.^. . .;.`  . .;.;.;.;.].].].].].;.` ;.;.;.*.+.B++.*.+.+.Y Y +.{.+.B+B+b.b.+.*.*.+.U C+w S D+C+U D+j.C+w q p p o b.U b.U U b.b.j.D+j.}.o j.D+}.o p _.d (.d q q q q d d d e q v p v s 8 ) A       6 q 0 d 0 0 0 0 0 0 0 0 0 0 0 0 0 0 ",
"0 0 0 0 0 0 0 0 0 0 0 0 0 0 0 0 0 0 0 0 0 0 0 0 0 0 0 0 f r J     , - D b b l l l 3.l 3.l /.l g g N b b k t r f e 8 8 u u u u 1.1.1.1.R O O O P s x y z y e C z C P R 1././.2+/.2+/.4+5+4+5+5+5+6+7+4.m.5+K =.M 2+R 1./.g 3.l R u l j t j l 2 k t 8 f (.p C B S G w C C =.6+6+7+K C+T E E I I 9.9.6.6.@.@.K L B E v H w F P U.- D 2 t f q v S =.n.;+J.p.u.C.u.C.C.u.J.,+)+P.^+(+:+:+[+|+|+|+Q.Q.Q.Q.Q.Y.Y.$+Y.$+$+$+$+#+$+$+$+$+$+$+$+$+$+$+%+$+$+$+%+%+%+%+%+%+%+%+$+$+%+%+%+Z.Z.Z.Z.Z.Z.Z.Q.Q.W.W.W.W.N.N.N.N.L.L.L.:+:+:+:+:+:+:+:+:+ +:+:+:+L.L.N.N.N.W.W.Q.Z.Z.Y.$+$+$+#+#+$+#+d.A @+@+1 1 e.e.&+^ / / 9 ) $+Q.Q.Y.Y.$+#+d..+@+] 1 @+#+$+Y.Y.Z.Z.Z.Z.Y.$+$+#+#+d.A ( i ^ } t m 0 f A #+%+! $+#+d.A A ( ( 1 _ _ [ ) : } 8 7 f q } D D ' A ] ] ( ( ( 1 1 1 1 1 1 1 ( ( ( _ _ _ k 2 2 l l k j 8 : k k : 2 g l l g g 1.9+c.:.:.^.:.9+^.^.:.^.:.c.:.^.^. .].].*.].].Y Y ].+.B+D+j.}.}.}.j.U U +.b.B+B+B+B+T S +.*.+.U U S U S +.*.T ....B+j.U j.U U b.b.b.b.b.b.j.j.}.o ~.p p ~.v q ~.q f e q p z p q d p d e f t A !     f 7 0 0 0 0 0 0 0 0 0 0 0 0 0 0 0 0 0 ",
"0 0 0 0 0 0 0 0 0 0 0 0 0 0 0 0 0 0 0 0 0 0 0 0 0 0 0 0 -.      , |.N g k k l l 3.l 3.l j j j j u u j j j j u J J u u t 7 f f e x O y C P B z P P y y M B C d C z P P M R R R R R 1.5+4+1.2+1.O O O P B L =.P =.P M R 1./.l 3.l l j /.u 8 k k k k j J e y B G Q z B p G H 4.F I G G K E H E F I 6.@.@.5.W @.@.K K S H F I g  +[.3 b k J e z 3.H.p.p.p.u.u.p.w.J.;+'+{+P.^+(+:+L.[+|+Q.Q.Q.Y.Y.Y.Y.$+$+$+$+$+$+#+#+#+#+#+#+#+$+#+#+#+$+$+$+$+$+$+$+$+$+$+$+$+$+$+$+$+$+%+$+%+%+%+Y.Z.Z.Z.++++Z.Q.Q.W.W.W.N.N.N.L.L.L.L.:+:+ + + + +:+:+:+ +:+L.L.L.N.N.N.W.Q.Q.Z.Z.Y.Y.$+$+#+#+#+d.d.d.@+@+1 e.e.e.^ / / '.'.9 9 9 '.A Y.Q.Y.S.S.#+d.d.] @+#+Y.Y.Y.Z.Y.Z.%+$+$+#+#+#+d.A ] i [ : t m 0 7 A $+$+$+$+#+' A A ] ( 1 1 _ _ : } } 8 7 f d : D D D A A A ( ( 1 1 1 1 1 1 1 1 1 ( 2 _ _ _ k 2 2 l l l j f 8 } } t u j k l g N 1.9+9+c.c.c.^.$.:.c.c.c.c.:.^.$.$.$. .;.` ;.].*.*.Y Y *.+.B+S C+U S B+T *.+.B+B+T U D+B+D+D+U b.{.B+*.*.;.^.Y ;.;.;.*.{.{.{.{.{.{.b.b.j.}.j.o }.B+T G Y Y B+V Q v v H v C v v p v v f f : ' ) t 6   7 0 0 0 0 0 0 0 0 0 0 0 0 0 0 0 0 0 0 ",
"0 0 0 0 0 0 0 0 0 0 0 0 0 0 0 0 0 0 0 0 0 0 0 0 0 0 0 0 0     < |.b N g l g l g l k k k j j j r j J r r u 8 u J J r x x f d e s M C B z L =.L L L =.C C L =.z B z M s x R R x O P R 1.O O M M O y O O 1.O M M 5+O O R O O /.k k g g l /.x J k 2 2 } 8 j s B S E E f w +.Y *.+...G Q F S E E F K K I @.I I I I I E S H E H -  +T.< 3 b l |.& q.p.p.p.w.w.J.;+'+)+P.^+(+(+:+|+|+Q.Q.Y.Y.Y.Y.$+Y.$+$+$+$+#+#+$+#+#+#+#+#+#+#+#+#+d.#+#+#+#+#+#+#+$+$+#+#+$+$+$+$+$+$+$+$+$+$+$+$+%+%+Z.Z.Z.++++W.W.N.N.N.N.N.L.L.L.L.:+:+ + + + + + +:+:+:+:+L.L.L.N.N.W.W.W.Q.Z.Z.Z.$+$+$+$+$+#+d.d.@+@+@+1 e.e.e.^ ^ / / '.| 9 9 9 h.5 5 '.1 @+d.d.d.d.@+@+#+$+Y.Z.Y.Y.Z.Y.$+$+$+#+d.d.A ( 1 [ } 8 ).e 8 A $+%+$+$+#+d.' A ] ( 1 1 _ _ : } t 8 7 e d : ' D D A A A ( ( 1 ( 1 1 ( 1 ( ( 1 ( 2 _ k _ 2 2 l l l l k z q d e s u j l g g N 1.9+0+9+:.c.9+c.:.^.:.c.9+9+c.:.^.^.^.^.$.` Y V Q G T C+U D+B+].+.+.*.+.T +.+.T U D+U U b.+.{.].].{.{.].;.;.;.].].].].{.].].;.].U }.o o o o j.+.*.B++.Y T V V %...G T T G w w w p f 7 : (     -.0 0 0 0 0 0 0 0 0 0 0 0 0 0 0 0 0 0 0 0 0 ",
"0 0 0 0 0 0 0 0 0 0 0 0 0 0 0 0 0 0 0 0 0 0 0 0 j 0 f d t   #.- b 2 2 l g l l k j j u u 8 r e z s R R u u R s u J u x s s u 1.R s M P =.E K G V H K @.C B L =.E B B M O R 1.y B C s s s x x O P E L O 5+1.1.5+1././.1.1.R u j u j k k k j 8 t j l 2 k J s J j u y v B+B+Q T T T G w w w v H Q I I @.@.@.V Q @.I G G H H w * V. +U.U.#.E.z.C.w.w.w.J.;+,+)+8+]+^+(+:+[+|+|+Q.Q.Q.Y.Y.$+S.S.S.#+#+#+#+#+#+#+#+#+#+#+d.d.#+#+#+#+#+d.d.d.d.#+#+#+#+#+#+#+#+#+$+$+$+$+$+$+$+$+%+%+%+Z.Z.++++++W.W.N.N.N.L.L.L.L.:+:+ + + + + + +:+:+:+U.L.L.L.L.N.N.W.W.W.Q.Z.Z.Z.Z.Y.$+$+#+#+d.d.A @+@+@+e.1 e.e.^ ^ / / / 9 9 9 8 9 h.5 5 !.6 6 6 -.e a k+f.#+$+Y.Z.Y.Y.Y.Y.$+$+$+#+#+d.A ] i i : t ).d 8 ' ! %+$+! ! ' ' A ] ( 1 _ _ [ ) : t 8 7 e d _ ' D ' A A ] ( ( ( ( 1 1 ( ( ( 1 1 ( _ _ k k k 2 l l l l l C w q f J j k l g g N R 0+9+0+9+c.:.c.c.:.^.^.c.9+9+9+c.:.:.$.;.` *.....G H B+].].*.{.].].].].+.b.U b.j.}.}.}.D+b.{.b.D+j.D+b.{.b.b.b.b.b.{.{.].].{.}.}.o o U U b.{.b.U +.B+U T S E ..V +.B+G G I E v y 8 ^     e 0 0 0 0 0 0 0 0 0 0 0 0 0 0 0 0 0 0 0 0 0 0 0 ",
"0 0 0 0 0 0 0 0 0 0 0 0 0 0 0 0 0 0 0 0 0 0 0 0 l k r     #.>.3 b l l j k l k j s s x J y s x x J u J x u /.R R 1.R u x J J r y y C C E Q @.Q @.I 4.L F C E F L L O 2+2+u R R M P F E B B M O R O O O O 1.1././.1.R /.l k j j j j k g g g j t t j 2 b D b D 2 j y G I H C+B++.T S w H v w Q F I @.I K I I G I G Q T G I E V.V.o.p.z.B.q.u.w.J.J.,+'+{+8+b+_+:+:+[+|+Q.Q.Q.Y.Y.Y.Y.S.$+S.#+#+#+d.#+#+#+d.#+#+#+#+#+d.d.#+#+d.d.d.d.d.d.d.d.d.#+#+#+#+#+#+#+$+$+$+$+$+%+%+Y.Z.Z.Z.++W.W.W.N.N.N.L.L.L.:+ + + + + + + + + +:+ +:+L.L.L.L.L.N.N.N.N.W.W.Q.Z.Z.Z.Z.%+$+$+#+#+d.d.A @+@+@+e.e.e.i ^ ^ / / / | 9 9 9 5 h.5 5 !.n 6 6 6 0 q a k+k+*+$+Y.Y.Y.Y.Y.Y.$+$+#+#+#+d.A ] 1 ^ } t ).d t ' %+%+$+#+$+' ' A ] ( 1 1 _ _ : : t 8 7 e d _ D D ' ' A ] ] ( ( ( ( 1 ( 1 1 1 1 _ _ _ k k 2 l l l g l l s p e r J j k l g N N L c.c.9+9+0+9+:.c.c.:.$.$.:.c.:.c.c.9+9+c.c.c.<.;.Y ].*.+.*.{.{.{.b.{.b.U U j.o }.U }.B++.+.U }.}.j.U U b.D+}.D++.{.{.{.{.b.}.}.}.j.*.].].].{.].` +.S H S ..F F H G Q +.T S H q x t     -.q d 0 0 0 0 0 0 0 0 0 0 0 0 0 0 0 0 0 0 0 0 0 0 ",
"0 0 0 0 0 0 0 0 0 0 0 0 0 0 0 0 0 0 0 0 0 0 0 -.-.      * >.|.b g l k u u j r f s x R O x x x x s s s y O 1.1.1.O O O 1.R r s e f f C y y C B F I F =.L E E E L 1./.1.j u O 5+M y R R R R R O M 5+5+1.R O O 5+O 1.5+M R j j k k k _ 2 2 _ k : _ _ 1 ] ( _ t x C z E F ....*.U U S T I C+I F H w F F K @.T G G Q Q I I Q C o.J.C.z.q.C.p.J.;+'+)+8+b+_+(+:+[+[+|+|+Q.Q.Y.Y.S.S.S.$+S.#+#+#+#+#+#+#+#+d.d.#+d.d.#+d.d.d.d.d.d.d.d.d.#+d.d.#+#+d.#+#+$+$+$+$+%+%+%+%+Z.Z.++++++W.W.W.N.N.N.L.L.L.L.L.:+ + + + + + + +:+:+U.:+:+U.L.L.L.N.N.N.N.W.W.Q.Z.Z.Z.Y.%+$+$+$+#+d.d.d.@+@+@+1 e.e.e.^ ^ ^ / / / | 9 9 9 5 5 5 5 !.!.n n 6 6 0 o j+k+l+i+d.$+Y.Y.Y.Y.Y.$+$+$+#+#+d.A @+1 i ) 9 !.0 } d.%+%+$+#+! d.' A ( ( ( 1 1 _ : : t 8 7 e d _ D D D D A A ( ( ( ( ( 1 ( 1 1 1 1 _ _ k k k k k l l g g l r p e r u j k g g b N 6.9+9+c.c.9+9+9+c.:.9+c.^.;.;.`  .;.$.$.:.c.c.:.^.$.;.;.;.` $.].].+.b.B+T B+U +.*.+.{.].*.{.Y Y Y b.B+B+D+U +.+.*.+.+.b.D+j.D+B+T ` Y ].` *.*.Y +.T S ..I Y V G I I S w w w p 0 }     p d 7 7 0 0 0 0 0 0 0 0 0 0 0 0 0 0 0 0 0 0 0 0 0 0 ",
"0 0 0 0 0 0 0 0 0 0 0 0 0 0 0 0 0 0 0 0 0 0 0 8     ,.#.n.>.|.N g l /.x s C s O R x x s s s e C C z z L 5+1.x s C L M y x y f 7 e z d C C z L B L F I I I 6.4.P 1.1.s s O M C y y y C C P L =.7+5+4+1.1././.1.R R J x x s x s f f e e s t : } } 9 9 8 : j J s y O L H S S T T S T T C+S v w C+H G H H G ..V W &...V ..G =.o.J.w.p.w.;+'+{+8+]+_+(+:+:+[+|+|+|+|+Q.Q.Y.Y.Y.S.S.Y.$+S.#+#+#+#+#+#+d.d.d.d.d.d.d.d.d.d.d.d.d.d.d.d.d.#+#+#+#+#+#+$+$+%+$+%+Z.Z.Z.++++W.W.W.W.W.N.N.L.U.L.L.U. +U. + + + +:+:+:+L.:+:+L.L.L.L.L.L.L.N.N.N.N.W.W.W.Q.Z.Z.Z.%+%+$+#+$+#+#+d.A @+@+@+1 1 e.e.&+&+&+) / / | | 9 5 5 5 5 5 5 5 n n n n 6 (.}.k+k+k+l+5 d.$+Y.Y.Y.$+S.#+$+#+#+#+A ] ( 1 ^ } 8 -.: d.$+%+$+$+$+d.' A ( ( ( 1 1 _ : : } 8 7 e d _ ' D D ' A ] ( ] ( 1 ( ( ( 1 1 _ 1 _ : : k k k l g g g 3.l f v d s u k l g g N 3.5.9+c.c.c.9+0+9+c.9+c.c.:.c.c.:.^.:.$.$.^.$.^.^.^.$.^.^.c.^. .Y *.`  .;.;.;.$.` `  .^.$.^.:.c. . .` ` <.Y `  .%.` +.*.B+B+B+` Y ;.;.;.].{.+.{.+.b.B+*.Y *...*.Y ..G w w w p d !.      s 8 0 0 0 0 0 0 0 0 0 0 0 0 0 0 0 0 0 0 0 0 0 0 0 0 ",
"0 0 0 0 0 0 0 0 0 0 0 0 0 0 0 0 0 0 0 0 0 0 7       #.A.>.N b l k /.j J q C s x R R y M L P E B z C M O O e z M P B L P C e z P f 7 d z B E B P K G 4.4.=.=.4.R R P y R 1.=.@.7+M =.K I 6.7+1./.1.5+O P L M O x 2+y O C C y x s y x t t f 6 6 ).7 8 t l l u J R C L E F G Y ` V G H C+w H B+S G G T G K Q W &.V &.X X &.K * P.,+,+)+8+b+_+(+:+[+[+|+|+|+|+Q.Q.Q.Q.Y.Y.Y.Y.S.S.S.$+#+#+.+#+#+#+#+#+d.d.d.d.d.d.d.d.d.d.d.d.d.d.d.#+#+$+$+$+$+%+%+Z.++++++++W.W.W.W.W.N.N.N.N.L.L.L.U.U.U.U. +U.L.U.U.U.U.U.U.L.L.L.L.L.N.L.N.N.N.N.N.W.W.Q.Z.Z.Z.Y.Y.%+$+$+$+#+#+d.d.A @+@+1 1 e.e.&+&+/ / / / | | | | 5 5 5 5 5 5 5 5 5 n n n 6 q j+k+k+k+l+k+/ #+$+$+Y.$+S.#+$+#+#+#+d.] ] 1 _ : } r ) d.$+%+$+$+#+d.' ] ] ( ( 1 _ _ : : } 8 7 e d _ D ' ' ' A ] ] ] ( 1 1 1 ( 1 1 1 _ _ k k k k k l l g g 3.l e q B y J j l l g N l g.c.c.9+9+:.:.c.c.c.c.c.c.c.c.c.c.:.:.c.c.c.c.c.:.^.:.c.c.c.:.^.$.^.^.^.^.$.$.^.c.c.c.^.:.:.:.^.^.^.^. . .<.<.<.<. .` *.`  .;.;.;.].{.b.{.{.+.+.+.Y Y *...V Q *.*.S H v q -.n '.      0 0 0 0 0 0 0 0 0 0 0 0 0 0 0 0 0 0 0 0 0 0 0 0 0 0 ",
"0 0 0 0 0 0 0 0 0 0 0 0 0 0 0 0 0 0 0 0 0 0 0 k   I.n.>.3 N 2 u R /.u e d y x s s s y M P =.P y y s y C B E E M M L =.4.4.C C d z v q z z C O 5+6+=.5+6+1.6+6+R P B s x 1.M 5+6+4.m.4.6.7+4+O M =.L 7+L 7+5+5+O R 2+O E C s s x J x s 7 s x r 7 r t t } k l J j s F w w S S G G I T T S U ..T Q Q *.Q W V ....W &.W V ..Q b  +^+^+(+:+:+L.N.|+Q.Q.|+Q.Q.Q.Q.Y.Y.Y.Y.Y.Y.Y.S.S.S.S.#+#+.+#+#+#+#+#+d.d.d.d.d.d.d.#+#+#+#+#+#+#+! $+%+$+$+%+Z.Z.Z.++++++[.[.[.N.N.N.N.N.N.N.N.N.L.L.L.L.L.L.L.L.L.L.L.L.L.L.L.L.N.L.L.N.N.N.N.N.N.W.W.W.Q.Q.Z.Z.Z.Y.$+$+$+#+d.d.d.@+@+@+@+1 e.e.i ^ ^ / / / / / 9 | 9 | 5 5 5 5 5 5 5 5 5 !.n n -.C+j+k+k+k+l+l+l+) #+$+S.S.S.#+#+#+#+#+d.A ] ( ( _ : j _ #+$+%+$+$+#+d.d.] A ( ( 1 1 _ : : } 8 7 f e ( ' ' D ' A ] A ( ] ( ( ( ( 1 ( 1 2 _ : k k k 2 l l g g 3.j d e C C s u l l g N M c.9+9+c.c.c.c.c.c.:.c.9+9+9+9+9+9+c.c.:.c.c.c.c.c.9+9+c.:.:.:.:.:.:.:.9+c.c.9+9+9+9+c.^.:.:.:.c.:.^. .` c.:.c.^.$. .:. .$. .` ;.;.].].].{.{.].].{.+.T ..` *...*.+.S C+o q -.9     E 0   J 0 0 0 0 0 0 0 0 0 0 0 0 0 0 0 0 0 0 0 0 0 0 0 0 ",
"0 0 0 0 0 0 0 0 0 0 0 0 0 0 0 0 0 0 0 0 0 -.l   2.v.n.|.N g k j /.j x x y M M x C B P P L M y s x s z L M C z s L =.L 7+7+6+5+y C z E E L O 4+4+M M 4+2+1.5+u M P O y P L 4.5+5+P 4.m.7+M 7+=.=.m.6+4+6+M 5+6+6+M 1./.R y C C B C r J f f r r m 7 f f 8 t k g k 2 t s B H T Q G ..T G T +.T B+T V @.@...@.W V Q Q Q G Q ..J ++N.L.N.N.W.|+|+Q.Q.Q.Q.Q.Q.Q.Y.Y.Y.Y.Y.Y.Y.S.S.S.S.S..+#+#+d.#+#+#+#+#+d.d.#+#+#+#+#+#+! $+$+$+$+%+%+%+%+%+Z.Z.Z.++++++W.[.[.N.N.[.W.N.N.N.N.N.N.N.N.N.N.N.N.N.N.N.N.N.L.N.L.N.N.N.N.N.N.N.N.W.W.W.W.W.++Z.Z.Z.%+$+$+$+#+#+d.@+A @+@+1 1 e.e.e.e.^ &+/ / / / / / | | | 5 5 5 5 5 5 5 5 5 5 5 5 n d +.j+k+k+k+k+l+l+l+&+#+#+$+#+S.#+#+#+#+d.d.A A ( 2 2 k _ d.%+$+$+#+#+d.A ] ] ( ( 1 1 _ : : } 8 7 f e ( ' ' D D A ] A A ( ( ( ( ( ( 1 1 _ _ : k k 2 2 l g g g g u y x x s y R /.g g 3.5.c.c.c.c.c.:.c.:.c.9+9+0+9+0+0+9+9+9+c.c.^.:.^.^.:.:.:.:.c.9+c.c.c.c.c.9+9+0+0+0+0+9+:.:.:.^.:.^.^.^.$.$.:. .^.$.`  .;.` ].$.Y ].Y Y ;.*.+.*.U +.+.+.Y *...+.S S w v o q d -.9 1 A   2 6 7   0 0 0 0 0 0 0 0 0 0 0 0 0 0 0 0 0 0 0 0 0 0 0 ",
"0 0 0 0 0 0 0 0 0 0 0 0 0 0 0 0 -.t j 6 j     #.H.#.3 3 k j x R x s B F M P y C =.m.M M O R x s y z =.O s B M M =.K M L M 5+7+P C z z M 7+4+/.1.4+1.1.O R 1.M =.K M R 1.O L 6+1.M M O O 7+4+5+5+5+6+7+6+4+5+5+M P O R O M z v y y e s r r x R x R O s s J 8 l l k k : t f p v H G G G w H S Q Q Q Q V V X V ....G Q %...S H D ++W.Q.Q.Q.Q.Q.Q.Q.Q.Q.Q.Q.Y.Y.Y.Y.Y.Y.S.S.S.S.#+S.#+#+#+#+#+#+#+#+#+#+#+#+#+#+#+#+$+$+$+%+%+%+%+%+%+%+%+%+Z.Z.Z.Z.++++W.[.W.W.W.N.W.W.N.N.N.W.N.N.N.N.N.N.N.N.N.N.N.N.N.N.N.W.W.W.W.W.W.W.W.W.++++++++Z.Z.%+$+$+$+#+#+d.d.@+@+@+@+1 e.e.e.^ ^ ^ / / / / / / 9 | | | | 5 5 5 5 5 5 5 5 5 5 5 5 -.H {.j+k+k+k+k+k+k+l+l+f.@+#+.+.+#+#+#+#+d.d.D A b b b ( 1 d.$+%+$+#+d.d.A ] ] ] ( 1 _ _ _ : } t r f e ( A D D ' A A A A ( ( ( ( ( 1 1 1 2 _ : k k k 2 2 g g 3.l x J u /.1.R x /.g g /.9+c.9+c.9+c.c.:.c.c.9+9+9+9+9+9+9+9+c.c.9+c.9+c.c.c.:.:.^.:.:.c.c.c.9+9+c.:.9+9+9+9+9+c.:.:.:.:.c.^. .$.$.$.$.` ` ].` Y *.` ].b.B++.` ].].+.b.b.U D+C+w H w H H S v ~.k.0 ).5 '.1 0.~     f f 7 0 0 0 0 0 0 0 0 0 0 0 0 0 0 0 0 0 0 0 0 0 0 ",
"0 0 0 0 0 0 0 0 0 0 0 0 0 0 0 0 0 -.      #.I.H.n.- 3 2 l /.R R O C F 4.O R P L 4.M O M O R s d I L M x P M O O 7+6+5+7+O O R O P M O y x y C R 1.1.O O 1.P L @.K O /./.O O /.O M L 7+6+7+4+2+5+M 5+6+5+4+4+5+6+6+=.O R L F B z f u u J r r u 1.j u x r s x 8 j u 7 f f f e d w F w H H B+G ..&.&.%.%.V V %.%.W W %.Q G ..+.s %+Z.Z.Z.Z.Q.Q.Q.Q.Y.Y.Y.Y.Y.Y.Y.$+$+S.S.S.S.#+#+#+#+#+#+#+d.d.#+#+#+#+d.#+#+$+$+$+$+$+$+$+$+%+%+%+%+%+%+%+%+Z.%+Z.Z.++++++++++++++++W.W.W.W.W.W.W.W.W.W.W.N.W.W.W.W.W.W.N.W.W.W.W.W.++W.++Q.Z.Z.Z.Z.Z.%+%+$+#+#+#+d.d.A @+@+@+1 e.e.e.^ e.^ ^ / / / / './ | | | | | | 9 | 5 5 5 5 5 5 5 5 5 n q ` j+k+k+k+k+k+k+k+k+k+l+i+/ A .+.+.+d.d.d.' d.' A ] ( ( A d.#+$+#+#+d.d.A A ] ( ( 1 1 _ : : } t r f f ( A D D ' A A A ( ( ( ( ( ( 1 1 1 2 _ _ k k k 2 g g g 3.j x j /./././.R u l 3.9.9+c.c.c.c.:.c.:.c.c.:.c.:.c.c.:.c.c.c.9+c.:.c.c.:.:.c.c.c.c.:.:.c.c.c.9+9+c.:.:.c.c.:.c.:.^.c.:. .$.$. .$.$. . .` ` +.*.*.` +.*.*.` {.+.{.U o w w C+H S S B+T C+o 0 !.} i 1 ( ] ' -           0 0 0 0 0 0 0 0 0 0 0 0 0 0 0 0 0 0 0 0 0 0 0 ",
"0 0 0 0 0 0 0 0 0 0 0 0 0 0 0 0 0 0 7 k   @ H.n.++] 2 k u O s y E E L P R O P M 7+5+M O s x C E M O x O O M P O 5+5+5+1.5+7+P M R 1.R /.R O M O R O 5+M 4.=.m.K P 1.O /././.P =.4.7+5+6+M 5+2+M 7+4+5+5+5+4+2+5+4+5+L P O 5+E I C s J j u r J J J J 7 7 r r u u u J 0 d (.d ~.e e ~.v S H I T G G ..&.X Z %.V V ......Y Y  ..._ $+%+$+%+Y.Y.Z.Y.Y.Y.Y.Y.Y.Y.$+$+$+$+$+#+#+#+#+#+#+#+#+#+.+d.#+#+#+#+#+#+$+$+$+$+%+%+$+$+$+$+$+$+$+$+$+%+%+%+Z.Z.Z.++++++++++++++++++++++W.++W.W.W.W.W.W.W.W.W.W.W.W.W.W.W.Q.Z.Z.++Z.Z.Z.Z.Z.Z.%+%+%+$+$+#+#+d.d.d.@+@+@+1 e.e.e.e.e.^ ^ ^ &+/ / / / 9 9 | | | | | | | 5 5 5 | | | | 9 | 5 -.G {.j+j+k+k+k+k+k+k+k+k+l+k+k+i+1 ] @+.+@+@+A A A D ++T.M.:+] #+$+$+#+#+d.d.A ] ] ( ( _ _ _ : } t 8 r f 1 A D D ' ' A A ] ( ( ( ( 1 1 1 2 ( _ k _ k 2 2 g g g g J u l l l l l /.j 2 1.9+9+c.c.c.:.:.:.:.:.:.^.c.9+c.c.c.:.:.:.:.:.c.:.c.c.:.^.:.^.^.c.c.9+9+c.c.c.c.:.^.^.^.:.c.^.:.^.^.$.$.^.:.^.;. .` Y Y +.B+U T +.+.].C+U U D+~.o C+S v w H D+j.o _.0 6 '.1 '           <       7 7 0 0 0 0 0 0 0 0 0 0 0 0 0 0 0 0 0 0 0 0 0 0 ",
"0 0 0 0 0 0 0 0 0 0 0 0 0 0 0 0 7         @ H.>.0.2 k k x y C v G ..4.M 5+P y P 6+O C O s y P =.R R M 5+6+M M L 4+5+5+6+O 1.1.5+2+R /./.2+O 5+R 1.1.O =.=.6.m.m.5+R 1.u 1.5+m.m.4.5+O M K =.L 5+5+6+6+5+1.1.5+/.5+4+7+F P R 1.M v d f r j k s s J R x e 7 f O u j 1.s d q q q k.p C+T +.*.` Y ` ` Y Y &.V W W ......V I *...G z ' $+$+$+$+$+Y.Y.Y.Y.Y.$+$+$+$+$+#+$+$+#+#+.+#+#+#+#+#+#+#+d.#+#+#+#+#+$+$+$+$+$+$+$+$+$+$+$+$+$+$+$+$+$+$+$+%+%+Z.Z.++++Z.Z.Z.++++++++Z.Z.++++++++++++W.++++++++++++++++++++Z.Z.Z.Z.Z.%+%+%+$+$+$+#+#+#+d.d.A A A @+1 1 e.e.e.e.^ ^ ^ ^ ^ / / / / / | | 9 9 | | | | 5 | | | | | | | | 5 n v ].j+j+k+k+k+k+k+k+k+k+k+l+k+k+c L.(+o.@ #.#.#.V.o.o.{+P.^+(+$+d.#+$+#+d.d.A ] ] ( ( ( 1 _ _ : : } 8 r r _ A ' ' ' ' A A ] ] ] ( ( ( ( 1 1 1 _ _ k 2 2 2 g g g k J l l l l g g g g l 5.c.c.c.9+c.c.:.:.^.:.c.9+c.c.c.c.c.:.c.c.:.^.^.:.^.^.:.:.c.c.c.:.:.:.:.c.c.c.:.:.:.:.^.$.^.^.^.c.^.$.:.:.$.$.` Y *.*.*.+.*.*.T B+B+T H b.D+}.j.B+B+H U U U o _.(.!.9 '.(                       t 0 0 0 0 0 0 0 0 0 0 0 0 0 0 0 0 0 0 0 0 0 0 0 ",
"0 0 0 0 0 0 0 0 0 0 0 0 0 0 0 j           E.* ' _ ( } 7 C v H K Q =.m.=.O R M =.5+O C O P C P O 1.R /.O O O P M M 5+7+5+6+O /.3+3+2+3+5+O 4+1.M R O M P m.4.6+5+M O R M P M m.4.6+O M L M =.m.O 5+O 6+6+M M O 5+R O 1.O L O R 1.O y e f 7 t j x y x s d e f f x O 1.R d q k._.d p w C+T *.V ..V V V &.&.%.Z %.7.W Q G B+S B++...J ' #+#+#+#+$+$+$+$+$+$+$+$+$+#+#+#+#+#+#+#+#+#+#+$+$+#+#+#+#+#+#+#+$+$+$+$+$+$+$+$+$+$+$+$+$+#+$+$+$+$+$+$+$+%+%+%+Z.Z.Z.%+Z.Z.Z.++Z.Z.Z.Z.Z.Z.Z.Z.++++++Z.++Z.Z.Z.Z.Z.Z.Z.Z.%+%+%+%+$+$+$+#+#+#+d.d.d.A @+@+@+@+1 1 1 e.e.^ ^ ^ ^ ^ ^ &+/ / / / / | | | | | | | | | | | | | | | | | 5 d Y j+j+j+k+k+j+k+k+k+k+k+k+k+k+k+/ :+_+C.z.q.C.p.J.;+'+o.P.^+^+U.] d.#+d.d.A A A ] ] ( ( 1 1 _ : : } t J r _ A ' ' D ' ' A ] A ] ( ( ( ( ( 1 1 2 2 _ 2 2 2 g g g j k l g g g g g 3.N P c.c.c.9+c.c.c.:.:.:.:.c.:.:.c.c.c.c.c.:.:.:.c.:.^.^.^.^.^.:.:.:.^.:.c.:.:.:.:.:.:.:.:.:.$. . .;.$.^.c.c.^. .` *.T ..Y *...G S T G S H S +.U b.b.D+D+}.o o _.k.6 h.) ( D 0.    -.7 0 0 7 0 r     7 0 0 0 0 0 0 0 0 0 0 0 0 0 0 0 0 0 0 0 0 0 0 0 ",
"0 0 0 0 0 0 0 0 0 0 0 0 0 0 0 0 j       H.H.* #+D _ 8 f e B H S =.7+=.m.P s L 7+M O O M y O 1.1.s O R O O R O O 7+5+6+5+4+2+2+3+2+2+4+6+6+7+O P P 4.7+m.9.a.m.6+M M 1./.M 5+M O 1.M O M 6+M O O O 5+5+M 7+6+7+P y O R 1.5+O R x O O R J f f f u u y s e d e f s R O y q q ~.j.U j.j.T G .. .<.<.^.:.<.8.<.l.7.W Y ..B+T +.` *.Y G _ A d.d.#+#+#+#+#+#+#+#+#+#+$+#+#+#+#+#+#+#+#+#+#+$+#+#+#+#+#+#+$+$+#+$+$+$+$+$+$+$+$+$+$+$+#+$+$+$+$+$+$+$+%+%+%+%+%+%+%+%+%+%+Z.Z.Z.Z.%+%+%+Z.Z.Z.Z.Z.%+%+%+%+%+%+%+%+$+%+%+$+$+$+$+#+#+d.d.d.d.A A @+@+@+1 1 e.e.e.i ^ ^ ^ &+&+&+/ / / / / | | | | | | | | | | | | | | | | | | 9 -.T {.j+j+j+k+k+k+k+k+k+k+k+k+k+k+k+' (+'+q.C.C.u.p.J.;+,+o.P.V.^+M.W.A d.d.d.A A ] ] ( ( ( 1 1 _ _ : : j j u : ] ' D ' ' ' A A A ( ( 1 ( 1 ( 1 1 ( _ _ 2 2 2 g g g j l g g g g g g N /.g.c.:.c.c.c.9+c.:.:.:.c.c.c.:.:.c.:.c.:.^.^.:.:.:.:.^.^.$.^.$.$.$.^.$.^.$.$.^.^.$.:.^.$.$.$.^. . .;.;.;.$.` ].{.{.B+*.` ..G G H I I S C+D+b.b.U }.o _._.a a 0 5 '.( ' =       f (.0 0 0 0 0 0 0 0 0 0 0 0 0 0 0 0 0 0 0 0 0 0 0 0 0 0 0 0 0 0 0 0 ",
"0 0 0 0 0 0 0 0 0 0 0 0 0 0 0 0 0     H.#.,.$+1 ) 8 7 d v H I =.P L 4.m.M P O O M P O y M 1.u x R R O R 1.O O 7+7+4+2+4+2+2+2+1.6+P P 5+4.6.a.L @.6.6.4.7+4.6.m.m.=.5+2+/.5+O O O O M 5+1.5+R M 5+6+6+P M 6+O M P O R 1./.4+1./.x O L C s s f 7 x J s y q e r d C z C y z p v B+Q Q G W 8.<. .` ` X X &.%.7.W ..T +...Y Y *...T +.B ] A d.d.d.d.#+#+#+#+#+#+#+#+#+#+#+#+$+#+#+#+#+#+#+#+#+#+#+#+#+$+$+$+$+$+$+$+#+#+$+$+$+$+#+$+$+$+$+$+$+$+$+$+%+$+%+$+$+$+%+%+%+%+%+%+%+%+%+%+%+%+%+%+%+%+%+$+$+$+$+$+$+$+$+$+$+#+d.#+#+d.d.A A ] @+@+@+1 1 1 1 e.e.e.^ ^ &+&+&+/ / / / / / / | | | | | | | | | | | | | / / / | | !.w ].j+j+k+k+k+k+k+k+k+k+k+k+k+k+k+c L.b+q.z.q.u.u.p.w.J.;+o.o.P.^+_+(+Z.A d.d.A A @+] ] ( ( ( _ _ _ : : : j j j ( A ' ' ' ' A ' A ( ( 1 ( ( ( 1 1 2 2 2 2 2 g g g k k l g g g g 3.N l 7.c.c.:.:.c.c.c.:.:.:.9+9+c.^.:.^.^.^.$.$.$.$.$.$.;. .$. . .$.$.$.$.$.$.$.$.^.^.^.$. .;.;.;.;.].;.;.;.;.;.].{.{.{.{.{.{.*.*.S H v v S w U U }.}.a 0 6 -.6 n | i ] D           8 0 0 0 0 0 0 0 0 0 0 0 0 0 0 0 0 0 0 0 0 0 0 0 0 0 0 0 0 0 0 0 0 0 0 ",
"0 0 0 0 0 0 0 0 0 0 0 0 0 0 0 0 j   2.h A.>.! i 8 0 q v E E E L P =.m.7+O P 1.M O O O x x x x x x x R u C y L M 7+7+5+2+4+4+5+M P =.P 6+4.@.4.@.L =.m.7+6+6+m.4.=.m.6+R /.5+1.5+M m.O 1.O 1.M 7+5+O 6+6+5+m.M 1.4+1./.R 4+2+4+2+1.R M M s s y B s x x x f d p v C C C C z v v p q z B K 6.Z X X X X Y V V &.Q &.X X ` ` ` Y ....G G r ] A A A d.d.#+#+#+#+#+#+! #+#+#+$+$+$+#+#+#+#+#+#+#+#+#+#+$+$+$+$+$+$+$+$+#+#+#+#+#+#+#+$+$+$+$+$+$+#+#+#+$+$+$+$+$+$+%+$+$+%+%+$+%+$+$+%+%+%+$+%+$+$+$+$+$+$+#+#+#+#+#+#+#+d.d.d.d.A A @+@+@+1 1 1 1 e.e.e.e.e.^ &+^ &+/ / / / / / / / | | | | | | | | | | | / / / / / / | 5 q ].j+j+j+k+k+k+k+k+k+k+k+k+k+k+k+k+] (+,+B.z.z.q.u.p.w.J.;+,+o.P.]+^+M.(+%+A A A A @+] 1 ( 1 1 1 _ _ _ _ k k k k 1 A ' ' D ' A A A ] ( ( ( ( ( ( ( ( 2 2 2 2 g g g l l g g g g g N 3.9.c.c.c.c.c.c.:.:.c.c.c.c.c.:.:.^.^.^.^.:.^.^.^.^.$.$.^.:.:.:.:.^.$.$. .;.$.$.$.$.$.^.^.;.;.].].].{.{.{.{.{.{.{.].{.{.{.].+.j.w w F I B+B+j.o a -.6 n -.5 9 ^ ;       d f q -.0 -.-.0 0 0 0 0 0 0 0 0 0 0 0 0 0 0 0 0 0 0 0 0 0 0 0 0 0 0 0 0 0 0 0 0 ",
"0 0 0 0 0 0 0 0 0 0 0 0 0 0 0       v.v.,.$+@+/ 8 7 e p w S E z B L 5+O M R R R R R x s x J x O s x J x y L =.O 5+7+4+4+4+4+O =.=.4.M 4+m.9.a.m.5+5+7+6+5+4+5+6+m.6+2+2+/.5+6+M M 5+R O O 6+m.5+O O 5+6+5+m.7+R 1.1.2+2+2+3+3+4+1.4+4+O M O y v p x s e e z v z C z e C e d ~.v E K =.F ....V ` Y V ` *.&.Z X 7.%.%.%.&.Q +.....T ..S _ ] A A d.d.d.d.#+#+#+#+#+#+$+#+$+$+$+$+#+#+#+#+#+#+#+#+#+#+$+#+$+#+#+#+#+#+#+#+#+$+$+#+#+#+$+$+#+#+#+$+$+$+$+$+$+$+$+$+$+$+$+$+$+$+$+$+$+$+$+$+$+$+#+#+#+#+#+#+d.d.d.d.d.d.d.A A A ] ] ] 1 1 1 e.1 e.e.i ^ ^ ^ &+&+&+/ / / / / / / / | | | | | / | / | | | / / / / / / / 9 e Y {.j+k+k+j+k+k+k+k+k+k+k+k+k+k+k+c L._+q.B.z.z.q.C.u.w.w.J.,+'+P.P.^+^+(+:+++A @+A @+] ] ( ( ( 1 1 _ _ 2 2 2 g g b @+' ' ' A A A A A ] ( ( ( ( ( ( ( 2 2 2 2 g g g l g g g g b N 3.9.0+9+c.c.c.c.c.c.c.c.:.c.:.^.:.:.:.:.:.:.:.:.^.^.:.^.:.:.c.:.^.^.^.:.:.:.:.^.$.;. .;.;.;.].].].].{.b.b.b.U {.{.{.{.{.{.b.D+o ~.p j.U j.v _.k.(.d d 0 -.!.} )   f 0 -.-.6 0 0 0 0 0 0 0 0 0 0 0 0 0 0 0 0 0 0 0 0 0 0 0 0 0 0 0 0 0 0 0 0 0 0 0 0 0 0 0 ",
"0 0 0 0 0 0 0 0 0 0 0 0 0 0 0     2.<+A.- ] ^ t 7 C C q B v z C L P O O P 1.O O R y C C C R M s R x 7 y =.L M 4+5+1.5+m.4.W @.K @.a.7+a.a.7+@.a.2+4+6+6+7+M 7+5+5+5+4+2+4+5+P 5+4+/.M M M 7+7+5+R 5+O 6+6+6+7+M R /./.2+5+4+2+2+2+4+1.4+O O M B v d s s z d d C w v e e q q p v p z B Q X Q Y ..T T T Y &.X %.7.%.Z V V T +.X V T Y +.z ] A A A A d.d.d.#+#+#+#+$+#+#+#+#+#+#+$+$+$+#+#+#+#+#+#+#+#+#+#+#+#+#+#+#+#+#+#+#+#+#+#+#+#+#+#+d.#+#+#+#+#+#+$+$+$+#+$+$+$+$+$+$+$+#+#+#+#+#+#+#+#+#+#+#+d.d.d.d.d.A A A @+@+@+@+@+@+@+1 1 e.e.e.e.e.^ &+&+&+&+&+&+/ / / / / / | / / / / / / / / / / / / / / &+/ / / | f ..{.j+j+k+k+k+k+k+k+k+k+k+k+k+k+k+k+.+(+J.B.t.B.z.q.C.C.p.J.;+;+'+)+P.P.^+_+(+(+|+#+@+] ] 1 1 ( ( 1 ( 1 2 2 b b D b J : ' D A ' A A A ] A ( ] ( ( ( ( ( ( 2 2 2 g g g 2 g g g N N g 9.c.9+9+9+c.c.:.:.c.c.:.c.:.:.:.:.:.:.:.:.:.c.:.:.:.^.:.:.c.c.c.:.:.:.:.^.$.;.` ;.;.` ` ].].{.{.{.b.b.U U U b.b.b.U }.o o o _.v H j.}.o k.(.0 p y q f !.9 } F 7 0 6 0 0 0 f -.0 0 0 0 0 0 0 0 0 0 0 0 0 0 0 0 0 0 0 0 0 0 0 0 0 0 0 0 0 0 0 0 0 0 0 0 0 0 ",
"0 0 0 0 0 0 0 0 0 0 0 0 -.t   2.E.E.v.n.|.g m u s y p w w B C y P P P R 5+1.O y y C y y R s x u J J C E K M 4+/.4+2+1.6+L W 9.a.m.m.6+4.7+6+7+7+4.4.4.7+a.a.4.6+5+M O O R 4+6+3+/.O O P 7+7+m.1.5+5+5+M 6+5+5+m.7+R /.2+6+O /.1.4+6+M 1.4+M O O C v C y y C z C B w q d d w w v F v G ..G ..*...T ..V ..*.X &.%.7.7.%...T X Q G X B+*.V t A A A ' d.d.' #+#+#+#+#+#+#+#+#+#+#+#+#+#+#+#+#+#+#+#+#+#+#+#+#+#+#+#+#+#+#+#+#+#+#+d.d.#+#+d.d.#+#+#+#+#+#+#+#+#+#+#+#+#+#+#+#+#+d.#+#+d.d.#+#+#+d.d.d.d.d.d.A @+@+@+@+@+@+@+@+1 1 1 e.e.e.e.e.^ ^ &+&+&+/ / / / / / / / / / / / / / / / / / / / / / / / / &+&+/ 9 f G {.j+j+j+j+k+k+k+k+k+k+k+k+k+k+k+k+f.N.P.t.t.B.B.B.q.C.C.p.w.J.;+,+)+P.P.]+^+_+(+:+[+Q.d.@+1 1 ] ] ( ( ( b D b k C l.9+I ( ' ' ' A A A ] A ] ] ] ( ] ( ( ( ( 2 2 g N g g b b N |./.l.c.c.c.c.0+9+9+c.c.c.c.c.c.c.c.c.:.c.c.^.:.c.c.c.:.c.c.c.c.c.c.c.c.c.^.$. .$.$.$. .` ` ].b.U j.j.}.o }.}.}.}.o o }.}.o }.~.q v C+o a a c d e w v k.-.9     6 (.0 0 0 0 0 0 0 0 0 0 0 0 0 0 0 0 0 0 0 0 0 0 0 0 0 0 0 0 0 0 0 0 0 0 0 0 0 0 0 0 0 0 0 0 0 0 ",
"0 0 0 0 0 0 0 0 0 0 0 J         2.v.n.l k x e J C C q w B z C O P M O 1.1.O R s y C s R x J J r f v 7+F 7+5+5+R /.4+4+5+M 5+7+9.m.4+4+4+5+6+6+6+K a.m.4.4.6.7+a.a.6.a.M 2+4+M 4+4+5+4+4+5+m.m.O 4+5+4+7+5+4+5+m.6+M L O 5+4+5+M 2+5+5+4+4+1.5+y O P B y s f P P z v v q e z S G E Q  .W W V Q ....&.X Y Y &.7.7.7.%.V &.V G ..Q S *.*...F ( ] A ' ' d.d.#+#+#+d.#+#+d.#+#+#+#+#+#+$+#+#+#+#+#+#+#+#+#+#+d.#+#+#+#+d.#+#+#+d.d.d.d.d.#+d.d.d.d.d.d.d.d.d.d.d.#+#+d.d.d.d.d.d.d.d.d.d.d.d.#+d.d.d.@+A A A @+@+@+@+@+@+1 @+1 1 1 e.e.e.e.e.e.^ &+&+&+&+/ / / / / / / / / / / / / / / / / / / / &+&+&+&+&+&+/ | 7 S ].j+j+j+j+k+k+k+k+k+k+l+k+l+k+k+k+l+$+_+q.t.t.t.B.B.B.q.C.u.p.w.;+,+'+{+P.P.^+_+(+:+:+[+|+Q.$+A ] 1 ( ( 2 j y @.g.c.c.:.<.B A ' A A A A A A ( ] ] ( ( ] ] ( ( ( b b b b b N N 3 O c.c.c.:.c.c.9+0+0+9+:.c.:.c.c.c.9+c.c.c.:.:.9+9+9+c.:.9+c.c.c.9+9+c.:.^. .$.^.^. .;.].].*.+.B+B+U U U b.}.o o o j.B+j.j.C+v w j.j.o k._.o p e q o k.n / (     e 0 0 0 0 0 0 0 0 0 0 0 0 0 0 0 0 0 0 0 0 0 0 0 0 0 0 0 0 0 0 0 0 0 0 0 0 0 0 0 0 0 0 0 0 0 0 0 ",
"0 0 0 0 0 0 0 0 0 0 0 j r t N I.#.A.N l 1.R y s d d q C B y M R M O 1.5+M 1.R y C s J J r J 7 d F P P L M M R O O M 6+6+5+6+4.7+m.7+7+7+=.6+5+6+m.M 5+7+m.m.6+4.6.9.9.7+6+6+5+M 7+M 4+4+7+7+m.6+4+5+M 6+4+5+5+6+6+6+P P 7+5+=.L 3+4+5+4+4+4+1.O M y C e f y K E F H w B z C B Q I  .%...V Y *.*.V *.T G Q Q ..W %.&.Q V V Q Q T +.*.*.` *.f ( ] A A A d.d.d.#+#+#+#+#+#+#+#+#+#+#+#+$+$+#+#+#+#+#+d.#+d.d.d.d.#+d.d.#+#+#+d.d.d.d.d.d.d..+.+d.d..+d.d.d.d.d.d.d.d.d.d.d.d.d.d.d.d.d.d.d.d.d.d.d.@+A @+] @+@+@+@+@+@+@+1 1 e.e.e.e.e.e.^ &+&+&+&+&+/ / / / / / / / / / / / / / / / / &+/ &+&+&+&+&+&+&+&+/ 7 w ;.j+j+j+k+k+j+k+l+l+l+l+l+l+k+k+k+k+&+:+w.`.t.t.t.t.B.z.z.q.C.p.J.J.;+'+{+P.]+]+^+_+(+:+[+[+|+Q.Y.S..+9 5.g.9+9+c.8.g.<.^.<.:.E ( ' A ] A A A A ] A ] A A A ( ( b b b b N N 3 3.4.9+c.:.c.:.:.c.c.9+9+9+9+:.:.:.:.:.:.c.c.:.:.c.c.c.:.:.c.:.^.^.^.$.^.$. .` $.$.$.$.` Y ` Y Y ].].{.+.b.D+}.o o }.U U }.j.D+v w ~.o o _.o w v p p o k.!.'.i 2 s 0 (.f 0 0 0 0 0 0 0 0 0 0 0 0 0 0 0 0 0 0 0 0 0 0 0 0 0 0 0 0 0 0 0 0 0 0 0 0 0 0 0 0 0 0 0 0 0 0 ",
"0 0 0 0 0 0 0 0 0 0 0 0 u   I.,.n.>.>.u /.y R y e 0 0 v C O R R P 5+1.P O u C z R J r J J s E L M y L L M M R O M 6+7+7+m.a.6+7+7.6.9.5.a.5+5+7+4.L 6+L 7+4+7+m.7+a.9.a.a.7+4+5+R 4+4+M 7+m.5+4+6+1.O 5+4+5+5+5+6+7+5+m.m.O R R 1.1.5+4+4+4+2+5+O O C z e R O F L F w v z B B G X Z W V Z &.X X V Y Y Y ..*.W V W V V W Q G T B++.*.*.Y *...: ( ] A A A d.' #+d.#+#+#+#+#+#+#+#+#+#+#+#+#+#+#+#+#+d.#+#+d.d.#+#+#+#+d.d.d.d.d.d.d.d.d.d.d.d.d.d.d.d..+d.d.d.d.d.d.d.d.d.d.d.d.d.d.d.d.d.d.d.d.d.@+@+@+@+@+@+@+@+@+1 @+1 1 e.e.e.e.e.e.&+&+&+&+&+/ / / &+/ / / / / / / / / / / / / &+&+&+&+&+&+&+&+&+&+/ 7 w ].j+j+j+k+k+k+k+l+l+m+m+m+l+l+k+k+k+c N.,+`.t.`.t.B.t.t.z.q.q.C.u.w.J.;+'+)+{+P.]+b+^+_+:+:+[+|+Q.Q.S..+e...9+c.:.g.g.<.<.:.<.:.c.@.: d.A ] @+A @+] A A A ' A ' A b D D 0.3 3 1.l.9+c.c.:.:.:.^.^.:.:.9+c.9+c.:.^.^.:.:.c.c.:.c.c.c.c.:.^.^.$.^.:. . .$. .$.$. .$.$.` Y Y *.Y *.+.+.{.b.U U U }.U U U }.j.}.o ~.q }.D+w p v v q q k.n 9 ^   7.d (.q 0 0 0 0 0 0 0 0 0 0 0 0 0 0 0 0 0 0 0 0 0 0 0 0 0 0 0 0 0 0 0 0 0 0 0 0 0 0 0 0 0 0 0 0 0 0 0 0 ",
"0 0 0 0 0 0 0 0 J g k   I.$ * N.n.>.g /./.s y f 0 f d v y R O R 5+1.1.s J C B x J J u s z B z O M P M M M R O R O M 6.4.a.7+a.9.6.m.7+m.=.7+a.@.4.4.a.a.m.7+7+M 5+5+7+m.a.m.m.m.O O P 7+4.5+O O M L L R R 1.6+6+7+4+5+7+4.L =.P B O 5+4+4+4+5+4+1.1.y e e x R M y B H v z C F G F K Q V ..V V &.&.&.X &.......Q Q W Q Q ..S T *.....V Y T *.E _ ] A A A d.d.d.d.#+#+#+#+#+#+#+#+#+#+#+#+#+#+#+#+d.d.#+#+#+#+#+#+#+#+d.d.d.d.d.d.d.d.d.d.d..+.+.+.+.+.+d.d.d.d.d.d.d.d.d.d.d.d.d.d.d.d.d.d.d.d.d.A @+@+@+@+@+@+@+*+1 @+1 e.e.e.e.e.e.e.&+&+&+&+&+&+/ / &+/ / / / / / / &+/ / / &+&+&+&+&+&+&+&+&+&+&+/ 7 H ;.{.j+j+k+j+k+l+m+m+q+n+q+m+i+l+k+k+k+%+)+t.D.D.`.t.t.B.B.B.z.q.C.u.w.J.,+,+'+{+P.P.]+^+_+(+:+L.N.|+Q.Y.S..+5 g.c.:.g.:.:.c.c.g.g.c.c.8.y ] d.A A ] A A A d.' ' ' D D 0.3 - g 4.9+9+9+9+9+c.c.9+c.:.:.:.:.c.c.c.:.:.^.^.:.:.9+9+9+c.:.^.^.^.^.^.$. . .$.$. .`  . .` Y Y Y *.*.Y ` *.+.b.+.+.T D+D+S }.}.D+j.w p v p o ~.p q q o k.0 8 } 7 0 0 v e 0 0 0 0 0 0 0 0 0 0 0 0 0 0 0 0 0 0 0 0 0 0 0 0 0 0 0 0 0 0 0 0 0 0 0 0 0 0 0 0 0 0 0 0 0 0 0 0 0 0 ",
"0 0 0 0 0 0 0 0 k   @ , ++#+#+[.N g j /.u y y 6 6 7 p B R y y L O /./.R C C J x y P C M z C C C P P y O O R R O P m.7+7+6.6.9.m.m.7+7+6+M P 4.m.m.m.4.m.7+4.a.m.5+5+5+5+6+6+7+m.5+=.=.5+m.6+7+m.m.4.m.7+L 4.6.a.6+4+5+5+6+a.4.L P O /.1./.5+5+4+4+R R x t b k j L z E w E z B B K V V X Y Y V V V W ..W T ..Y X ` Y T ..*...*.I I T T S T +.T f ( ] A A A d.d.d.d.#+#+#+#+#+#+#+#+#+#+#+#+#+#+#+#+#+#+#+#+#+#+#+d.d.d.d.d.d.d.d..+d.d..+d.d..+d..+.+.+.+d.d.d.d.d.d.d.d.d.d.d.d.d..+d.d.d.d.d.d.d.@+@+@+@+@+@+@+@+1 1 e.e.e.e.e.e.e.e.&+&+&+&+&+&+&+&+&+&+/ / / / / &+&+&+&+&+&+&+&+&+&+&+&+&+&+/ 9 7 H ;.{.j+j+k+k+k+m+n+n+n+n+q+m+m+m+l+l+k+e.^+t.r.r.D.D.D.`.t.t.B.z.q.C.u.p.w.;+,+,+)+{+P.]+b+_+_+(+:+[+|+Q.Y.Y..+*+S :.Z g.g.<.Z c.c.9+9+:.g.c.W s 1 d.d.A A d.d.D D 0.0.3 - N y g.9+9+9+0+9+9+0+0+9+9+c.c.c.c.c.c.c.c.^.:.^.:.:.c.c.:.:.:.:.^.^.:.$.$.$.<. .` Z %.` `  .;.` ` Y ` Y *.*.*.+.*.U j.}.}.j.w D+S C+w o p p w }.o ~.k.-.9     -.0 0 0 0 0 0 0 0 0 0 0 0 0 0 0 0 0 0 0 0 0 0 0 0 0 0 0 0 0 0 0 0 0 0 0 0 0 0 0 0 0 0 0 0 0 0 0 0 0 0 0 0 0 0 0 ",
"0 0 0 0 0 0 0 0 0 7   N   - $+0.N l P l s C f 7 6 d d z R y O P =.1.1.s r u y P z B y O =.K =.L M x R R O O z P K M 6+m.9.7.m.6+7+m.6+P M L a.m.6+5+6+6+6+6+4.a.4.7+7+7+4+6+7+5+L m.m.5+5+m.7+a.m.4.6.m.@.@.6.4.5+7+M O 1.O O P P M x 1.1.M 6+4+5+/.R u N N >.,.n.k B H L E B H S ..*...+.............Y X V V ......T G T T S T ..G S +.+.T S H ( ( ] A A A A d.d.d.#+#+#+#+#+#+#+#+#+#+#+#+#+#+#+#+#+#+#+#+#+#+#+#+d.d.d.d.d.d..+.+.+d..+.+.+d..+.+.+.+.+d.d.d.d.d.d..+d.d.d.d.d.d..+d..+d.d.d.d.d.@+@+@+@+@+*+1 *+e.e.e.e.e.e.e.&+&+&+&+&+&+&+&+&+&+/ &+/ &+/ &+&+&+&+&+&+&+&+&+&+&+&+&+&+&+/ 9 f H  .{.j+j+k+k+l+q+n+n+n+r+q+n+q+m+l+l+l+f. +z.r.r.r.r.r.r.t.t.B.B.z.q.q.C.u.p.J.;+,+'+{+8+]+b+b+_+(+ +:+N.|+Q.Y.S..+5 <.<.g.c.<.:.c.c.g.<.c.<.%.g.c.7.z : A d.$+%+%+++++3 b M 7.0+0+0+9+9+9+0+0+0+9+9+c.9+0+9+c.:.:.:.^.:.^.^.^.^.^.:.:.:.^.^.^.:.:.^.^.^.$. .`  .<.^.$. . .`  .X %.Y  .Y ..T U j.w w S H B+S w o p }.p w ~._.q -.m     -.0 0 0 0 0 0 0 0 0 0 0 0 0 0 0 0 0 0 0 0 0 0 0 0 0 0 0 0 0 0 0 0 0 0 0 0 0 0 0 0 0 0 0 0 0 0 0 0 0 0 0 0 0 0 0 0 0 ",
"0 0 0 0 0 0 0 0 0 -.      < - b N u R j y e f -.6 d p C R C P M =.B y y x C E E v C M =.K 4.4.P M L L C y C C P L M L 6.l.a.6+5+7+9.5.@.m.=.6.a.4.m.7+7+6+7+6+7+m.7+m.4.4.7+L 6+4.a.4.4+5+7+4.4.P 7+a.4.6.4.m.7+O P 4.F P O y x x R x x 1.5+O 1.1./.u } b 3 A.H.J.B.h n./.z F S T S ..*.Y Y *...+.+.*.V V V Y Y %.Y *.+.T T T ..T T +.+.U D++.N 2.0.( ] A A A d.d.d.d.d.d.#+#+#+#+#+#+#+#+$+#+#+#+#+#+$+#+#+#+#+#+#+#+#+d.d.d.d.d..+.+.+d..+.+d.d.d..+.+.+.+.+d.d.d..+d..+d.d.d.d.d..+.+d..+d.d.@+.+@+@+@+@+@+@+*+e.e.e.e.e.e.e.e.&+e.&+&+&+&+&+&+&+/ / &+/ &+&+&+&+&+&+&+&+&+&+&+&+&+&+&+&+/ 8 e G  .{.j+k+l+l+m+n+n+n+r+n+n+n+q+q+m+l+l+i+L.q.r.O.r.r.r.r.D.D.t.B.B.z.z.q.q.u.p.w.;+;+'+)+{+8+]+b+^+(+:+:+L.W.Q.Y.S..+*+..9+9+:.g.:.:.:.:.:.<.<.8.8.8.8.c.g.5.F C r J J P 6.g.9+9+9+0+0+0+0+0+0+0+9+9+9+c.:.9+9+9+c.:.^.$.^.^.^.^.^.:.:.:.^.^.^.:.^.^.^.^.^.^.^.<.^.^.^.^. .`  . .%.V *.T T T T I T T G +.U U }.~.o v p q d k.k.      q d 0 0 0 0 0 0 0 0 0 0 0 0 0 0 0 0 0 0 0 0 0 0 0 0 0 0 0 0 0 0 0 0 0 0 0 0 0 0 0 0 0 0 0 0 0 0 0 0 0 0 0 0 0 0 0 0 0 0 ",
"0 0 0 0 0 0 0 0 0 7   N , - A N g 1./.u y q m 0 6 d e O P y C L 7+=.L O B E F F K F K =.=.m.L P z C y y y C 4.4.P P 4.6.5.9.6+4.a.6+4.W a.m.4.7+m.4.a.a.6+M 6+m.7+7+7+=.6.m.M M m.4.a.4+R L =.O O 6.4.=.m.=.7+7+P I K 4.E I =.B q e C q s R R /./.j N @ I.I.2.q.C.C.`.`.t.2.3.B T G ..T ....*.Y Y %.Y ` %.` Z %.Y V Y Y X ..Y Y T *.X +.{.{.l p.C.2.( ( ] A A d.d.#+d.#+d.#+#+#+#+#+#+#+#+$+#+#+#+#+#+#+#+#+#+d.#+#+#+#+d.d..+.+d..+.+d.d.d.d..+.+d..+.+.+.+.+d.d.d.d.d.d..+.+d..+.+.+.+.+.+.+.+@+@+@+@+@+@+@+@+*+*+e.e.e.e.e.e.e.&+e.&+&+&+&+&+&+&+&+&+&+&+&+&+&+&+&+&+&+&+&+&+&+&+&+&+/ 9 ).d T  .{.j+k+l+m+q+r+n+n+r+r+n+n+n+q+m+l+l+i+Z.C.O.r.O.G.O.r.r.r.`.`.t.t.B.z.q.C.C.p.w.J.;+,+)+)+{+P.]+b+_+_+ +L.N.W.Q.$+#+@+d 9+c.9+c.<.:.<.<.<.<.c.:.:.g.c.8.c.c.9+0+9+0+9+c.9+c.0+c.9+0+0+9+9+9+9+9+9+9+0+9+9+9+9+9+:.c.c.:.:.c.c.:.:.9+c.:.c.c.:.c.c.c.:.c.c.:.^.:.$. . . .<. . .X V Y W ..S I I I Q I B+j.B+w v ~.w ~.q 7 9 6   ).6 0 0 0 0 0 0 0 0 0 0 0 0 0 0 0 0 0 0 0 0 0 0 0 0 0 0 0 0 0 0 0 0 0 0 0 0 0 0 0 0 0 0 0 0 0 0 0 0 0 0 0 0 0 0 0 0 0 0 0 0 0 ",
"0 0 0 0 0 0 0 0 0 7 7 8   ~ A g /./.x f C 7 n ).d e y P C z L K O M E M z K K K 4.@.W 5+7+M P =.E C z C E F L O O L 4.a.7.6.a.6.m.7+7+@.4.7+6+5+5+7+m.L 4.K =.4.a.m.m.4.4.4.M =.=.P 7+1.O O O P 4.a.7+L 4.7+O M =.=.E E E E z z z d q p B s R j g [.3 2.`.`.`.`.B.q.t.t.B.t.`.E.>.O B+T ..` `  .%.Y X Z Z X V ..Y X V X ..Y Y T *.Z W X ` B 2.u.C.z.I.1 ] ] A d.' d.d.d.#+#+#+#+#+#+#+#+#+#+#+#+#+#+#+#+#+#+#+d..+.+#+#+.+.+#+.+.+.+.+.+.+d..+.+.+.+.+.+.+.+.+.+d.#+d.d..+.+.+.+.+.+.+.+.+@+.+@+@+@+@+@+@+@+*+*+*+e.e.e.e.e.e.e.e.&+&+&+&+&+&+&+&+&+&+&+&+&+&+&+&+&+&+&+&+&+&+&+&+&+&+/ 9 7 v *.$.{.k+l+l+m+q+r+q+n+w+n+n+r+n+n+n+i+m+i+@+u.G.G.O.O.O.O.O.r.r.r.D.t.t.B.B.q.q.u.u.w.w.J.;+'+)+)+{+8+]+^+M. +:+L.N.W.Z.#+@+/ 8.:.:.:.g.c.g.g.<.<.:.g.<.c.9+:.c.9+9+9+9+c.c.9+9+9+9+9+9+0+9+9+0+9+c.0+9+9+0+0+0+0+9+9+:.^.^.:.^.:.:.:.^.:.:.:.^.^.$.$.$.^.^.^.$.^.:.^.^.^.^. . .` ..I H F G G E B L F w w w o w p w o _.0 -.7 e 0 0 0 0 0 0 0 0 0 0 0 0 0 0 0 0 0 0 0 0 0 0 0 0 0 0 0 0 0 0 0 0 0 0 0 0 0 0 0 0 0 0 0 0 0 0 0 0 0 0 0 0 0 0 0 0 0 0 0 0 0 0 0 0 0 ",
"0 0 0 0 0 0 0 0 0 0 8     A _ g l k x s f ).-.d q C f C C z 4.=.O O L P M K 4.4.4.9.m.4+M 4.K z s C F E C z P P =.9.9.5.4.a.6.4.a.7+6+7+a.4.4.5+6+M m.=.m.7+4.m.a.4.a.4.=.4.4.O 7+7+R 5+O M L 4.K 7+P =.=.L M y z E v v z d e f s f f -.f s x : D U.V.h E.K.`.D.`.t.`.t.B.B.B.B.t.K.+ 1...Y Y &.X V X &...Y *...*.&.Y V Y ` T *.%.V &.%.W * w.u.C.t.t.#.1 ] A A A ' d.d.#+#+#+#+#+#+#+#+#+#+#+#+#+#+d.d.#+#+#+#+d.d.d..+#+.+.+.+.+.+.+.+.+.+d..+.+.+.+.+.+.+.+.+.+#+d..+.+.+.+.+.+.+.+.+@+.+.+.+@+@+@+@+@+*+*+*+e.*+e.e.e.e.e.&+&+&+e.&+&+&+&+&+&+&+&+&+&+&+&+&+&+&+&+&+&+&+&+&+&+/ 9 8 e w Y $.].k+l+l+m+n+n+q+n+r+n+n+r+n+q+n+i+l+l+/ J.O.G.G.G.G.O.G.O.O.D.r.D.t.t.B.z.q.C.u.u.p.w.J.;+,+'+)+{+P.8+]+_+:+:+U.N.W.Z.#+@+e.w :.:.<.:.<.<.:.:.:.<.:.:.c.:.c.9+0+c.9+c.c.c.9+9+9+c.c.c.9+c.9+0+9+9+9+0+0+0+9+0+0+9+9+9+c.c.c.^.:.:.:.^.^.:.^.^.$.$.$.$. .;. .;. .;.`  . .` Y *.G F E F E L L v H B+v p v o p p o o k.6       0 0 0 0 0 0 0 0 0 0 0 0 0 0 0 0 0 0 0 0 0 0 0 0 0 0 0 0 0 0 0 0 0 0 0 0 0 0 0 0 0 0 0 0 0 0 0 0 0 0 0 0 0 0 0 0 0 0 0 0 0 0 0 0 0 0 ",
"0 0 0 0 0 0 0 0 0 6 r ' e.] : l l j x f e n d d q y y L C C I =.M O L L E B L m.a.7+5+7+=.L C y z a.P s C z L 4.I Q Z a.6+m.7+6.7+4+7+m.6+m.6.4.=.M 6+7+m.7+M 7+P 6.9.4.4.L 4.O 6+M M P =.4.K 4.K P P K F L y C q q e d q q ~.o d -.6 6 ).6 8 _ 0. +;+u.B.R.R.`.t.t.t.t.t.B.B.z.z.z.B.t.2.2+W X Y ` X Y Y Y ` X Y Y *.*.V B+*.X V X ..../.w.p.C.z.t.D.O.>.( ] A A A d.d.d.d.d.#+#+#+#+#+#+#+#+#+#+#+#+#+#+#+.+#+#+.+#+d.#+.+.+.+.+.+S..+.+.+.+.+.+.+.+.+.+.+.+.+.+.+.+.+.+.+.+.+.+.+.+.+.+.+.+.+@+=+@+*+*+*+*+*+*+e.e.e.e.e.e.e.e.&+&+e.e.&+&+&+&+&+&+&+&+&+&+&+&+&+&+&+&+&+&+/ / 8 7 q S ` $.{.k+l+m+m+q+r+q+n+r+n+n+n+n+q+n+m+l+i+f.o.r.O.O.G.G.G.G.G.G.r.r.D.`.`.B.z.z.q.C.u.u.p.w.J.;+;+,+'+)+P.P.]+^+M.:+U.N.W.++%+d.e.6 c.c.g.g.:.:.8.:.:.<.9+9+:.c.9+9+0+g.c.9+c.9+9+9+9+c.:.c.9+9+0+0+9+0+9+0+0+0+9+9+0+9+9+9+c.c.^.:.c.c.c.:.:.^.^.^.^.^.$.$. .;.;.;.].` Y Y Y *...G K I K E I I S U U H H o w ~.q f -.-.v       d 0 0 0 0 0 0 0 0 0 0 0 0 0 0 0 0 0 0 0 0 0 0 0 0 0 0 0 0 0 0 0 0 0 0 0 0 0 0 0 0 0 0 0 0 0 0 0 0 0 0 0 0 0 0 0 0 0 0 0 0 0 0 0 0 0 0 ",
"0 0 0 0 0 0 0 0 -.N < ] ] _ 2 N g x C B f 0 d 0 p s C B C z 4.4.4.O M M L L M L 6+5+M M M L F 4.K 4.s C z E =.B K 6.a.4+4+7+7+4.m.a.7+7+6+7+7+6.a.4.7+M M 7+P M M M a.9.=.E P =.M P O 5+a.4.m.4.K =.4.K K L P f 7 -.).6 c ~.k.n 0 k.6 n (.0 n ) @+#+V.q.B.t.`.`.t.t.`.B.z.B.B.B.z.z.q.q.z.t.& 3.9.%.Y *.X %.X %.` Y Y *.*.*.Q ..V ..V F @ w.C.z.t.`.r.G.O.3 ( ] A A d.d.d.d.d.d.#+#+#+#+#+#+#+#+#+#+#+#+.+.+#+.+#+#+#+#+d..+.+.+.+.+.+.+.+.+.+.+.+.+.+.+.+.+.+.+.+.+.+.+.+.+.+.+.+.+.+.+.+=+=+=+=+@+@+*+*+*+*+*+e.e.e.e.e.e.e.e.e.e.e.e.&+&+&+&+&+&+&+&+&+&+&+&+&+&+&+&+&+/ / 9 m f v T ` $.{.k+l+m+n+n+q+n+n+n+r+n+n+n+q+r+m+m+m+f.@ O.O.O.O.G.G.G.O.O.O.r.r.D.D.t.t.z.z.q.C.p.u.p.J.J.;+;+,+'+)+{+8+]+^+M. + +N.W.++%+d.1 / ..c.:.:.:.<.g.c.c.c.:.c.:.c.c.0+9+9+9+9+9+c.c.9+c.:.g.c.c.c.9+9+0+0+0+9+c.c.9+9+0+9+9+c.:.:.^.c.c.c.:.:.^.^.^.$.$. . .;.` Y ].*.*.*.+.*.T T G Q I I S H H w C+}.w w o o _.-.6 m q 0 0 0 0 0 0 0 0 0 0 0 0 0 0 0 0 0 0 0 0 0 0 0 0 0 0 0 0 0 0 0 0 0 0 0 0 0 0 0 0 0 0 0 0 0 0 0 0 0 0 0 0 0 0 0 0 0 0 0 0 0 0 0 0 0 0 0 0 0 0 0 0 ",
"0 0 0 0 0 0 0 f + $ ++i | ) g N j P p q 6 0 d f y C z P z P =.4.6.L M =.L L M =.6+5+P 7+L 4.L =.B s C z =.6.L m.6.7+7+4+5+6+6.m.7+m.m.6+M P 7+m.4.4.4.7+L L L L P L L 6.@.4.P L =.P L M 7+a.a.K E K F F F C d 8 8 : D @+| n f.5 / 5 5 e.| n | #+++Q.V.w.z.B.B.t.t.t.B.t.B.B.z.z.z.z.q.C.u.C.q.B.& 3.I X X Y Y Z Z Z Y <...G Y *.*.T Y |.J.u.q.z.t.t.r.G.G.r.3 ( ( A A d.d.d.#+#+#+#+#+#+#+#+#+#+#+#+.+.+.+.+d.#+#+#+.+.+.+.+.+.+.+.+.+.+.+.+.+.+.+.+.+.+.+.+.+.+.+.+.+.+.+.+.+.+.+.+.+.+=+=+=+=+=+*+*+*+*+*+*+*+*+e.e.e.e.e.&+&+&+&+&+&+&+&+&+&+&+&+&+&+&+&+&+&+&+&+/ / / 9 8 7 d H *. . .{.l+i+i+r+n+n+n+n+n+n+n+n+n+n+r+q+m+m+i+I.O.G.G.G.G.G.G.O.O.r.O.r.`.D.`.B.B.z.z.q.C.u.p.p.w.J.J.,+,+)+{+{+P.]+^+M. + +L.W.++%+d.1 ) p :.9+9+g.g.:.c.<.<.<.<.c.:.9+9+9+c.9+9+0+9+0+9+9+g.g.:.c.9+0+9+9+9+9+c.:.c.9+0+0+9+c.c.:.^.:.9+:.:.:.c.c.^.^.:.^.$.$. .` ` Y Y Y Y ..+.T S S I H B+H w v w o o p o o (.6       0 d 0 0 0 0 0 0 0 0 0 0 0 0 0 0 0 0 0 0 0 0 0 0 0 0 0 0 0 0 0 0 0 0 0 0 0 0 0 0 0 0 0 0 0 0 0 0 0 0 0 0 0 0 0 0 0 0 0 0 0 0 0 0 0 0 0 0 0 0 0 0 0 ",
"0 0 0 0 0 0 J   H.[.e.1 D 0.3.g j I B s (.e 7 z C L z B C C =.4.=.=.M L P L P K M M =.L L K =.z C y B K L L P L a.7+6+4.7+m.m.6+5+7+6.9.L O M M L a.m.4.=.=.=.F E E 4.=.K 9.4.L P P M L =.4.4.L y F B v w d 8 m } ! [.U.Z.*+&+/ &+^ &+e.&+!+>+W. +o.J.C.B.t.t.t.`.t.t.B.B.z.q.z.q.q.C.u.C.u.p.u.u.q.2.3.K V Y X V 5.&.T B+*.T Y *. .L o.w.q.B.t.D.r.r.r.G.s.O.|.( ] A A ' d.d.d.d.d.d.d.#+#+d.#+#+#+#+#+#+#+.+.+.+.+.+.+.+.+.+.+.+.+.+.+.+.+.+.+.+.+.+.+.+.+.+.+.+.+.+.+.+.+.+.+.+.+.+.+.+=+=+=+*+*+*+*+*+*+*+*+e.*+*+e.e.e.&+&+&+&+&+&+&+&+&+&+&+&+&+&+&+&+&+&+/ / / 9 h.7 e v B+Y  .X b.l+m+i+r+n+n+n+n+n+n+n+n+n+n+n+q+m+m+i+#.G.G.G.G.G.G.G.G.O.r.r.r.D.t.t.`.t.z.z.q.q.C.u.p.p.w.J.;+,+,+)+{+8+8+b+^+M. +L.L.N.Z.%+#+] ^ 6 c.9+c.c.g.c.<.<.:.:.c.:.c.9+9+9+c.c.9+0+9+9+9+9+c.<.c.g.0+0+0+c.:.9+c.9+9+9+0+9+c.c.:.^.c.9+9+c.^.^.c.c.:.^.$.$.$.$. .;.;.;.;.;.Y *...T S S B+T U +.+.j.o q -.d (.          d 0 0 0 0 0 0 0 0 0 0 0 0 0 0 0 0 0 0 0 0 0 0 0 0 0 0 0 0 0 0 0 0 0 0 0 0 0 0 0 0 0 0 0 0 0 0 0 0 0 0 0 0 0 0 0 0 0 0 0 0 0 0 0 0 0 0 0 0 0 0 0 0 0 ",
"0 0 0 0 0 r   I.++'   ~ [.b l l y H z e C f e M P B C E C z E =.m.7+M P y L L =.M 4.L L =.4.=.L C K a.=.L M 4.9.m.7+a.4.4.a.4.4.4.6+7+a.9.=.L M O L L 4.@.K a.=.4.E 4.=.=.4.a.a.C s M P @.L =.M B B v ~.k.9 1 ( D ++^+o.V.U.S.>+=+S.S.S..+.+Y.Y.P.,+q.q.B.t.t.D.`.t.t.t.z.z.q.C.C.C.u.u.u.u.p.p.p.w.p.z.2.3.6.` ` X T S T +.Y ..Z 7.n.J.u.z.t.r.r.G.G.G.G.x.x.s.3 ( ] A d.A d.d.d.d.d.d.d.d.d.d.#+#+d.d..+.+.+.+.+.+.+.+.+.+.+.+.+.+.+=+.+.+.+.+.+.+.+.+.+=+.+.+.+.+.+.+.+.+.+.+.+.+=+=+=+=+=+*+=+*+*+*+*+*+*+*+*+*+e.e.e.e.&+&+&+&+&+&+&+&+&+&+&+&+&+&+&+&+/ / / 9 8 7 f q H ..` %.W }.l+i+q+n+r+u+n+n+n+y+y+n+n+r+n+q+m+m+i+$ O.O.G.G.G.G.G.G.O.O.r.r.D.D.`.t.B.B.z.q.C.C.C.u.u.p.w.J.;+;+,+'+)+8+8+]+^+M. +U.N.W.++Z.! ] i 9 G 9+9+9+9+c.:.g.c.c.c.c.c.9+:.c.0+9+9+9+9+9+c.c.9+<.c.g.9+0+c.:.c.c.9+0+0+9+c.c.c.:.$.:.c.9+c.:.:.:.^.^.:.^. . . . .` ` ` Y Y Y *.*.+.B+S H w o o ~.k.6 5 '.    d d -.0 0 0 0 0 0 0 0 0 0 0 0 0 0 0 0 0 0 0 0 0 0 0 0 0 0 0 0 0 0 0 0 0 0 0 0 0 0 0 0 0 0 0 0 0 0 0 0 0 0 0 0 0 0 0 0 0 0 0 0 0 0 0 0 0 0 0 0 0 0 0 0 0 0 0 0 0 ",
"0 0 0 0 0 k           ~ N g l j z q f p y s y P C E B B E =.E =.m.4.L P s L 4.L L L y L a.m.L =.K 9.=.4.=.L a.=.7+7+7+7+m.4.4.6.4.7+O L 9.9.a.=.M P 4.P L @.K K 4.4.B =.L P L 4.4.O P z 4.=.=.y C q q k.} i Z.T.[.o.o.P.,+J.;+o.N.Q.|+[+:+Q.:+_+P.,+u.z.t.t.t.t.t.t.t.t.B.z.q.u.u.p.p.w.w.p.p.J.J.w.w.w.p.C.2.3.F T T Y +.*.Y  .$.O ;+p.q.B.`.r.r.O.O.G.s.s.s.s.s.|.1 ( A A A d.d.d.d.d.d.d.d.d..+d..+.+.+.+.+.+.+.+.+.+.+.+.+.+.+.+=+=+.+.+.+.+.+.+=+=+=+.+.+.+.+.+.+.+.+.+=+.+.+.+=+=+=+=+=+*+*+*+*+*+*+*+*+*+e.e.e.e.e.&+&+&+&+&+&+&+&+&+&+&+&+&+&+&+/ / | 9 8 m f d v S *.X W Q j+l+m+n+n+r+n+y+n+n+w+n+n+n+n+q+n+q+m+i+$ O.O.G.O.G.G.O.O.O.O.r.r.r.D.D.`.`.t.z.z.q.q.C.C.u.u.p.J.;+;+;+;+,+'+)+{+]+V.^+ + +T.N.++%+! ] i 9 v 9+9+g.<.g.g.<.c.:.<.:.c.:.9+9+9+9+c.9+9+9+9+c.c.8.c.9+9+9+c.:.9+9+9+0+9+9+c.9+:.$.^.c.c.9+c.^.$.c.:.^.c.:.:.:.^. .Z X X *.....+.+.U H w v q (.-.6 5 | / ] ~     e q 0 0 0 0 0 0 0 0 0 0 0 0 0 0 0 0 0 0 0 0 0 0 0 0 0 0 0 0 0 0 0 0 0 0 0 0 0 0 0 0 0 0 0 0 0 0 0 0 0 0 0 0 0 0 0 0 0 0 0 0 0 0 0 0 0 0 0 0 0 0 0 0 0 0 0 0 0 ",
"0 0 0 0 r           * , N l j s q e d C C s P M L 4.E z G K K m.6.m.7+L y L 4.m.=.P 4.4.a.=.L 4.@.4.=.@.L 4.=.4.M m.M m.7+7+6.@.6.=.L O 4.5.6.4.4.=.P L P P @.6.K @.=.M K =.=.L L B y y P L P L q d e m < D :+_+ +V.u.C.p.w.u.z.q.;+b+(+(+(+'+'+)+;+C.q.q.B.t.B.B.t.t.t.B.z.z.q.u.w.w.J.;+J.J.J.;+J.J.J.w.w.p.C.@ g K Z ` Z <.:.l.* J.u.z.t.`.D.R.r.O.G.G.s.s.s.x.s.n.1 ] A A A d.d.d.d.d.d.d.d.d..+.+.+.+.+.+.+.+.+.+.+.+.+.+.+.+.+.+=+=+.+=+=+=+=+=+=+=+=+=+.+.+.+.+.+=+=+=+=+=+=+=+=+=+*+=+*+*+*+*+*+*+e.e.e.*+e.e.e.e.e.e.e.&+&+&+&+&+&+&+&+&+&+/ / | 9 9 m f e p H T Y V @.@.k+m+m+q+r+n+w+n+y+y+n+n+n+r+r+n+q+r+m+i+$ O.G.G.G.O.r.O.O.r.O.O.r.r.D.D.t.t.t.t.B.q.q.q.C.u.u.u.w.J.;+,+,+,+'+'+)+{+]+^+M. +U.T.[.++%+D A 1 t v 0+9+9+g.8.c.g.:.c.c.:.:.c.9+9+9+9+c.c.c.c.c.:.8.8.g.g.9+9+:.c.9+c.9+9+c.:.9+^. .<.9+^.9+c.:.^.c.:.:.:.9+c.9+:.:.$. . . . .` *...S H v q d 0 k.0 5 | ^ 0.' !   t 0 0 0 0 0 0 0 0 0 0 0 0 0 0 0 0 0 0 0 0 0 0 0 0 0 0 0 0 0 0 0 0 0 0 0 0 0 0 0 0 0 0 0 0 0 0 0 0 0 0 0 0 0 0 0 0 0 0 0 0 0 0 0 0 0 0 0 0 0 0 0 0 0 0 0 0 0 0 0 ",
"0 0 0 0 0 t     g     < ( l u e e d p z s C L C B @.L B w X 7.a.a.7+7+B C B =.P z =.a.4.L M 4.4.=.L K @.7+7+M 4.L 7+M m.7+6+m.6.5.5.m.7+7+9.W @.4.=.E =.C P m.a.@.F K m.L 4.=.P P L C x J s z v f -.7 } M.U.M.b+P.o.o.C.C.q.z.z.C.p.p.w.;+J.'+J.u.C.z.B.t.t.t.B.B.B.t.t.B.z.z.z.q.p.J.;+,+,+J.;+;+J.J.;+J.w.w.p.p.u.2.N =.8.<.<.s ,+p.C.B.t.D.r.D.O.G.s.s.s.G.s.s.s.s.v.1 ( ] A A A d.d.d.d.d..+d..+.+.+.+.+.+.+.+.+.+=+.+.+.+.+.+.+=+=+=+.+=+=+=+=+=+=+=+=+.+=+=+.+=+=+=+=+=+=+=+=+=+=+=+=+*+*+*+*+*+*+*+e.e.e.e.e.e.e.e.e.&+&+&+&+&+&+&+&+/ / / / | | 9 !.f e q v S ..V Q @.I k+l+r+n+n+n+p+n+u+y+n+p+y+y+n+q+n+n+m+i+#.G.O.O.O.O.O.O.O.O.O.O.R.r.R.`.D.t.B.B.z.z.q.q.C.u.u.p.w.w.w.;+;+,+'+)+)+{+{+]+^+^+ +U.T.W.++%+D A _ t q 9+0+g.g.g.:.8.<.9+0+c.:.c.0+9+9+0+c.c.c.:.<.c.c.c.c.8.g.g.c.9+0+9+9+c.<.9+c.<.<.:.c.c.:.9+:.:.9+^.^.9+9+:.^.:.^.$.^.$.<.Z Y ..S w v p q e 0 6 5 9 ( !         6 0 0 0 0 0 0 0 0 0 0 0 0 0 0 0 0 0 0 0 0 0 0 0 0 0 0 0 0 0 0 0 0 0 0 0 0 0 0 0 0 0 0 0 0 0 0 0 0 0 0 0 0 0 0 0 0 0 0 0 0 0 0 0 0 0 0 0 0 0 0 0 0 0 0 0 0 0 0 0 ",
"0 0 0 0 0 7 r 6       0.g k J 0 d p v y s B y z v @.E B =.Q W =.M =.I B C B B C L @.4.L M 7+4.4.L L @.6.m.7+4.=.K a.M 6+7+7+6+m.6.7.9.4.m.7+9.5.@.4.E 4.K L =.4.a.K K 9.a.4.K 6.4.L P L x x y e 6 9 : D V.M.V.^+]+p.J.q.B.z.C.u.C.C.C.C.q.C.q.q.z.t.`.t.`.`.t.t.B.t.t.B.B.B.z.q.z.q.p.J.;+,+,+;+,+;+;+;+;+;+J.J.J.J.J.w.2.|.L Z |.J.u.q.B.`.r.O.O.O.O.G.s.s.s.s.G.s.x.x.E.b ( ] ] A A A A A .+.+.+.+.+.+.+.+.+.+.+.+.+.+.+.+.+=+=+=+=+.+.+=+=+=+=+=+=+=+=+=+=+=+=+=+=+=+=+=+=+=+=+=+=+=+=+*+*+*+*+*+*+*+*+e.e.e.e.e.e.e.e.&+&+&+&+&+&+&+/ / / / | | 5 n 6 e q v H T ..Q K K C+l+m+q+n+n+n+n+y+r+y+q+n+y+w+n+n+n+m+m+i+#.O.r.O.O.O.O.O.O.O.O.r.r.r.r.D.t.t.t.t.B.z.z.z.q.C.C.u.u.p.J.J.J.;+,+'+)+{+8+P.P.^+M. +U.T.[.++%+' ( _ t d 9+9+9+c.g.<.8.c.c.9+9+c.:.c.c.0+0+9+c.9+c.<.9+c.9+9+c.g.8.g.9+9+9+0+9+c.c.<.<.:.:.c.9+:.9+c.9+c.:.c.9+9+:.:.^.$. .<.^.<.Z *.B+w C+w p k.-.6 | '.i ( !       -.0 0 0 0 0 0 0 0 0 0 0 0 0 0 0 0 0 0 0 0 0 0 0 0 0 0 0 0 0 0 0 0 0 0 0 0 0 0 0 0 0 0 0 0 0 0 0 0 0 0 0 0 0 0 0 0 0 0 0 0 0 0 0 0 0 0 0 0 0 0 0 0 0 0 0 0 0 0 0 0 ",
"0 0 0 0 0 0 8     , ~ N g k 7 f d q q y y P z C v I v E B @.@.7+M F Q B B B =.B =.@.M M O 4.=.m.M a.@.6.@.6.m.m.m.m.m.O y P 7+m.m.5.6.@.L m.M 4.6.a.4.L B L L =.6.4.I a.6.4.m.m.=.4.F w z s s 7 h.( A { o.P.o.'+'+w.C.z.B.q.C.C.z.z.z.z.z.q.q.z.t.`.t.t.`.r.`.t.`.t.t.t.B.t.B.z.q.q.q.w.;+,+'+'+,+'+,+;+;+,+,+;+;+J.;+;+;+J.o.3 o.p.q.B.D.D.O.G.G.O.O.G.s.s.s.s.s.s.x.s.x.++/ ( ( ] ] @+] d.d.d.@+@+.+.+.+.+.+@+.+.+.+.+=+=+=+=+=+=+=+=+=+=+=+=+=+=+=+=+=+=+=+=+=+=+=+=+=+=+=+=+=+=+=+=+=+*+*+*+*+*+*+*+e.e.e.*+e.e.&+e.e.&+&+&+&+/ / / / / | 9 8 !.6 0 d p w S ..Q K K K }.l+m+m+n+n+n+y+y+p+y+n+y+n+y+n+n+r+m+m+i+I.r.r.O.O.O.G.O.O.O.O.r.r.r.D.r.R.`.t.t.B.B.q.q.q.C.C.u.u.p.w.J.J.;+,+,+)+{+8+8+]+^+M.M. +T.< [.++%+D ( _ t e c.0+:.c.c.<.:.9+:.c.9+9+c.c.c.9+0+c.g.g.8.8.c.9+9+9+c.g.g.c.9+c.9+0+9+c.:.:.:.<.<.c.c.c.0+9+9+9+c.c.c.c.c.<.^.c.9+:.g.8.Y ..S w w w q k.n ) i ] ~ [.=   r 0 0 0 0 0 0 0 0 0 0 0 0 0 0 0 0 0 0 0 0 0 0 0 0 0 0 0 0 0 0 0 0 0 0 0 0 0 0 0 0 0 0 0 0 0 0 0 0 0 0 0 0 0 0 0 0 0 0 0 0 0 0 0 0 0 0 0 0 0 0 0 0 0 0 0 0 0 0 0 0 0 0 ",
"0 0 0 0 -.8     * [.3 N j r f q q q e s d z z B z F v E B 4.6.4.=.=.Q I I F z L =.=.M O z 6.a.6.m.4.4.=.6.5.5.9.6.=.m.=.L M O M 7+m.9.6.6.=.P M L =.m.L 4.4.=.L L m.L m.4.K =.L P P y y e f r 7 ) ! %+L.o.,+;+;+,+u.q.z.q.q.q.q.B.t.z.z.z.z.z.B.`.`.t.t.`.D.r.O.r.D.t.t.`.t.t.z.q.q.q.C.J.,+'+)+)+)+)+,+;+,+,+,+,+;+;+,+,+,+'+'+P.w.q.B.r.r.O.G.G.G.G.G.s.x.s.x.s.x.x.x.x.%+i+5 _ 1 ] @+@+@+@+@+@+@+@+.+d..+=+=+.+.+.+.+.+.+=+=+=+=+=+=+=+=+=+=+=+=+=+=+=+=+=+=+=+=+=+=+=+=+=+=+=+=+=+*+*+*+*+*+*+*+*+*+e.e.e.e.e.e.e.e.e.&+&+&+/ / / / | 9 8 h.6 -.d q v H G G K F F F k+l+m+n+n+w+u+n+n+n+n+w+y+p+n+n+n+n+m+m+!+I.O.O.O.O.O.O.O.G.O.R.R.r.r.r.D.t.t.t.t.t.B.z.q.C.q.C.C.u.u.p.J.J.J.,+'+'+)+8+]+b+^+^+M. +U.T.[.++~ 0.' ( : t e g.0+9+9+:.<.<.c.9+9+c.:.c.g.g.9+0+c.g.9+g.9+9+0+9+0+0+g.c.g.9+9+9+0+g.g.8.8.<.<.8.g.:.0+c.9+9+c.:.c.c.c.9+c.9+9+c.g.<.%.*.B+H w w o _.-.9 ) ' ~ !     8 -.-.0 0 0 0 0 0 0 0 0 0 0 0 0 0 0 0 0 0 0 0 0 0 0 0 0 0 0 0 0 0 0 0 0 0 0 0 0 0 0 0 0 0 0 0 0 0 0 0 0 0 0 0 0 0 0 0 0 0 0 0 0 0 0 0 0 0 0 0 0 0 0 0 0 0 0 0 0 0 0 0 0 ",
"0 0 0 f r         ,.N : 8 f q q d v y y z B z E E F B B C 4.4.K E F Q Q I F z L =.4.M C E 4.6.4.7+7+=.L 4.9.7.6.9.a.7+M L =.B y M M 7+m.a.4.4.4.L P L L =.4.4.L L L P L K V W Q G F w p e m t 9 _ [.++ +V.w.u.J.J.u.q.q.z.t.B.z.z.q.q.z.B.z.B.t.`.`.t.t.`.r.G.G.r.D.D.`.`.`.t.B.z.q.C.C.u.J.,+)+{+{+)+'+'+)+{+'+'+,+,+,+,+'+)+)+{+V.h t.D.r.O.O.G.G.G.G.s.s.x.x.x.x.x.x.x.%+l+l+c } 1 1 1 1 @+@+@+@+@+@+@+@+.+@+@+=+=+=+=+=+=+=+=+=+=+=+=+=+=+=+=+=+=+=+=+*+=+=+*+*+=+=+*+=+=+=+=+*+*+*+*+*+*+*+*+e.e.e.e.e.e.e.e.e.e.e.&+&+&+/ / / 9 9 5 !.7 -.d d p w S I F F F 4.w l+m+m+q+u+n+x+y+n+w+y+x+n+n+x+n+r+q+n+m+!+@ r.r.r.O.r.R.O.O.O.O.O.R.R.r.R.`.t.t.t.B.B.z.z.q.C.C.C.p.p.w.J.;+,+;+,+)+)+{+]+]+b+^+M. +U.U.[.[.++3 0.D ( : t f Z 9+9+c.c.<.8.c.:.<.:.9+<.c.8.g.9+9+9+9+g.9+c.9+9+9+c.8.9+9+9+c.0+0+g.g.g.c.<.<.g.c.g.c.9+0+9+9+9+9+c.c.c.<.:.:.<.` V *.T B+H H v o a 5 | ( 0.            7 0 0 0 0 0 0 0 0 0 0 0 0 0 0 0 0 0 0 0 0 0 0 0 0 0 0 0 0 0 0 0 0 0 0 0 0 0 0 0 0 0 0 0 0 0 0 0 0 0 0 0 0 0 0 0 0 0 0 0 0 0 0 0 0 0 0 0 0 0 0 0 0 0 0 0 0 0 0 0 0 0 ",
"0 -.0 7 7 t     ,.3 2 8 7 d d q v B s f d F d w K E v C z L =.4.F I I I I K E B =.L P z F @.a.4.7+M L m.m.9.6.m.4.4.4.L L B L L L 6.7+P L L P L =.=.=.F 4.=.K @.4.K =.4.4.@.V 9.6.=.v p d -.8 9 ' T.N.P.;+w.u.C.J.;+C.q.B.t.B.q.z.q.z.t.B.B.B.t.`.`.t.`.`.D.D.G.r.D.r.`.t.t.t.t.t.B.z.q.C.p.J.'+)+{+8+{+)+)+)+)+)+)+)+)+)+)+'+'+{+P.M.h r.O.O.G.G.O.G.G.s.s.s.x.x.x.x.x.x.! l+k+i+i+-.'.1 e.1 1 1 @+@+@+@+@+@+@+@+@+@+@+=+@+@+=+@+=+=+*+=+*+=+=+=+=+*+*+*+*+*+*+*+*+*+*+*+*+*+*+*+*+*+*+*+*+*+*+*+e.e.e.e.e.e.e.e.^ &+^ / / / / 9 9 h.!.7 f e d p w S I F F F E 4.o l+m+n+r+n+n+n+x+u+w+y+n+p+x+w+n+n+m+m+m+!+> O.`.D.r.O.O.R.r.O.O.O.G.O.r.D.`.D.t.t.z.B.B.z.q.q.C.u.u.p.J.J.;+,+,+'+'+)+{+8+]+b+^+M. +U.T.T.[.[.++0.D b _ : 8 f &.0+c.<.<.:.<.<.<.8.<.:.:.<.g.g.9+c.9+9+9+c.9+g.9+c.c.g.c.g.c.9+9+c.g.9+0+9+g.:.g.<.c.g.9+9+9+0+9+c.<.:.:.<.^. .` *...T T S v z v ~.6 | (           r 0 0 0 0 0 0 0 0 0 0 0 0 0 0 0 0 0 0 0 0 0 0 0 0 0 0 0 0 0 0 0 0 0 0 0 0 0 0 0 0 0 0 0 0 0 0 0 0 0 0 0 0 0 0 0 0 0 0 0 0 0 0 0 0 0 0 0 0 0 0 0 0 0 0 0 0 0 0 0 0 0 0 0 0 ",
"0   g     H.,.++D 1 : 8 f q q q B y f d z B q q G I B =.B L L =.K F K @.w G Q B E P C B K 6.=.a.=.M 7+4.4.4.9.a.m.4.4.=.L z z =.4.=.=.=.P L L L z L L B B =.L =.a.a.a.4.B L 4.W I K B q d ).8 | %+N.L.,+C.u.C.q.q.w.u.q.z.B.z.C.q.B.z.B.B.z.B.D.D.`.B.t.`.`.`.`.R.r.R.`.`.t.`.`.t.z.B.q.q.C.p.J.'+{+{+{+{+)+'+'+)+'+{+{+{+)+{+)+)+{+^+,.h O.G.s.G.G.G.s.G.s.s.x.x.x.x.x.x.! l+l+l+i+l+k+-.) i e.e.1 1 1 1 @+1 @+@+@+@+*+*+*+*+*+*+*+*+*+*+*+*+*+*+*+*+*+*+*+*+>+*+*+*+*+*+*+*+*+*+*+*+*+*+*+e.e.e.e.e.e.e.e.^ ^ ^ ^ / / 9 9 9 9 m m 7 6 f d q v H I F E E E E E k+m+q+r+r+n+n+w+w+w+w+n+p+y+n+n+n+q+q+m+m+@+E.r.r.r.D.r.O.O.O.r.r.O.r.r.r.r.D.`.t.t.t.B.B.z.z.q.q.C.C.p.p.p.J.;+,+'+'+)+{+{+8+b+^+M. + +U.T.[.[.++3 0.D b _ : 8 f ..9+:.:.c.:.c.c.:.<.<.<.<.8.<.c.g.9+9+9+c.g.9+9+c.<.:.9+c.g.c.9+g.c.g.g.g.9+c.<.:.g.:.g.g.9+9+9+c.c. .:.:.c.<. .Z X ..T B+U w v ~.0 9 '.          0 0 0 0 0 0 0 0 0 0 0 0 0 0 0 0 0 0 0 0 0 0 0 0 0 0 0 0 0 0 0 0 0 0 0 0 0 0 0 0 0 0 0 0 0 0 0 0 0 0 0 0 0 0 0 0 0 0 0 0 0 0 0 0 0 0 0 0 0 0 0 0 0 0 0 0 0 0 0 0 0 0 0 0 0 0 ",
"u     , < , ~ ! ' 1 9 ).(.d B v f d d v z F p d I I E E z L L L 6.I 4.E w V 7.z B P B =.L m.4.m.=.P L a.a.m.9.a.a.4.6.K F B B B =.m.=.=.=.=.B =.B 4.=.K W K =.=.P L E E B B P L F E E q 0 6 ) A ++T.L.,+C.q.C.q.q.q.C.q.z.B.z.q.z.B.t.z.t.B.B.t.D.t.B.`.`.D.r.D.`.`.D.R.`.D.`.t.`.t.B.z.q.q.q.u.J.'+)+{+{+)+)+{+{+{+8+8+8+{+8+8+{+{+8+M.< E.s.G.G.G.s.s.s.x.x.x.x.x.x.x.x.Z.l+l+i+l+l+i+k+}.f ) ^ i i 1 1 1 e.1 1 1 *+e.*+*+*+*+*+*+*+*+*+*+*+*+*+*+*+*+*+>+>+>+>+>+>+*+*+*+*+*+*+e.e.*+e.e.e.e.e.e.e.&+&+&+/ / / / 9 | 9 9 8 m 7 6 f e q v H F E E E B B B ~.l+r+m+r+n+n+u+n+x+p+p+w+w+n+y+n+n+n+r+m+m+%+t.r.`.`.D.`.r.r.O.R.R.r.r.r.D.D.`.`.t.t.B.B.B.z.z.q.C.C.u.p.p.p.w.;+,+,+)+)+{+{+8+8+^+M.M. +U.T.< [.++3 0.0.b ( _ : 8 f V :.:.:.c.<.<.g.g.g.c.c.g.<.c.g.9+9+c.9+:.c.c.9+c.g.c.0+0+9+c.c.8.8.c.c.9+c.:.c.c.<.g.g.<.c.9+9+c.:.<.<.:. . .` Y +...T B+C+v p d m 1 3 }   7 0 f 7 0 0 0 0 0 0 0 0 0 0 0 0 0 0 0 0 0 0 0 0 0 0 0 0 0 0 0 0 0 0 0 0 0 0 0 0 0 0 0 0 0 0 0 0 0 0 0 0 0 0 0 0 0 0 0 0 0 0 0 0 0 0 0 0 0 0 0 0 0 0 0 0 0 0 0 0 0 0 0 0 0 0 0 0 0 ",
"0 7   - %+#+.+A i 9 ).f C B v q d B w F z q v p S E F K M =.P =.F E E B w 7.5.z =.z E F P P m.4.L P 7+5.a.m.a.9.a.=.=.a.@.I B B K K 4.F 4.4.E B B L z z B E B B B P B v w B B P L z P C f ).) 0. +P.o.w.C.C.C.C.z.z.z.z.t.B.B.B.B.q.B.B.B.B.t.t.`.r.D.D.`.t.`.`.D.D.r.D.D.D.`.t.t.`.D.t.B.q.z.C.p.J.)+{+{+{+{+{+8+]+b+^+b+]+]+8+8+{+8+]+U.< t.G.G.G.s.s.x.s.s.x.x.x.x.x.x.[.l+l+l+l+l+i+i+k+{.U 0 t ) ^ ^ i e.e.e.e.e.e.e.e.e.e.e.e.e.*+e.*+*+e.e.e.e.*+>+>+e.e.>+e.e.e.&+e.e.e.e.e.e.e.e.e.&+e.^ &+/ / / / / / } 9 9 8 8 m ).7 f e q v w E v B B B B B B c i+m+n+n+w+u+w+n+z+p+w+n+y+n+n+r+n+n+q+m+i+,.r.r.O.r.t.D.D.D.D.r.r.r.r.R.D.`.`.t.t.t.B.B.z.z.q.q.C.u.u.p.w.J.w.J.J.,+'+)+)+{+8+]+^+^+M. +U.U.T.[.++~ %+0.D b 2 _ : 8 e ..c.0+9+g.<.g.c.c.9+c.c.c.g.c.c.c.9+9+9+9+c.g.g.9+0+9+c.0+g.g.9+c.g.c.8.g.g.9+c.9+:.<.c.c.c.g.9+9+c.c.c.:.:.Z ` Y *.+.+.B+H o ~.d } 0.  z d 0 0 0 0 0 0 0 0 0 0 0 0 0 0 0 0 0 0 0 0 0 0 0 0 0 0 0 0 0 0 0 0 0 0 0 0 0 0 0 0 0 0 0 0 0 0 0 0 0 0 0 0 0 0 0 0 0 0 0 0 0 0 0 0 0 0 0 0 0 0 0 0 0 0 0 0 0 0 0 0 0 0 0 0 0 0 0 0 0 ",
"0 0 r     Z..+@+1 [ j J s C q z v S V H q d w p H B L 4.P =.P E =.B E e G 9.6.z B =.B K P O =.=.4.L 4.5.a.4.4.9.5.K K 4.L E K B z K a.6.6.@.I 4.F E P C B K E B B E B z C q v w v z z C f 8 : 1 ~ N.V.;+u.C.C.q.z.t.z.B.z.B.t.z.z.z.z.z.B.t.t.t.t.D.r.r.`.`.D.`.`.D.r.r.O.r.t.r.D.D.r.D.D.t.B.z.C.u.J.)+{+{+8+8+b+_+M.^+_+b+]+8+{+{+{+8+M.T., `.G.G.s.s.s.s.x.x.x.x.x.x.x.#.l+k+k+l+l+i+i+l+j+{.{.b.q 7 } } ) ) ^ ^ ^ ^ &+&+e.&+&+e.e.&+e.&+&+&+&+&+&+&+&+&+&+e.e.&+&+&+&+&+&+&+&+&+&+&+&+&+&+/ / / / / 9 9 9 9 8 8 8 m ).7 f e q v w E B B B z z z B _.l+m+r+n+w+x+w+p+z+y+n+u+n+z+y+n+r+r+n+m+q+!+H.r.D.`.r.O.D.`.`.`.D.`.D.R.t.t.`.`.`.t.B.B.z.z.q.q.q.C.p.p.w.w.J.;+,+,+'+)+)+{+8+8+]+^+M.M. +U.U.T.[.++++3 0.D b ( 2 _ } 8 e V 9+9+9+:.g.c.c.g.g.g.<.:.g.<.:.g.9+9+c.g.g.c.c.9+8.8.g.g.g.g.c.8.g.9+g.g.g.g.9+8.<.<.c.c.9+9+0+9+c.:.^. .`  .Z V T T B+H o w o -._ 0.  f 0 0 0 0 0 0 0 0 0 0 0 0 0 0 0 0 0 0 0 0 0 0 0 0 0 0 0 0 0 0 0 0 0 0 0 0 0 0 0 0 0 0 0 0 0 0 0 0 0 0 0 0 0 0 0 0 0 0 0 0 0 0 0 0 0 0 0 0 0 0 0 0 0 0 0 0 0 0 0 0 0 0 0 0 0 0 0 0 0 0 ",
"0 0 r       ! ^ 5 n 6 (.q p w C+H ..Q H C d w v F z L L B B L K =.B z q Q 6.F E F K B @.C O =.=.4.K @.6.@.4.=.a.5.9.4.K I L E F E z =.=.a.K K F =.E B L F T U w z y e e d d q _.o w v p a 6 ^ $+N.^+'+,+J.C.q.z.t.t.B.z.z.B.B.B.z.z.B.B.B.t.t.B.B.`.O.r.t.t.`.D.`.D.r.r.r.r.r.r.D.t.`.D.D.`.`.t.z.C.C.w.'+{+8+]+^+M. + +M.^+b+]+8+{+)+{+b+U.< $ r.O.G.s.x.x.x.x.x.x.y.y.x.H.l+k+k+k+i+l+i+i+k+b.b.b.b.b.w e 7 8 } } / / / / / / / &+/ &+&+&+&+&+&+&+&+&+&+&+&+&+&+&+&+&+&+&+&+&+&+&+/ / / / / / / | 9 9 8 9 8 h.!.).7 7 f e q v E B B z z z z z z B c i+q+n+y+p+w+z+x+y+p+w+n+p+x+x+w+n+q+q+m+m+=+E.r.`.`.`.D.D.`.D.`.t.`.t.D.D.t.t.t.t.t.B.z.q.z.q.q.q.C.u.p.w.J.;+;+,+'+'+)+{+8+8+]+b+^+^+M. +U.T.T.[.[.++3 0.0.D b ( 2 _ } m d Q 9+9+c.c.g.:.<.:.:.<.c.<.8.c.g.9+9+:.c.g.g.g.8.l.8.8.c.8.g.8.g.9+8.g.8.g.<.9+9+g.9+<.g.g.9+9+g.c.9+c.<.^.` Y *.+.T B+w v p p _.8 1 [.  q -.0 0 0 0 0 0 0 0 0 0 0 0 0 0 0 0 0 0 0 0 0 0 0 0 0 0 0 0 0 0 0 0 0 0 0 0 0 0 0 0 0 0 0 0 0 0 0 0 0 0 0 0 0 0 0 0 0 0 0 0 0 0 0 0 0 0 0 0 0 0 0 0 0 0 0 0 0 0 0 0 0 0 0 0 0 0 0 0 0 ",
"0 0 0 -.-.7     '.n -.(.d z w v I V I H d d w w z C =.B =.P E @.@.B d v I @.7+F K 7.@.K P C E E @.@.K @.@.=.L =.a.5.7.K a.K B E B B L =.6.6.4.K F z C C C e _.w w z d k.d s e k.0 c k.a _._.6 1 W.V.P.;+u.C.z.B.B.B.B.B.z.z.B.z.z.z.B.B.B.`.`.t.B.D.r.`.`.t.D.r.D.t.`.D.r.O.r.O.D.t.t.`.`.`.t.t.B.z.C.C.w.)+]+^+(+ +U.U.U. +_+]+]+{+)+{+8+M.T.< H.G.s.s.s.x.x.x.x.y.x.y.x.E.i+k+k+k+k+l+i+i+l+k+b.+.b.B+B+B+B+v e ).8 8 9 9 9 './ / / / / / / / / / / &+/ / / / / &+/ / / / / / | / / | | 9 9 9 9 9 h.h.h.h.).7 7 f f d p v E B z z z C z z z z _.l+m+n+n+p+y+z+w+w+n+w+x+n+y+x+y+p+n+n+n+q+i+< D.D.D.r.`.`.D.D.`.B.B.t.t.t.t.t.t.B.B.z.B.z.z.q.C.C.C.C.u.p.J.w.J.,+'+'+)+)+{+8+]+b+b+^+M.M. +U.U.T.T.[.++~ 0.D D b b 2 _ k t 7 d Q c.c.:.g.c.c.:.<.:.8.<.%.Z 8.c.c.c.:.<.g.:.9+g.Z 8.g.l.8.g.c.9+9+l.g.8.Z 8.c.c.9+9+g.g.g.0+9+c.c.c.8.<.<.Z X %.V T C+w p p q 8 } 3   8 (.0 0 0 0 0 0 0 0 0 0 0 0 0 0 0 0 0 0 0 0 0 0 0 0 0 0 0 0 0 0 0 0 0 0 0 0 0 0 0 0 0 0 0 0 0 0 0 0 0 0 0 0 0 0 0 0 0 0 0 0 0 0 0 0 0 0 0 0 0 0 0 0 0 0 0 0 0 0 0 0 0 0 0 0 0 0 0 0 0 0 ",
"0 0 0 -.7 7 7     A } f d B v F F ..w I v v w w C v E L F B F 5.@.w q w I 6.L @.@.g.5.=.C C F E K I K @.9.=.=.=.a.4.8.7.a.6.4.L E =.F E =.=.4.a.@.@.I B e J 7 (.p p d n n 7 7 r 6 6 -.f.5 / '.] $+[.V.,+w.u.q.z.q.z.t.B.z.B.B.B.z.B.z.z.z.B.t.D.t.`.`.`.`.t.`.B.t.`.`.`.D.r.r.r.r.`.`.D.D.D.`.t.`.t.q.C.u.J.)+^+ +:+U.L.L.U.(+b+8+8+{+)+{+b+U.< < K.s.s.s.x.x.x.x.x.y.y.x.D.f.k+k+k+l+l+i+i+l+l+j+b.b.b.B+B+G T T S v e 7 7 m 8 8 8 t 9 } } / 9 | 9 / | | | / / | / | | | | | | 9 9 9 9 9 9 h.h.m m ).7 7 7 f f d q v E B z z q d d d C z z z c i+r+q+p+y+x+v+y+n+y+y+w+y+y+p+p+n+q+n+q+m+!+#.`.B.t.`.D.D.`.`.`.t.B.B.t.B.B.B.B.B.B.B.z.z.z.q.C.C.u.u.p.p.J.J.;+;+'+)+)+{+8+]+]+b+_+M. + + +U.T.N.T.[.++~ 0.D D b b 2 2 _ : t f d ..0+9+c.c.c.:.c.:.<.<.:.c.g.8.%.:.<.g.8.c.9+g.g.g.8.c.c.c.c.c.9+c.%.l.g.l.Z 8.9+9+c.c.c.9+9+g.8.l.8.9+<.Z X X Y V S w w o d ).9 (     (.0 0 0 0 0 0 0 0 0 0 0 0 0 0 0 0 0 0 0 0 0 0 0 0 0 0 0 0 0 0 0 0 0 0 0 0 0 0 0 0 0 0 0 0 0 0 0 0 0 0 0 0 0 0 0 0 0 0 0 0 0 0 0 0 0 0 0 0 0 0 0 0 0 0 0 0 0 0 0 0 0 0 0 0 0 0 0 0 0 0 0 ",
"0 0 0 0 -.r         A J C B z w G K B E w q v v v E 4.B B L F l.5.F q w I @.L K 9.g.l.K y z E F 4.E =.9.6.4.B 4.4.=.a.g.l.@.W 4.P 4.4.a.=.L L B L B E v s k 8 ).e f f 6 n 9 _ _ 8 n 5 5 / e.Z.N.P.J.J.J.p.u.q.q.z.q.z.B.B.B.z.z.z.z.z.z.z.z.t.t.t.t.`.`.D.`.t.`.t.t.D.D.r.D.`.O.O.O.`.D.r.r.D.`.`.t.B.q.C.C.w.)+M. +U.N.N.N.M.^+]+]+8+{+{+8+M.< < #.s.x.x.x.x.x.x.x.x.y.x.s./ k+k+k+l+l+l+i+i+l+k+b.b.B+T B+U B+T G T T S v d f 7 7 8 8 m 8 8 9 9 t 9 9 9 9 9 9 9 9 9 9 9 9 9 9 9 8 8 h.!.m !.7 7 7 7 f e q v E B B z z d d e e d e d z z c i+m+n+n+n+w+u+x+x+x+w+w+y+w+p+n+n+p+n+n+m+m+@+> B.B.B.`.B.t.D.`.t.t.t.B.B.t.B.B.z.z.z.z.q.C.q.C.C.u.u.p.J.J.J.;+;+,+'+)+)+{+{+8+]+b+^+M.M. +U.U.U.T.[.[.[.~ 3 ! D b b ( 2 _ : } 8 f q V c.c.:.<.g.:.:.:.<.:.:.<.g.c.g.8.g.g.c.9+9+g.c.8.8.8.8.<.<.g.9+c.g.7.c.8.Z c.9+c.c.0+9+0+9+l.8.9+9+:.8.8.%.X X T H H w _.0 5 } A     w 0 0 0 0 0 0 0 0 0 0 0 0 0 0 0 0 0 0 0 0 0 0 0 0 0 0 0 0 0 0 0 0 0 0 0 0 0 0 0 0 0 0 0 0 0 0 0 0 0 0 0 0 0 0 0 0 0 0 0 0 0 0 0 0 0 0 0 0 0 0 0 0 0 0 0 0 0 0 0 0 0 0 0 0 0 0 0 0 0 0 0 ",
"0 0 0 0 0 0 -.      '.).e s y F E C p w w p H w z F a.E B B @.9.l.F p w H K 4.a.5.8.g.a.C E E K F B L 6.9.@.L @.a.E =.@.l.7.4.6.K P =.m.4.E L B B C e e s j 8 | } f J t } | ^ A 1 } 5 5 | *+Q.(+{+u.p.u.u.q.q.q.z.B.z.z.z.z.B.B.z.z.z.z.B.z.B.t.t.t.t.t.`.D.t.t.`.t.`.`.r.r.D.r.O.r.r.D.D.r.r.D.`.`.t.B.q.q.u.w.{+M.U.T.< T.U.M.^+b+]+)+)+{+^+U.< < E.x.x.x.x.x.s.x.x.x.x.x.[.l+k+k+k+k+l+l+i+i+l+k+b.b.B+U S S S S S S S S G S w p e f r 7 r m 8 8 8 8 8 8 m 8 8 8 8 8 8 8 8 8 m m ).7 7 7 7 e d q E E E v B z q d d e e e e e e C C d i+m+n+n+r+u+w+p+y+x+u+y+w+n+p+y+n+w+n+q+q+m+m+++q.z.z.B.B.B.B.B.B.B.B.B.B.B.q.z.z.z.z.q.q.q.C.u.u.u.u.p.p.w.J.;+;+,+,+)+)+)+8+]+]+b+^+M.(+ + +U.U.U.N.N.[.++++3 3 D D b ( 2 2 _ : t 8 f p %.c.:.<.Z :.:.g.:.Z Z <.8.<.c.<.<.g.<.c.c.9+g.8.l.l.g.8.9+g.g.c.g.l.7.7.&.7.8.g.g.9+9+9+g.c.l.8.g.8.<.g.Z X V ..B+v w p d 0 } _ 0.  J 0 0 0 0 0 0 0 0 0 0 0 0 0 0 0 0 0 0 0 0 0 0 0 0 0 0 0 0 0 0 0 0 0 0 0 0 0 0 0 0 0 0 0 0 0 0 0 0 0 0 0 0 0 0 0 0 0 0 0 0 0 0 0 0 0 0 0 0 0 0 0 0 0 0 0 0 0 0 0 0 0 0 0 0 0 0 0 0 0 0 0 0 ",
"0 0 0 0 0 0 0 (.    1 x z C E B B v w v p p E E E E =.B v H W 7.l.K v I I F 9.4.7.7.8.K B F F I F B C K 9.Q F 9.5.=.=.=.@.5.9.a.K a.7+P L P E z z z q q J k : e.1 9 m 2 2 _ 1 d.[.%+&+/ / e.Y.M.'+;+w.p.u.C.C.q.B.B.B.z.z.q.z.z.B.z.q.z.B.B.B.t.`.B.B.B.t.B.B.t.t.t.t.t.`.r.r.r.r.O.O.`.D.`.`.`.`.`.`.`.B.q.C.u.J.)+M.U.T.- T.U.M._+]+8+{+{+^+ +< - #.x.x.x.x.x.x.x.x.x.x.x.2.i+k+k+k+l+k+l+l+i+i+l+j+U U U U S S S H H w H H H H S S H w B d f f 7 7 r r 7 ).7 7 !.).7 7 7 7 7 7 f f e q B v w E E v B q q d e e e e e e e e e C C c m+r+u+r+n+x+x+w+x+u+y+w+q+x+y+x+y+n+q+n+q+q+!+U.q.q.z.z.q.z.z.t.B.z.z.z.z.z.z.z.q.q.q.q.q.C.C.C.u.w.p.w.J.J.;+;+,+'+)+)+{+{+8+8+b+^+_+M. + +U.U.U.U.T.[.[.++~ ~ 0.0.D D ( 2 2 : : } 8 7 e v Z c.<.8.<.8.<.c.:.<.8.c.<.l.8.8.<.8.c.0+9+9+<.l.8.g.8.g.<.8.8.g.g.g.8.l.8.%.&.8.g.c.9+9+g.g.g.<.g.l.Z 8.Z &...T w w z d d m : ( 3 3 -.0 0 0 0 0 0 0 0 0 0 0 0 0 0 0 0 0 0 0 0 0 0 0 0 0 0 0 0 0 0 0 0 0 0 0 0 0 0 0 0 0 0 0 0 0 0 0 0 0 0 0 0 0 0 0 0 0 0 0 0 0 0 0 0 0 0 0 0 0 0 0 0 0 0 0 0 0 0 0 0 0 0 0 0 0 0 0 0 0 0 0 0 ",
"0 0 0 0 0 0 0 0 -.-.m ).C B F P z p w v v T F B z F L B B H I g.5.@.w I H a.7.a.l.W 5.W F F I G H z y F K @.F 6.7.9.E =.K W 5.6.@.4.4.=.L P L B z s s f n ! 0.2 ^ &+/ ( ~ ' d.$+++V. +.+=+=+Q.(+;+u.u.w.u.u.C.q.z.B.B.z.z.q.z.z.B.B.B.t.t.B.t.B.B.z.t.B.B.t.t.t.`.t.t.B.t.D.r.`.D.r.O.r.D.r.`.D.D.t.D.D.`.B.q.u.p.J.o.U.- D Z.N.U.(+]+8+{+{+b+M.T.- < `.x.x.x.x.x.x.x.x.x.x.R.>+l+k+k+k+l+l+l+i+i+l+l+b.U U S S S H H w w w w w w w w w H H H H H w v q q e e f f f f f e e d q p v w w w v B p q z d d d e e f e f f e e e e C c i+q+r+n+n+x+x+u+x+w+p+x+n+w+w+n+w+p+q+n+q+r+m+>+M.q.z.q.q.z.q.q.z.z.q.q.q.q.q.C.q.q.q.C.C.u.u.u.p.p.p.w.J.;+;+,+,+,+'+)+{+{+8+]+]+b+^+_+ + + +U.U.T.T.[.[.[.++++%+! D 0.D A ( 2 _ : j t 8 7 d w <.c.c.g.c.<.:.<.<.<.8.%.8.8.<.Z Z g.g.g.g.<.%.l.<.g.g.c.g.l.8.c.c.g.g.8.%.&.5.8.g.c.c.9+g.g.8.g.7.%.7.c.8.%.Q S p E z d 6 } : (   _ 0 0 0 0 0 0 0 0 0 0 0 0 0 0 0 0 0 0 0 0 0 0 0 0 0 0 0 0 0 0 0 0 0 0 0 0 0 0 0 0 0 0 0 0 0 0 0 0 0 0 0 0 0 0 0 0 0 0 0 0 0 0 0 0 0 0 0 0 0 0 0 0 0 0 0 0 0 0 0 0 0 0 0 0 0 0 0 0 0 0 0 0 0 ",
"0 0 0 0 0 0 0 0 0     } f z B L y w w w v X B E B E I B B w @.7.&.Q I @.I 6.6.5.7.9.K W @.B X H F z f K 6.@.K 4.l.5.6.=.=.4.l.9.a.6.=.L M L P B B d s r : %+V.T.' ] i ( T.W.L.L.L.^+P.^+Q.S.Y.b+8+;+p.u.C.C.q.q.q.z.B.t.t.z.z.B.B.t.t.t.t.B.t.t.t.B.t.t.B.t.t.`.B.B.t.B.z.t.`.`.`.`.R.r.r.r.D.D.r.D.D.D.D.t.z.q.u.p.p.'+3 1 ! W.T.M.b+8+{+8+b+M.T.- - A.x.x.x.x.x.x.x.x.x.x.x.L.q+l+k+k+k+l+l+l+i+i+l+l+}.U C+S H H H w w v v v v v v v w v v v w w w w H H H H w F w w w v v v v v p q q q q d d e e e e f f f f f f f e e e i+n+r+n+n+n+y+v+w+n+z+y+x+u+w+n+x+p+n+n+n+n+m+!+.+V.u.C.q.q.q.q.C.C.C.C.u.u.u.C.C.u.C.u.u.C.u.p.p.w.w.J.J.;+;+;+'+'+'+)+{+{+{+8+8+]+^+^+M. +:+L.U.L.T.T.N.[.++++++~ 0.D D D b ( 2 _ : : t t r f q H :.:.c.:.:.:.:.:.:.:.g.c.g.g.c.Z g.c.g.g.g.g.Z l.g.g.g.8.<.<.<.g.c.9+c.8.8.%.l.g.g.8.9+8.g.8.l.<.V W %.9+<.%.T H p z C e !.) _       0 0 0 0 0 0 0 0 0 0 0 0 0 0 0 0 0 0 0 0 0 0 0 0 0 0 0 0 0 0 0 0 0 0 0 0 0 0 0 0 0 0 0 0 0 0 0 0 0 0 0 0 0 0 0 0 0 0 0 0 0 0 0 0 0 0 0 0 0 0 0 0 0 0 0 0 0 0 0 0 0 0 0 0 0 0 0 0 0 0 0 0 0 ",
"0 0 0 0 0 0 0 0 (.d !.h.6 C v O z E F w B+V B B z F K B z v W Q l.V I Q @.W @.7.&.5.a.K @.F K ..H B f F @.@.K =.5.7.7.a.=.L 6.8.W 7+=.4.L C y C p q x J 2 ! M.)+M.N.$+Z.++ + +^+:+]+,+;+P.(+Y.Q.8+J.p.q.C.C.z.z.q.z.B.t.B.z.t.t.t.t.t.B.z.z.z.B.z.q.B.B.B.t.z.z.B.B.z.t.B.z.B.`.`.t.`.`.r.r.r.r.D.r.D.D.D.t.B.z.q.C.p.w.o.' 0.++N.M.]+]+8+]+b+M.U.- 3 ,.s.x.x.x.s.x.x.x.x.x.x.t.v+m+l+l+k+k+k+l+l+i+i+l+k+D+C+C+H H w w v v p p v p p p p p p p v v v v v v v v v v v v p q q q q q q d d d d d e f f -.f f 6 6 6 f f f y f.m+n+n+n+y+w+u+p+y+x+w+y+u+n+p+y+n+w+n+q+n+q+i+>+Y. +u.u.u.C.C.u.C.C.C.u.C.u.C.C.u.u.u.p.p.p.w.w.w.J.;+;+;+;+,+'+'+'+)+{+8+8+8+8+]+b+^+^+M. + +U.U.T.T.T.T.[.[.++~ ~ 0.0.0.D b ( ( _ : : } t 8 7 e p T c.:.c.:.<.<.:.:.<.c.c.:.g.c.c.<.c.9+c.c.8.8.8.9+0+9+9+8.8.l.l.g.0+c.8.8.7.%.Z 8.<.c.g.g.g.8.%.l.V l.%.<.Z %.H w z s z 0 } 2 b       0 0 0 0 0 0 0 0 0 0 0 0 0 0 0 0 0 0 0 0 0 0 0 0 0 0 0 0 0 0 0 0 0 0 0 0 0 0 0 0 0 0 0 0 0 0 0 0 0 0 0 0 0 0 0 0 0 0 0 0 0 0 0 0 0 0 0 0 0 0 0 0 0 0 0 0 0 0 0 0 0 0 0 0 0 0 0 0 0 0 0 0 0 ",
"0 0 0 0 0 8 r d   6     8 e q B K L F p S G B G B F B F v v ....<.W Q I W V 9.W W 9.a.4.K F F F E B f v F I @.=.@.9.7.9.6.a.P a.7.V K =.L B z y e e f t ~ [.Z.M.P.:+Q.:+ +M.V.{+,+(+'+)+w.J.8+:+:+8+p.u.C.q.z.B.z.z.B.t.B.t.t.t.B.t.`.t.B.z.z.z.q.q.z.B.z.B.B.z.B.B.z.t.B.B.t.t.`.B.t.D.D.`.r.O.r.r.D.R.r.`.t.B.z.q.C.u.w.o.- [.U.M.^+]+b+b+^+M.U.- 3 < O.s.s.s.s.x.x.x.x.x.x.s.,.n+n+l+l+k+k+k+l+l+i+l+l+k+U H H H w w v v q q q q q q q q p p q q q p p p p p p p q q q q q q d e d e e e 0 0 f -.6 6 6 7 7 7 f f s f.i+n+n+r+y+x+w+n+w+x+v+w+w+p+n+w+y+w+n+q+q+q+m+!+=+Y.U.J.p.u.u.u.p.p.p.u.u.p.p.p.p.p.w.p.p.p.w.w.J.;+;+;+,+,+,+'+'+)+)+{+8+8+]+]+]+b+^+^+M.M. + +U.U.N.N.[.T.[.++++%+%+! 0.D D b ( ( _ _ : } t 8 r f d w *.9+9+c.<.g.<.8.:.<.Z %.g.8.c.:.g.c.g.g.g.g.g.8.c.9+c.8.%.g.8.&.l.g.l.l.8.<.%.%.8.c.g.g.8.%.7.8.9+8.7.5.X g.V w v q C s 7 } : 0.    6 0 0 0 0 0 0 0 0 0 0 0 0 0 0 0 0 0 0 0 0 0 0 0 0 0 0 0 0 0 0 0 0 0 0 0 0 0 0 0 0 0 0 0 0 0 0 0 0 0 0 0 0 0 0 0 0 0 0 0 0 0 0 0 0 0 0 0 0 0 0 0 0 0 0 0 0 0 0 0 0 0 0 0 0 0 0 0 0 0 0 0 0 0 ",
"0 0 0 0 0 0 0           7 e q H E O L B Q w p G E E E E I q V Q <.9.V E I Q W 7.6.@.5.6.K F E H z z z z E F I K K 9.5.6.4.9.6.L a.9.6.K L y C e s f 7 8 ( T.N.^+^+^+L.:+b+P.P.P.'+;+{+,+;+w.w.,+)+]+'+p.C.q.z.B.B.z.z.B.t.t.B.B.z.B.`.t.t.B.B.B.z.t.B.B.B.B.t.B.z.B.t.t.B.z.z.B.D.B.z.z.t.`.r.G.r.r.r.D.D.r.D.t.B.z.q.C.u.p.;+U.U.M.^+P.b+b+^+M.T.++3 3 E.s.x.x.x.x.x.x.x.x.s.s.D.>+n+n+q+l+l+l+k+l+i+i+l+l+k+}.H w w v v B z z d d d q q q q q q d q q q q q q q q q d d d d d e e 0 f f f -.f 6 7 6 6 7 7 7 7 f -.i+n+n+r+w+x+x+x+u+y+y+p+y+y+y+w+n+n+p+n+n+q+q+i+*+#+S.N.;+;+J.p.p.p.p.w.p.w.p.p.p.w.w.J.J.J.w.w.w.;+,+,+;+,+'+'+'+)+{+{+{+8+8+]+]+b+^+M.M.M.M. +U.U.L.T.[.[.[.[.++++~ %+! 0.D D D ( ( 2 _ : } t 8 8 7 e q H X c.:.8.g.8.:.:.<.:.8.%.<.g.g.8.<.8.8.8.g.g.g.c.c.c.c.8.8.g.8.8.8.l.8.8.8.%.<.l.l.g.8.8.8.&.8.g.9+5.V Q %.8.Q w w B y J !.t 2 {     0 0 0 0 0 0 0 0 0 0 0 0 0 0 0 0 0 0 0 0 0 0 0 0 0 0 0 0 0 0 0 0 0 0 0 0 0 0 0 0 0 0 0 0 0 0 0 0 0 0 0 0 0 0 0 0 0 0 0 0 0 0 0 0 0 0 0 0 0 0 0 0 0 0 0 0 0 0 0 0 0 0 0 0 0 0 0 0 0 0 0 0 0 0 ",
"0 0 0 0 0 0 0 0 d   '.8 h.f e v E C L B F z q S B p F E &.w G @.l.6.W E E @.Y X 4.@.9.5.9.@.E z q z B e F E F F 4.K l.5.4.6.5.a.a.6.4.=.P P y d f 7 t _ ( %+:+:+P.)+^+:+(+{+J.w.w.J.w.;+,+p.u.p.p.w.w.u.q.z.t.t.B.B.z.B.t.t.t.t.B.B.`.t.t.t.B.t.z.t.D.t.B.B.z.B.B.B.z.B.B.B.z.z.t.B.z.q.z.t.D.r.R.R.r.R.R.R.R.`.t.B.z.q.C.p.J.,+^+M.V.]+]+]+^+M.T.++3 3 2.s.x.x.s.s.s.x.x.s.G.s.G.@ r+q+q+n+n+l+m+l+l+l+i+l+l+k+}.w w v v B z z d e e d d d d d d d d q d d d d d d d d e e e e 0 f f -.6 6 6 7 7 6 7 6 7 7 7 7 f.n+n+r+n+n+w+x+v+y+n+z+w+y+y+x+n+p+p+w+q+r+n+i+>+.+#+Y.Q.)+,+,+;+w.p.w.J.J.w.J.p.w.w.J.J.J.;+;+;+J.;+;+'+'+'+)+)+{+{+{+)+{+]+b+b+^+_+M.M. + + + +U.U.T.N.[.[.++++++++%+! 0.0.D D b b ( _ _ : : } t 8 r f d p S Z c.c.:.c.g.<.:.<.:.<.8.%.8.g.c.:.8.8.<.c.c.g.c.g.c.c.g.g.%.<.8.c.7.8.%.5.%.X l.8.8.8.8.&.&.l.g.8.X V V &.7.Q E E p y r 8 _ 2 {   j 0 0 0 0 0 0 0 0 0 0 0 0 0 0 0 0 0 0 0 0 0 0 0 0 0 0 0 0 0 0 0 0 0 0 0 0 0 0 0 0 0 0 0 0 0 0 0 0 0 0 0 0 0 0 0 0 0 0 0 0 0 0 0 0 0 0 0 0 0 0 0 0 0 0 0 0 0 0 0 0 0 0 0 0 0 0 0 0 0 0 0 0 0 0 ",
"0 0 0 0 0 0 0 0 f 7 -.).6 -.0 q q z L L F B q H z v F H %.G H G %.@.I G E I T %.6.4.9.6.l.7.Q E e v E e d E E K 4.=.5.5.@.a.a.@.6.@.F F B M C y f ).t ) A 0.T.(+)+J.,+8+{+{+,+w.u.p.J.w.w.w.C.q.C.u.q.C.z.B.B.t.t.B.B.B.z.B.t.`.t.t.t.t.B.t.t.`.B.z.t.t.t.z.B.`.t.t.B.B.B.t.B.z.z.z.z.z.z.z.B.`.R.D.r.R.D.R.D.D.t.B.z.q.C.p.p.J.'+^+V.P.P.]+^+M.T.++3 3 A.s.x.s.s.x.s.x.s.s.s.s.s.r.[.n+r+p+q+r+q+m+n+n+m+m+l+l+k+w v v v q q d e e e e e e e d d d d d d d e e d d e e 0 f f f f -.-.6 6 7 ).7 ).).7 6 7 7 f.r+r+u+n+n+w+y+u+n+n+x+w+y+w+x+x+p+x+w+q+n+q+m+!+*+=+.+S.Q.^+,+,+;+;+;+J.J.J.;+J.J.;+J.J.;+;+,+,+,+;+,+,+'+'+)+)+{+8+8+8+8+]+]+^+^+^+M.M.M. + +U.U.L.T.N.[.[.[.++++++~ %+! 0.D D D A b ( 2 _ : : } t 8 8 7 f d w T :.c.<.<.:.c.:.:.c.Z 8.8.<.%.g.:.:.8.8.g.8.:.g.8.<.8.<.c.g.g.g.8.<.7.7.7.%.%.7.l.g.Z :.V W 7.%.7.g.&.Q W V W I v q z r J 8 _ '       0 0 0 0 0 0 0 0 0 0 0 0 0 0 0 0 0 0 0 0 0 0 0 0 0 0 0 0 0 0 0 0 0 0 0 0 0 0 0 0 0 0 0 0 0 0 0 0 0 0 0 0 0 0 0 0 0 0 0 0 0 0 0 0 0 0 0 0 0 0 0 0 0 0 0 0 0 0 0 0 0 0 0 0 0 0 0 0 0 0 0 0 0 0 ",
"0 0 0 0 0 0 0 0 t -.0 6 6 6 f q p p E L W C q w F p w S Z V E Q W I F I E F I V &.6.6.6.l.g.7.K C p w B e z E E 6.4.6.l.5.K @.@.I B w v v y e e 0 6 m ( %+T.T.T.:+'+J.J.)+;+;+w.p.w.p.p.u.u.C.q.C.C.C.C.z.z.z.B.B.B.t.t.t.B.t.`.t.t.`.D.`.t.t.t.t.t.B.`.B.z.z.B.t.B.B.B.z.B.B.z.q.z.B.z.B.z.z.B.t.`.D.r.D.`.`.t.B.z.q.C.u.w.w.J.,+8+P.V.P.^+^+M.U.- 0.3 * s.s.s.s.s.s.s.s.s.s.s.G.O.t.*+q+n+n+q+n+n+r+n+r+w+u+n+m+i+o v v p q d e e f s f f e f 0 0 e e e e e e e e 0 f f 7 f 6 6 6 6 7 ).!.).).).).7 7 f.!+r+n+y+n+v+v+u+y+n+y+w+n+w+x+x+w+w+w+q+n+q+m+!+*+=+=+.+S.Y.M.,+'+,+,+;+;+;+;+;+;+;+;+,+;+;+,+,+'+'+'+,+,+)+)+{+{+{+{+8+]+]+b+^+^+M.M.M.M. + +U.U.U.N.N.[.[.[.[.++++~ %+0.0.D 0.D ' A A ( 1 _ : : } t 8 8 7 f e p H Y c.c.:.c.c.g.c.<.:.<.Z X %.8.Z 9+g.<.8.l.%.g.g.g.l.l.9+g.g.8.<.l.l.5.7.8.%.7.7.8.c.Z %.&.&.&.7.l.7.W @.Q W F I w q s x 8 '.' !     -.0 0 0 0 0 0 0 0 0 0 0 0 0 0 0 0 0 0 0 0 0 0 0 0 0 0 0 0 0 0 0 0 0 0 0 0 0 0 0 0 0 0 0 0 0 0 0 0 0 0 0 0 0 0 0 0 0 0 0 0 0 0 0 0 0 0 0 0 0 0 0 0 0 0 0 0 0 0 0 0 0 0 0 0 0 0 0 0 0 0 0 0 0 0 ",
"0 0 0 0 0 0 0 -.6 0 0 ).0 ).0 e z L H P @.y e H H d v S %.Y F W &.Q =.F Q E F ..X &.9.5.@.g.8.7.B q E B z B E F 4.=.=.6.7.@.I Q F w v d d z s y f 6 ).] ++M.P.P.^+P.'+,+'+,+J.u.u.w.u.C.C.C.u.C.C.C.C.q.z.z.z.B.B.B.`.t.t.t.B.t.t.t.t.`.`.`.D.D.`.B.B.B.B.B.t.B.t.z.q.z.B.B.B.z.B.B.B.q.z.B.B.z.t.t.D.`.D.`.t.B.q.q.C.C.u.p.p.J.,+)+]+P.P.^+^+M.T.++0.N >.G.s.G.G.s.s.s.s.s.G.s.G.s.s.> !+q+q+n+n+q+q+q+r+n+x+u+w+y+n+c p p q d e e f 7 f 7 f f f f f 0 0 0 0 e f f f f 7 7 7 6 6 7 !.!.).h.).!.).r !.!+u+n+y+n+w+y+p+n+w+y+n+p+w+n+u+w+w+n+m+n+q+q+!+>+*+=+=+.+.+Y.N.'+'+'+)+)+,+'+,+;+;+;+;+;+,+,+,+,+,+'+)+)+)+)+{+]+8+8+8+8+]+]+^+^+M.M.M.M. + +U.U.U.T.T.N.N.[.++++++~ ~ ! ! 0.0.D D D A ( 1 _ _ : : } t 8 8 r 7 f d v S <.c.c.c.9+c.<.:.g.:.g.8.X Z %.8.<.l.l.8.Z %.8.8.g.c.g.c.g.8.l.Z c.Z 5.X V 8.W l.8.%.l.%.X 5.V 8.l.5.9.W Q G F E v z y f 8 / ]       0 0 0 0 0 0 0 0 0 0 0 0 0 0 0 0 0 0 0 0 0 0 0 0 0 0 0 0 0 0 0 0 0 0 0 0 0 0 0 0 0 0 0 0 0 0 0 0 0 0 0 0 0 0 0 0 0 0 0 0 0 0 0 0 0 0 0 0 0 0 0 0 0 0 0 0 0 0 0 0 0 0 0 0 0 0 0 0 0 0 0 0 0 0 0 ",
"0 0 0 0 0 0 -.J 0 0 q !.0 7 0 d w B E K M C d v ..d v w &...Q W V W F I F B F W V V W 7.7.9.g.7.@.E E I v B =.z E L 4.4.6.6.K F B z q q (.s d 7 7 ).!.} [.^+P.;+J.;+,+J.,+)+,+p.p.p.p.u.u.C.u.C.q.C.q.z.z.z.B.z.B.t.t.t.t.`.`.D.D.D.`.`.t.`.t.t.z.z.z.z.B.B.z.z.B.z.q.z.B.z.z.z.B.B.B.B.q.z.z.q.q.z.z.B.B.B.z.q.q.u.p.p.p.p.w.J.,+)+]+b+^+V.^+ +T.++0.N < s.s.G.G.s.O.O.G.G.G.s.G.G.O.r.@ i+n+n+q+n+r+q+n+r+w+n+x+w+u+y+i+z q d e e f 7 7 7 7 6 6 6 6 6 -.f f -.-.6 6 7 6 7 ).!.).).!.m ).m 8 r 8 !+w+w+y+y+w+w+p+n+w+q+n+p+y+y+u+n+q+n+n+n+q+q+!+>+*+*+=+=+.+.+S.Y.V.)+)+)+{+{+'+'+'+,+,+,+,+,+,+'+'+'+)+)+)+{+8+8+8+]+]+]+]+^+M.M.M.M. + +U.U.U.L.T.T.N.N.N.[.[.++++++++%+! 0.D D D D A b ( ( _ _ _ : : } t 8 r 7 f e q w ..:.9+9+c.9+9+:.:.<.c.<.<.%.%.8.%.g.9+g.g.:.Z <.8.8.l.g.g.g.8.l.9+0+8.%.V W %.Q g.g.8.g.&.&.5.7.8.@.5.@.5.Q B F F F e C f !.'.]     f 0 0 0 0 0 0 0 0 0 0 0 0 0 0 0 0 0 0 0 0 0 0 0 0 0 0 0 0 0 0 0 0 0 0 0 0 0 0 0 0 0 0 0 0 0 0 0 0 0 0 0 0 0 0 0 0 0 0 0 0 0 0 0 0 0 0 0 0 0 0 0 0 0 0 0 0 0 0 0 0 0 0 0 0 0 0 0 0 0 0 0 0 0 0 0 ",
"0 0 0 0 0 0 7 -.0 (.  m 6 !.f d d B F I L P e F ..z d p ....*.&.Q Q I I F z B I Q Q W 7.l.7.9.&.8.I E F W w K E E E E =.6.@.F B C C f f 0 f f 0 -.).5 '.A N.P.P.J.w.J.J.w.w.;+;+w.u.u.C.q.C.q.q.z.q.q.q.q.z.z.z.t.`.B.t.t.t.`.t.t.t.t.t.t.t.t.B.B.z.B.B.B.t.B.z.q.z.q.z.B.B.q.z.q.z.z.B.z.q.q.C.q.q.q.C.q.C.C.C.u.p.w.w.w.w.J.,+'+{+]+b+^+^+M. +T.++0.N 3 R.O.G.G.G.s.O.O.G.G.G.O.O.O.r.`.T.m+n+n+q+q+n+n+q+q+u+n+y+x+x+y+i+d d d e f f 7 7 7 7 7 7 7 7 6 6 6 6 6 6 7 6 ).).!.).7 m m 8 r 7 8 !+y+u+y+w+y+y+p+r+r+r+p+p+w+y+w+n+n+n+n+n+m+n+>+=+=+=+*+*+=+=+.+#+S.U.)+)+)+)+{+8+{+)+'+'+'+'+'+)+'+)+)+)+)+{+{+P.P.]+V.^+^+M.M. + + + + +U.U.U.U.T.N.N.N.[.[.[.[.++++~ ~ %+! 0.D D D D A b ( ( 2 _ : : : } t 8 r 7 f f d v S X 9+c.9+c.c.c.g.<.g.g.g.%.Z X Z &.8.g.<.l.Z g.l.Z %.l.9+g.7.g.9+9+c.g.7.V W W 7.l.g.8.l.&.Z 7.%.W @.@.W @.I F B E B C e 0 } 1 {   0 0 0 0 0 0 0 0 0 0 0 0 0 0 0 0 0 0 0 0 0 0 0 0 0 0 0 0 0 0 0 0 0 0 0 0 0 0 0 0 0 0 0 0 0 0 0 0 0 0 0 0 0 0 0 0 0 0 0 0 0 0 0 0 0 0 0 0 0 0 0 0 0 0 0 0 0 0 0 0 0 0 0 0 0 0 0 0 0 0 0 0 0 0 0 0 0 ",
"0 0 0 0 0 6 -.0 0 -.  8 9 h.0 d p w B H G P C F G q d w G *...%.@.K I Q F z C H I @.W 5.5.8.9.W <.V K E I Q I F B I =.=.E F E z C C e -.e 6 7 6 m m 5 ^ %+%+L.{+P.,+J.w.p.u.p.p.w.u.u.C.C.C.q.z.z.q.q.q.q.q.q.z.q.z.z.z.`.t.t.z.B.t.B.B.B.t.t.B.z.z.z.z.z.B.t.B.z.q.q.q.q.q.C.q.C.C.z.q.z.q.u.u.u.u.C.u.u.u.u.p.p.p.w.w.J.;+;+'+{+8+]+b+^+(+M. +T.~ D b 3 t.O.G.O.G.G.G.G.O.O.O.O.r.O.O.r.B.$+r+n+q+m+r+q+n+n+q+n+n+u+y+u+x+r+0 d e f f 7 7 r r 7 7 7 7 7 7 7 6 7 7 7 7 m | !+!+r+r+n+n+f.| r+y+w+y+u+w+p+n+m+i+q+p+w+y+n+n+y+w+n+n+q+r+>+:+(+.+=+*+@+@+@+.+.+.+Q.P.{+{+)+)+{+{+{+{+{+)+{+)+{+8+{+)+P.P.8+P.P.^+^+^+M.M.M. + +U. +U.U.U.T.T.T.N.N.[.[.[.[.[.++++++++~ %+0.D D D D A b b ( ( ( _ _ : : } t t 8 7 7 f d q w T <.9+9+9+c.9+<.g.<.c.<.<.8.%.&.8.%.7.g.:.8.Z g.8.:.g.8.8.%.8.c.c.8.8.8.8.W W Q 7.l.8.g.8.7.8.&.7.@.@.@.W I F E F B z C s J _ A   m 0 0 0 0 0 0 0 0 0 0 0 0 0 0 0 0 0 0 0 0 0 0 0 0 0 0 0 0 0 0 0 0 0 0 0 0 0 0 0 0 0 0 0 0 0 0 0 0 0 0 0 0 0 0 0 0 0 0 0 0 0 0 0 0 0 0 0 0 0 0 0 0 0 0 0 0 0 0 0 0 0 0 0 0 0 0 0 0 0 0 0 0 0 0 0 0 0 ",
"0 0 0 0 0 0 0 0 (.    ) _ ).f e e e v w S F z H F q e w w *.*.V K B F Q E z C I I 5.5.5.5.5.Z 6.9.&.V I 4.K G V F z E =.E B B B y s y f 0 (.7 6 ).} 5 '.++ + +M.,+;+w.p.p.p.p.p.p.u.u.C.u.C.q.C.q.q.C.C.q.q.z.z.q.z.z.t.t.B.B.B.B.B.B.z.z.z.z.t.B.z.z.B.B.t.B.B.B.t.z.q.C.u.u.u.C.C.C.q.q.q.u.p.p.p.u.u.w.J.w.w.w.;+J.;+;+,+,+{+8+8+]+b+M. +U.U.< 0.D b N R.G.G.r.O.O.O.G.O.r.r.O.O.r.O.r.D.w.*+m+n+q+m+n+q+m+n+n+m+n+n+y+x+x+r+0 f.f.n 5 m 7 x r 7 7 r r r s r ).| !+r+r+w+w+x+y+y+n+q+n+x+v+y+y+n+n+n+m+l+l+n+y+p+p+n+w+n+n+q+m+r+=+ +8+_+Y.=+=+@+@+@+@+.+d.#+ +P.P.{+)+)+{+{+{+8+8+8+{+P.P.P.P.P.V.V.^+^+^+M.M.M. + + +U.U.U.U.T.T.T.T.N.T.[.[.[.[.[.++++~ ~ ~ %+! 0.D D D ' A A A ( ( 2 _ _ ) : } t t 8 7 7 f e q v S ` 9+c.c.c.9+c.c.g.<.<.g.8.Z %.X %.%.&.g.c.Z X 8.8.c.8.&.%.l.8.g.:.g.g.l.8.Q Q W 7.l.g.8.%.%.l.X W &.W 5.I I B z =.E L C s t _   s 0 0 0 0 0 0 0 0 0 0 0 0 0 0 0 0 0 0 0 0 0 0 0 0 0 0 0 0 0 0 0 0 0 0 0 0 0 0 0 0 0 0 0 0 0 0 0 0 0 0 0 0 0 0 0 0 0 0 0 0 0 0 0 0 0 0 0 0 0 0 0 0 0 0 0 0 0 0 0 0 0 0 0 0 0 0 0 0 0 0 0 0 0 0 0 0 0 0 ",
"0 0 0 0 0 0 0 0 7     _ _ r f 7 e p w w E E z E I v e q w G ..Q E B F I H z z E E W 9.5.9.@.7.&.K W %.W 4.E E K Y G B z B B z s J u 8 7 ).n 6 !.9 1 _ / 1 N.P.'+,+P.;+p.w.p.J.p.C.q.C.C.u.q.u.u.q.q.C.C.q.q.q.z.z.z.z.B.t.B.z.q.q.q.z.B.z.z.z.B.B.t.B.z.B.B.z.B.t.t.z.C.C.w.p.u.C.u.C.q.C.u.p.J.;+w.w.w.w.J.J.,+;+;+,+,+,+,+)+{+]+b+b+(+ +:+L.U.< 0.D b 3 R.r.r.r.r.D.D.r.D.r.`.r.O.D.R.t.B.q.V.*+m+q+n+q+m+q+n+m+l+!+m+q+u+x+w+n+w+y+w+y+w+r+u+!+!+!+!+!+!+!+r+w+x+y+y+y+y+y+v+x+y+n+m+y+w+x+r+n+q+m+l+k+m+n+x+n+n+y+n+n+m+m+!+Y.b+{+b+_+L.=+=+@+@+@+@+d.d..+W.^+P.P.8+8+{+{+P.]+]+P.]+P.P.P.^+^+^+^+M.M.M.M. + + + +U.U.U.T.T.T.T.T.< [.[.[.[.++++++++~ ~ %+! 0.0.D D ' ' D b A ( ( ( 1 _ _ : : } t t 8 r 7 f e d p H T :.9+c.:.c.9+c.c.c.<.g.g.<.Z X %.&.l.%.8.<.X &.g.8.8.7.l.g.g.7.8.g.g.g.8.&.W Q Q 7.l.%.%.Z %.&.Q V W 5.7.I I C L 4.=.L C 8 1 ' t 6 0 0 0 0 0 0 0 0 0 0 0 0 0 0 0 0 0 0 0 0 0 0 0 0 0 0 0 0 0 0 0 0 0 0 0 0 0 0 0 0 0 0 0 0 0 0 0 0 0 0 0 0 0 0 0 0 0 0 0 0 0 0 0 0 0 0 0 0 0 0 0 0 0 0 0 0 0 0 0 0 0 0 0 0 0 0 0 0 0 0 0 0 0 0 0 0 0 0 ",
"0 0 0 0 0 0 0 0   6 ! ( 9 m J f e f -.d w E z C E z e e v S V F B B E F F z C B K 9.W @.5.9.9.5.@.K %.X @.K I E H ..I E B v z e f 7 t 5 6 f.| 9 9 _ D ' ] #+ +P.;+w.w.p.p.w.u.p.C.q.q.u.u.u.u.C.z.q.q.q.z.q.u.q.z.q.z.B.B.z.z.z.z.z.q.z.z.z.z.B.B.B.z.q.q.z.z.B.`.`.`.B.C.p.J.J.J.w.u.u.p.p.p.J.,+;+J.;+;+;+;+,+'+,+'+)+)+)+{+]+b+_+(+:+L.N.L.T.T.3 b g 3 r.r.`.`.`.`.`.D.`.D.`.`.r.`.B.z.q.C.p.L.*+r+q+n+n+n+m+m+i+l+i+m+i+n+n+y+y+y+y+x+u+w+y+y+y+y+y+x+w+x+u+w+y+w+y+u+w+v+w+x+x+n+l+x+n+n+m+l+k+k+l+m+n+p+n+u+q+q+m+i+>+W.^+8+b+b+b+_+Y.=+@+@+@+@+@+A d.#+ +^+^+]+]+b+]+8+P.^+^+^+^+^+^+V.^+^+M. + + + +U.U.U.U.U.U.T.T.T.[.[.[.[.[.[.[.++++++++~ %+%+! 0.! 0.D ' ' ' ' b A ] ( 1 2 _ _ ) : } t t 8 r 7 f e d p w B+Y 0+0+9+c.c.9+c.:.8.<.<.:.<.<.%.7.X %.W g.<.X W Z 8.g.g.g.8.<.g.c.<.<.<.<.W @.W Q &.l.8.%.Z 7.6.Q 5.@.W V I B z L K 4.B f } ( - k 0 0 0 0 0 0 0 0 0 0 0 0 0 0 0 0 0 0 0 0 0 0 0 0 0 0 0 0 0 0 0 0 0 0 0 0 0 0 0 0 0 0 0 0 0 0 0 0 0 0 0 0 0 0 0 0 0 0 0 0 0 0 0 0 0 0 0 0 0 0 0 0 0 0 0 0 0 0 0 0 0 0 0 0 0 0 0 0 0 0 0 0 0 0 0 0 0 0 0 ",
"0 0 0 0 0 0 0   7 f 3 A ) 8 8 7 r 6 e q v w z O B B e d v H Q B B z B F F B z E E W W W 6.@.@.a.Q F &.&.@.@.K E z E S G v v q f 7 f k _ 8 5 | e.&+/ d.N.Q.W.N.b+;+w.p.u.u.u.p.p.u.u.u.u.u.u.u.C.C.C.q.q.z.C.C.q.q.q.q.q.z.z.z.z.B.z.z.q.q.z.B.B.B.t.z.q.C.q.z.B.t.`.R.D.z.u.J.,+'+,+,+J.w.;+;+;+;+;+,+;+;+,+'+'+)+)+{+)+8+]+]+_+_+(+:+L.N.N.N.N.T.T.b 2 |.O.r.D.t.t.t.t.`.`.t.`.t.B.z.z.C.C.C.u.,+Q.@+i+n+q+m+r+m+l+i+l+k+i+l+m+n+u+w+w+y+u+v+y+u+y+w+y+u+n+n+r+w+r+n+r+n+u+w+r+n+n+m+j+n+m+l+k+j+k+m+m+p+n+n+q+m+m+!+S. +]+]+b+_+b+_+(+ +.+*+*+@+@+@+@+] .+++M.M.^+^+^+^+^+^+V.V.^+^+^+^+M.M.M.M. +U. +U.U.U.U.T.T.T.N.N.[.[.[.++++++++++++~ ~ ~ %+%+! 0.0.D D D ' A ' A A A ( ( 1 1 _ _ ) ) : } t 8 8 7 7 f e q v S *.:.0+9+9+:.:.c.c.c.<.8.<.<.<.Z <.X V %.V <.8.%.X 8.8.8.8.7.Z %.8.7.<.l.<.8.W Q Q W %.7.%.%.%.%.Q &.%.I Q W E z L =.@.F P x } D < j 0 0 0 0 0 0 0 0 0 0 0 0 0 0 0 0 0 0 0 0 0 0 0 0 0 0 0 0 0 0 0 0 0 0 0 0 0 0 0 0 0 0 0 0 0 0 0 0 0 0 0 0 0 0 0 0 0 0 0 0 0 0 0 0 0 0 0 0 0 0 0 0 0 0 0 0 0 0 0 0 0 0 0 0 0 0 0 0 0 0 0 0 0 0 0 0 0 0 0 ",
"0 0 0 0 0 0 7 6 0   ! ] i 8 t 7 d p p p v w z R P C f p v S F B z z z E F B z z B W W 7.a.@.@.a.F F @.&...Q Q E I E v w H v C e t : 8 _ _ n / ^ @+e.*+$+(+^+]+'+,+w.w.w.u.p.p.u.u.p.u.u.u.C.C.C.C.C.q.q.q.u.C.C.C.C.q.C.C.q.z.B.t.B.z.q.q.z.z.z.q.B.B.z.q.z.z.B.t.B.`.D.`.z.w.,+)+)+)+,+;+,+,+'+'+'+,+,+,+'+)+)+)+)+8+8+]+b+b+_+:+:+L.N.W.W.W.W.N.T.- k >.r.`.t.t.B.z.z.B.z.B.B.z.q.C.u.u.p.w.w.w.^+S.A !+m+n+q+m+n+m+l+l+j+k+k+n+n+u+u+y+w+n+n+y+w+y+y+y+w+y+n+u+x+x+n+y+p+n+q+n+n+m+k+l+j+j+j+k+m+q+n+p+q+l+i+*+L.^+^+_+_+(+_+_+(+(+:+W.=+@+@+@+@+@+] @+d.U.M.M. +M.M.M.M.^+^+V.M.M.M.M.M.M. +U.U.U.U.U.T.T.T.T.T.T.[.[.[.++++++++++%+~ %+%+%+! ! ! 0.D D D ' ' A A A b ] ( ( ( _ _ _ ^ : : } } t 8 7 7 f e d v H T  .9+9+9+9+c.:.:.c.:.<.g.8.<.Z Z Z Z %.W <.8.<.&.V g.8.8.%.X 7.%.l.7.7.c.Z Z W Q G W &.%.&.l.W W %.7.W @.@.E L 4.m.4.I =.s 7 ) -   6 0 0 0 0 0 0 0 0 0 0 0 0 0 0 0 0 0 0 0 0 0 0 0 0 0 0 0 0 0 0 0 0 0 0 0 0 0 0 0 0 0 0 0 0 0 0 0 0 0 0 0 0 0 0 0 0 0 0 0 0 0 0 0 0 0 0 0 0 0 0 0 0 0 0 0 0 0 0 0 0 0 0 0 0 0 0 0 0 0 0 0 0 0 0 0 0 0 0 0 ",
"0 0 0 0 0 6 -.0 0 s     _ t m -.f d d p w H L O x C e e q G B B C z C B F z E z z I @.&.@.4.K K =.K F W G Q &.I B I v C p B y s 6 '._ : ^ m e.@+A #+@+W.|+_+{+,+J.J.J.p.u.w.p.p.u.C.C.u.C.C.C.C.u.C.C.u.C.C.C.C.C.C.q.C.C.z.q.q.z.z.q.q.q.z.z.q.z.B.B.C.z.z.B.B.B.B.`.R.R.`.C.J.'+8+]+]+{+)+'+'+)+)+)+)+'+)+)+)+{+8+8+]+b+(+(+:+L.N.W.W.W.Z.W.W.W.[.< 0.#.B.B.z.q.z.q.z.q.C.q.z.q.C.u.w.u.w.;+,+;+,+N..+A &+i+m+n+n+q+m+m+k+l+m+n+n+x+y+y+w+y+u+w+w+y+w+y+o+u+u+y+u+y+y+x+w+x+w+x+y+n+x+n+r+q+l+k+l+m+m+i+!+Y.:+^+_+:+[+[+(+ +(+(+:+:+:+Y.@+@+@+@+] @+@+@+$+ + +M.M.M. + +M.M.M.M. + +U. + +U.U.T.T.T.T.T.T.N.[.[.[.[.++++++++~ ~ %+~ %+%+%+! ! 0.0.D D ' D ' ' ' A b A ( ( ( _ _ _ _ [ ) : : } t 8 8 7 f e d p H T Y c.9+:.9+c.c.:.<.:.:.<.<.8.%.%.8.Z %.8.W %.<.%.%.%.g.%.%.%.%.%.l.8.l.<.7.8.8.Q Q G W &.X %.%.&.%.&.X G K K B =.4.@.G @.P s 9 1     -.0 0 0 0 0 0 0 0 0 0 0 0 0 0 0 0 0 0 0 0 0 0 0 0 0 0 0 0 0 0 0 0 0 0 0 0 0 0 0 0 0 0 0 0 0 0 0 0 0 0 0 0 0 0 0 0 0 0 0 0 0 0 0 0 0 0 0 0 0 0 0 0 0 0 0 0 0 0 0 0 0 0 0 0 0 0 0 0 0 0 0 0 0 0 0 0 0 0 0 ",
"0 0 0 0 0 0 0 0 0 7 t y ) } t 7 0 d q v S H B P 1.y y f q H z z e z d z E z B B B K 6.V @.4.K 4.L K B @.Q I G *.E z w v d q e 7 8 | / ( _ 5 ^ d.#+$+Q.N.8+{+{+,+J.w.w.u.u.u.p.p.p.u.p.u.C.C.C.q.q.u.C.C.C.C.C.u.C.q.C.C.C.C.q.q.q.q.z.z.z.B.q.q.q.B.B.z.z.B.B.B.B.B.t.D.R.`.B.p.)+b+_+_+b+]+8+)+)+'+)+)+{+{+{+8+8+8+]+b+_+(+:+L.N.W.Q.Z.Z.Z.Z.++[.[.[.[.@ q.q.C.u.q.u.u.u.C.C.C.C.u.u.p.J.;+;+;+,+'+P.#+@+@+1 !+r+q+n+q+q+p+y+x+w+y+w+y+u+w+y+u+v+u+u+u+u+v+o+v+y+x+w+x+w+y+u+x+x+y+y+n+w+y+n+y+n+m+f.*+N.M.(+:+L.:+L.[+[+[+:+:+L.:+U.L..+*+@+1 @+@+@+@+@+W. + + + + + + + + + + +U.U.U.U.T.T.T.N.N.[.[.[.[.[.[.++++++~ %+~ %+%+%+0.! ! ! 0.0.0.D D ' D ' ' D A A A A ] ( ( 1 _ _ _ [ : ) : } t t 8 r 6 f d q w S +.:.9+9+:.:.:.<.<.8.8.:.:.<.8.8.Z 8.Z X %.8.l.8.%.%.&.8.%.%.%.%.%.<.8.g.g.8.8.7.V Q I Q W W l.%.W 7.X %.I F B B =.W G B E y 8 i D     0 0 0 0 0 0 0 0 0 0 0 0 0 0 0 0 0 0 0 0 0 0 0 0 0 0 0 0 0 0 0 0 0 0 0 0 0 0 0 0 0 0 0 0 0 0 0 0 0 0 0 0 0 0 0 0 0 0 0 0 0 0 0 0 0 0 0 0 0 0 0 0 0 0 0 0 0 0 0 0 0 0 0 0 0 0 0 0 0 0 0 0 0 0 0 0 0 0 0 0 ",
"0 0 0 0 0 0 0 0 0 t 7 : 1 : 9 !.0 0 d w B+U F L R R f f q z q d C C z C E B q C B 4.K Q @.I 4.F E B B K F Q F +.B+H B v p q q f } 9 @+@+d.^ '.A $+$+Q.L.^+{+J.J.p.p.w.w.p.u.p.p.p.w.p.u.C.u.p.C.C.u.C.C.C.C.C.q.q.q.C.u.C.C.C.C.C.C.q.q.z.z.q.q.C.z.B.B.z.z.z.B.z.z.B.D.r.`.q.C.J.8+:+[+[+(+b+8+8+{+)+)+{+]+]+8+b+^+^+(+:+L.N.N.W.Z.Z.$+%+%+$+Z.++[.[.[.< u.C.u.p.u.p.w.p.w.p.w.p.w.w.w.;+,+,+,+)+{+{+N.@+*+e.1 ^ !+q+x+x+w+x+w+y+w+y+w+u+v+w+v+v+u+u+u+u+o+u+s+v+w+y+x+y+w+y+y+p+x+w+r+q+u+n+r+p+n+=+(+:+L.L.L.N.L.N.N.|+|+N.L.N.L.N.W.@+*+@+@+@+1 @+] d.N.U.U.U.U.L.U.U.U.U.U.U.T.T.T.N.N.[.[.[.[.[.[.++++++++++++~ %+%+! ! %+! ! 0.D D D D D D D ' D ' A D A A ( ( ( ( 1 _ _ _ [ ) : : } } t 8 r 7 f e q v S +. .9+9+c.c.:.c.:.:.g.Z <.<.<.<.8.8.8.%.%.7.7.%.8.%.5.7.8.8.&.&.%.%.8.<.8.%.8.8.&.Q ..W ..W 5.%.%.%.<.Z G G E B B I F z v C r ) ]     r 0 0 0 0 0 0 0 0 0 0 0 0 0 0 0 0 0 0 0 0 0 0 0 0 0 0 0 0 0 0 0 0 0 0 0 0 0 0 0 0 0 0 0 0 0 0 0 0 0 0 0 0 0 0 0 0 0 0 0 0 0 0 0 0 0 0 0 0 0 0 0 0 0 0 0 0 0 0 0 0 0 0 0 0 0 0 0 0 0 0 0 0 0 0 0 0 0 0 0 0 ",
"0 0 0 0 0 0 0 0 0 e d     } } h.7 6 d o C+S ..=.z y R r z y d e C C d C B B q C z E K K I I 4.K B z B F I K F S U w w w p z q 6 2 D 2 A ' @+$+1 T.L.W.L.)+{+'+w.p.p.p.p.C.C.p.p.w.w.C.u.u.u.u.C.C.u.C.u.C.u.C.q.q.q.z.C.C.C.C.C.C.C.C.C.C.q.q.z.q.q.q.z.B.z.z.z.B.B.t.B.D.t.z.C.u.;+]+Q.Y.|+[+(+_+b+]+8+]+b+b+_+_+M.:+L.L.N.W.Q.Y.Y.$+$+#+#+#+$+%+Z.++[.[.#.w.w.J.J.J.J.w.J.J.;+J.;+;+,+)+)+)+{+8+{+]+M.Y.@+e.e.i e.w+n+y+x+y+x+x+w+y+u+u+v+v+u+o+w+v+u+o+v+s+u+v+y+w+x+w+x+u+x+u+y+n+n+w+n+q+n+n+m+!+|+N.|+|+N.W.N.N.N.W.Q.W.W.W.W.W.Z.*+@+1 1 1 1 @+@+d.T.T.U.U.L.N.N.N.T.N.N.T.N.[.[.[.[.[.++++++++++++++%+~ %+%+%+! ! 0.! 0.D ' D D ' ' ' ' ' D ' ' A A A ] ] ( ( ( 1 1 _ _ _ ) ) : } } t t 8 7 7 e d v H T ` 9+9+c.9+9+:.c.:.c.:.:.:.<.<.Z 8.<.8.%.%.<.%.&.%.7.5.&.g.%.8.&.&.8.8.8.7.l.l.7.&.W T G Q @.7.%.Z %.X *.G H B z K E C z C 8 } 1 D   ).0 d 0 0 0 0 0 0 0 0 0 0 0 0 0 0 0 0 0 0 0 0 0 0 0 0 0 0 0 0 0 0 0 0 0 0 0 0 0 0 0 0 0 0 0 0 0 0 0 0 0 0 0 0 0 0 0 0 0 0 0 0 0 0 0 0 0 0 0 0 0 0 0 0 0 0 0 0 0 0 0 0 0 0 0 0 0 0 0 0 0 0 0 0 0 0 0 0 0 0 0 ",
"0 0 0 0 0 0 0 0 0 q (.    _ } 5 !.-.(.o o U T I E z u r y x x e y d d C z E e C C B F 4.@.K K 6.E B E B F E w H j.p v v o o e 7 | A ~ ' 1 1 d.U.W.(+8+{+]+;+w.J.w.p.C.C.C.C.p.p.u.C.C.q.u.C.q.C.q.C.u.u.u.C.u.p.C.q.q.q.C.C.C.C.C.C.C.q.C.C.C.q.q.q.q.z.z.z.B.t.B.B.z.t.`.`.B.z.q.w.,+Q..+S.S.Q.L.(+(+_+M.(+(+ + +:+L.W.W.Q.Z.$+#+d.d..+@+.+d.#+$+%+++++++[.o.J.,+,+'+;+;+;+,+,+)+{+)+'+8+8+8+]+8+]+b+^+U.@+e.e.^ &+n+n+n+y+w+y+w+u+y+u+u+u+w+u+v+u+v+u+o+u+o+o+w+w+y+y+w+y+y+w+x+y+n+w+q+w+q+n+m+m+!+Q.W.W.Q.Q.Q.Q.Q.Q.Q.Q.Q.Q.Q.Q.Z.%+*+@+1 1 1 ( @+@+d.[.N.T.T.N.N.W.N.W.N.[.[.[.[.++++++++++++~ ~ %+%+~ %+%+! ! 0.0.0.0.D D ' ' D ' ' ' ' ' ' A b b A A ( ( ( ( ( ( 1 _ _ _ [ : : : } } t 8 r 7 f d p w T Y 9+0+9+9+c.9+c.:.c.:.:.c.:.<.%.Z %.l.%.8.Z %.8.%.%.5.%.V <.%.Z %.8.g.8.l.7.7.7.7.Q V G I Q &.Z %.Z %.....T w v z z z z y t : i ] {   6 0 0 0 0 0 0 0 0 0 0 0 0 0 0 0 0 0 0 0 0 0 0 0 0 0 0 0 0 0 0 0 0 0 0 0 0 0 0 0 0 0 0 0 0 0 0 0 0 0 0 0 0 0 0 0 0 0 0 0 0 0 0 0 0 0 0 0 0 0 0 0 0 0 0 0 0 0 0 0 0 0 0 0 0 0 0 0 0 0 0 0 0 0 0 0 0 0 0 0 0 0 ",
"0 0 0 0 0 0 0 0 0 7 0 7 ( 1 9 ) } 6 0 ~.o w S H B y s J R R R O C e z C C v e s y z F =.@.I 6.F F E F B E E E w w ~.d p ~.~.~.).] #+! %+Z.Y..+W.^+P.P.,+,+J.w.w.w.u.u.u.C.u.p.u.C.C.u.u.u.q.q.q.q.u.u.u.u.C.q.p.w.C.C.C.u.u.u.C.u.p.u.C.C.C.u.C.u.C.z.z.q.z.z.B.B.B.B.z.B.z.q.q.q.u.J.P..+*+=+.+S.Y.|+N.L.L.L.N.N.N.N.W.Z.Y.$+.+@+@+@+@+*+@+@+d.#+#+! %+++++U.,+,+)+'+'+,+,+)+'+{+{+8+8+]+]+]+b+_+b+^+M.M.Z.e.1 ^ &+u+x+y+y+w+y+w+u+u+u+v+u+u+v+o+s+s+o+o+o+o+u+u+x+u+x+w+n+y+n+w+n+n+r+n+n+n+n+q+m+>+W.Q.Q.Z.Z.Z.Y.Y.Z.Z.Y.Y.Z.Y.Z.%+$+*+@+1 1 1 1 1 @+d.[.[.W.[.[.W.W.++++++[.++++Z.++++%+%+%+%+%+%+0.0.! ! ! ! ! D D ' ' ' D ' ' ' ' ' ' ' A b A A A b ( ( ( ( ( ( ( 1 _ _ [ : ) : : } t 8 8 7 f e q w S *.:.9+9+9+c.c.:.:.:.:.<.g.c.<.<.<.Z %.l.8.l.Z %.Z 8.7.5.l.7.8.%.%.7.Z Z %.%.&.7.l.W V &.G I Q &.&.%.Z &.T S S w z q z z C J : ) 1 '     0 0 0 0 0 0 0 0 0 0 0 0 0 0 0 0 0 0 0 0 0 0 0 0 0 0 0 0 0 0 0 0 0 0 0 0 0 0 0 0 0 0 0 0 0 0 0 0 0 0 0 0 0 0 0 0 0 0 0 0 0 0 0 0 0 0 0 0 0 0 0 0 0 0 0 0 0 0 0 0 0 0 0 0 0 0 0 0 0 0 0 0 0 0 0 0 0 0 0 0 0 0 ",
"0 0 0 0 0 0 0 0 0 0 0 0 _ 1 9 1 9 n -.k._.~.C+B+E s x r j 1.J y z f q d y B p e e z F L I K I E F E E E z F z p }.v d f q _.o (.'..+W.:+M.M.N.Z.N.o.w.w.J.p.u.p.C.C.C.C.C.C.u.u.u.C.C.C.u.C.C.C.q.C.C.u.q.C.C.C.u.u.p.u.u.u.p.w.p.w.w.p.C.C.u.C.u.p.u.C.C.q.z.z.B.B.B.z.C.q.z.q.q.u.w.,+(+!+!+*+=+.+.+S.Y.Q.Q.Q.Q.Z.Z.$+#+.+.+.+@+@+*+*+e.*+@+@+A d.#+! %+~ 3 V.P.P.P.{+{+)+{+{+8+8+8+b+b+]+b+_+_+(+(+ + +U.@+i &+e.r+y+x+y+y+w+u+u+w+u+w+v+w+v+w+v+o+o+u+o+u+v+w+y+y+w+y+w+w+w+n+w+y+p+n+n+n+m+l+l+.+Y.Y.Y.Y.$+Y.$+$+$+$+$+$+%+$+$+%+#+1 1 e.1 1 1 e.@+d.++++++[.++++++++Z.Z.Z.++Z.%+%+%+%+! ! ! ! 0.0.D D D D ' D ' ' ' ' ' ' ' ' ' A ' A A A A b b A A ( ( ( ( ( 1 1 _ _ _ ) : : : } t t 8 m 7 f d v S *.:.9+c.c.9+<.c.<.<.<.c.:.g.g.8.:.Z 8.8.<.Z <.g.%.7.8.5.Z 7.7.%.8.X V Z <.%.5.W 5.7.7.%.%.I I W &.&.%.X ..S v w w d e B q s j } ) (       -.0 0 0 0 0 0 0 0 0 0 0 0 0 0 0 0 0 0 0 0 0 0 0 0 0 0 0 0 0 0 0 0 0 0 0 0 0 0 0 0 0 0 0 0 0 0 0 0 0 0 0 0 0 0 0 0 0 0 0 0 0 0 0 0 0 0 0 0 0 0 0 0 0 0 0 0 0 0 0 0 0 0 0 0 0 0 0 0 0 0 0 0 0 0 0 0 0 0 0 0 0 ",
"0 0 0 0 0 0 0 0 0 0 0 0 _ A ( ^ 9 9 n 0 -.~.p H F M x s u u f C s e e e e p v d f z B B F K K 4.E F I B B H v q ~.q d 6 -.d k.k.i %+Q.L._+b+]+b+_+^+P.;+u.C.p.u.u.C.C.u.C.u.u.u.u.C.C.C.C.u.C.u.C.q.C.C.C.C.C.u.u.u.p.u.p.u.u.p.p.p.J.J.p.C.u.p.u.p.u.u.C.u.q.z.z.B.z.z.C.q.C.q.C.u.p.J.{+Y.i+!+>+*+=+.+.+.+S.#+S.#+d..+.+@+@+@+@+*+*+e.e.e.e.1 1 @+A ' D ! 0.T.^+^+^+]+8+P.8+8+]+]+]+b+b+_+_+(+(+:+:+L.T.T.%+e./ ^ r+n+y+y+y+u+u+w+u+u+u+u+v+u+o+y+h+v+o+v+u+u+w+u+w+x+w+w+p+w+x+w+n+w+n+n+q+n+m+i+S.Q.Y.Y.$+$+#+$+#+#+#+#+#+$+#+#+#+#+1 e.e.1 1 1 1 e.A Z.Z.++Z.++Z.Z.%+%+%+%+%+! ! ! 0.! ' D D D D ' ' D ' ' ' ' ' ' ' ' ' ' ' ' ' A A A b A ] A ] A ( ( ( ( ( 1 1 _ _ _ [ : : : } } t 8 r 7 f d p H ..^.9+9+c.:.c.c.:.<.<.Z 8.<.<.<.<.<.:.Z Z <.<.<.%.%.%.5.%.Z Z %.&.<.%.V X X Z W 9.W V 5.8...H I V X &.&.V ..H p v p d e q f t : } ^ ' ).  q 0 0 0 0 0 0 0 0 0 0 0 0 0 0 0 0 0 0 0 0 0 0 0 0 0 0 0 0 0 0 0 0 0 0 0 0 0 0 0 0 0 0 0 0 0 0 0 0 0 0 0 0 0 0 0 0 0 0 0 0 0 0 0 0 0 0 0 0 0 0 0 0 0 0 0 0 0 0 0 0 0 0 0 0 0 0 0 0 0 0 0 0 0 0 0 0 0 0 0 0 0 0 ",
"0 0 0 0 0 0 0 0 0 0 0 0 _ (   i '.) 9 h.)._.~.j.w B z s J m f y -.f e f e C H f f y B B B E F =.B F K B v v p p d h.t t } !.-.0 } Z.(+^+^+'+'+)+)+)+,+w.w.p.u.u.C.u.p.u.u.p.u.u.u.p.u.C.C.C.q.u.C.C.C.q.u.u.u.C.u.u.u.C.C.u.p.w.J.p.w.;+w.w.u.p.p.p.w.u.p.p.p.C.q.z.z.q.C.u.u.u.u.p.p.w.,+b+*+i+f.| *+=+=+=+.+.+.+.+.+@+@+@+*+*+*+*+e.e.e.e.e.e.e.1 1 ] A D 0.3 (+^+^+^+b+b+b+]+]+b+b+_+_+(+(+:+:+U.N.N.T.[.++( / '.!+n+y+y+y+y+w+w+v+o+v+v+u+v+v+v+v+v+v+v+u+u+u+w+w+y+w+x+w+n+y+n+r+n+n+r+n+l+m+>+|+W.W.Z.Y.Z.%+$+#+#+#+#+#+#+d.d.d.d.1 e.e.e.1 1 1 1 @+! %+%+%+%+%+%+%+%+%+%+! 0.! D D ' ' ' ' ' ' A A A ' A A A ' ' A A A A A ' b A A A ] ] A ] ( ] ( ( ( ( 1 1 1 _ _ _ _ : : : : } t 8 7 f e q w T  .c.c.c.c.:.<.:.<.<.Z <.<.<.Z <.8.Z Z 8.Z Z Z <.%.%.%.7.&.Z &.X %.8.&.&.X Z X 5.9.V 5.l.Z G F G &.&...&.Y S v p q d f f s J t t ^ 1   7 d p d 0 0 0 0 0 0 0 0 0 0 0 0 0 0 0 0 0 0 0 0 0 0 0 0 0 0 0 0 0 0 0 0 0 0 0 0 0 0 0 0 0 0 0 0 0 0 0 0 0 0 0 0 0 0 0 0 0 0 0 0 0 0 0 0 0 0 0 0 0 0 0 0 0 0 0 0 0 0 0 0 0 0 0 0 0 0 0 0 0 0 0 0 0 0 0 0 0 0 0 0 0 ",
"0 0 0 0 0 0 0 0 0 0 0 0 _   ' ^ ^ ^ ) 9   -.k.o q z w s } 8 7 e 7 f 7 f s e w e f y z z z E B B E H I w v v p q f 9 _ 2 ( 1 i 5 ^ U.M.,+J.,+w.J.J.J.;+;+w.p.p.u.u.u.u.C.C.C.u.p.p.u.u.C.C.u.u.u.C.u.C.C.p.u.C.C.u.C.p.p.p.p.w.,+J.J.w.;+J.w.p.w.w.w.w.p.p.w.u.u.C.C.C.C.u.p.w.u.p.p.w.J.;+{+(+f.i+i+5 &+*+=+=+=+=+@+=+@+@+@+@+@+@+@+e.e.1 e.e.e.e.e.e.] ( A A ( U.(+_+_+^+^+_+_+_+_+_+(+(+(+:+:+L.L.N.W.++++~ 0.) '.>+n+n+x+y+y+w+u+u+v+s+w+v+v+o+o+o+v+v+v+o+w+y+w+x+w+n+r+n+x+r+n+n+q+n+m+n+m+i+:+^+_+(+L.N.W.Q.Z.Y.%+$+#+d.#+#+d.d.d.1 e.^ e.i 1 1 1 ] ' ! %+! %+%+%+! ! ! ! ! D ' ' ' ' A A A A A A A A A A A A ' A A A A A A A A A A ] ] ] A ( ( ( ( ( 1 1 1 _ _ _ _ _ : : : : } t 8 r 7 e q v G Z 9+9+:.:.:.:.^.<.8.<.%.<.8.8.Z <.Z <.Z %.%.Z Z %.%.&.7.&.&.Z %.&.%.%.V V %.X ..@.5.W 7.<.X F F W Q I Q ..T w p q q e s y x u 8 9 ^ ] : 0 0 d (.0 0 0 0 0 0 0 0 0 0 0 0 0 0 0 0 0 0 0 0 0 0 0 0 0 0 0 0 0 0 0 0 0 0 0 0 0 0 0 0 0 0 0 0 0 0 0 0 0 0 0 0 0 0 0 0 0 0 0 0 0 0 0 0 0 0 0 0 0 0 0 0 0 0 0 0 0 0 0 0 0 0 0 0 0 0 0 0 0 0 0 0 0 0 0 0 0 0 0 0 0 ",
"0 0 0 0 0 0 0 0 0 0 0 -.    1 ) [ 1 i ^ h.n 6 -.s C p e } 8 f f 7 7 r r j f w q f e C y B E L L E H K w v p p d r ) A D b 3 ++A *+L.'+'+;+J.J.J.;+w.J.J.u.w.w.u.u.u.p.u.u.u.u.u.w.u.u.u.u.u.p.u.C.u.u.C.u.u.u.u.u.u.u.w.w.w.w.;+;+,+;+J.w.J.J.w.J.J.J.;+w.J.w.p.p.u.u.C.u.p.J.p.J.;+w.J.;+)+]+N.f.a c f./ e.*+*+=+@+@+@+@+*+@+@+@+@+*+e.e.e.&+e.&+&+^ i 1 1 ( 1 [.(+(+(+(+(+(+(+:+(+:+:+:+:+L.L.N.W.++++++~ 0.0.1 / / n+n+x+w+y+u+u+w+h+o+s+s+v+o+u+o+v+o+v+u+x+y+x+w+n+x+u+n+n+n+r+m+n+n+m+m+l+>+'+'+)+{+8+P.M. +L.N.N.W.++Y.$+$+#+#+' ] e.^ &+^ 1 1 1 1 A $+$+$+! ! %+! $+#+#+D D ' A ' A A A ] ] ( ] ( ( ] ] A A A A A A A A ( ( ( A ] ( ( ( ( ( ( ( ( ( ( 2 1 2 _ _ _ _ : : : } } t J r f d p H X c.0+9+:.^.:.^.^.%.Z %.X Z Z Z <.<.:.Z Z %.X X %.%.&.5.&.5.7.X %.%.&.%.V X %.V W 9.9.W l.g.V F I Q G I G T H p p d d f x y x 8 t i ]   -.0 0 0 0 0 0 0 0 0 0 0 0 0 0 0 0 0 0 0 0 0 0 0 0 0 0 0 0 0 0 0 0 0 0 0 0 0 0 0 0 0 0 0 0 0 0 0 0 0 0 0 0 0 0 0 0 0 0 0 0 0 0 0 0 0 0 0 0 0 0 0 0 0 0 0 0 0 0 0 0 0 0 0 0 0 0 0 0 0 0 0 0 0 0 0 0 0 0 0 0 0 0 0 0 0 ",
"0 0 0 0 0 0 0 0 0 0 0 -.  0.A 1   ( { (   '.5 6 ).0 -.7 2 m (.7 J 8 t J r f v p f e p z C H y C B H E w q v p f m ' ! ++:+L.^+^+N.Z.P.,+;+J.J.J.J.w.w.w.u.u.C.u.u.p.u.C.C.C.C.C.p.u.u.C.u.p.u.u.u.u.C.C.u.u.u.u.p.u.u.u.p.w.J.,+,+,+'+,+;+J.;+;+;+;+;+,+,+,+J.w.w.w.p.J.w.p.w.;+;+;+w.,+;+'+{+b+! c o o f.| &+*+@+@+*+*+*+*+@+@+@+@+*+e.e.e.&+&+e.&+&+/ &+^ ^ '.++:+[+:+:+:+:+:+:+L.L.N.N.N.N.N.W.Z.%+%+%+#+' A ( / | r+n+y+y+y+w+w+o+v+o+v+v+u+u+o+u+|+u+o+u+y+w+n+w+n+y+p+w+n+n+n+r+n+m+m+m+i+M.J.;+,+'+'+)+8+8+8+P.^+M. +L.N.W.Q.++%+A ^ ^ ^ ^ ^ i 1 1 A $+$+$+$+$+$+$+$+#+' ' ' d.A A A ] ] ] ( ( ( ( ( ( ( ( ] ( ] ] ( ( ( ( ( ( ( ( ( ( ( ( ( ( ( ( ( ( ( 2 2 _ _ _ _ : : } t t 8 r 7 e q w T :.9+9+c.:.:.<.<.<.Z %.%.X %.%.Z Z <.<.<.<.<.Z %.X &.&.V V %.X &.X X &.&.%.7.%.Q V W @.7.g.Z Q H G I G ..S w w p p q f y y B 7 !./ ] D   0 0 0 0 0 0 0 0 0 0 0 0 0 0 0 0 0 0 0 0 0 0 0 0 0 0 0 0 0 0 0 0 0 0 0 0 0 0 0 0 0 0 0 0 0 0 0 0 0 0 0 0 0 0 0 0 0 0 0 0 0 0 0 0 0 0 0 0 0 0 0 0 0 0 0 0 0 0 0 0 0 0 0 0 0 0 0 0 0 0 0 0 0 0 0 0 0 0 0 0 0 0 0 0 0 0 ",
"0 0 0 0 0 0 0 0 0 0 0 6           ' -     '.5 5 !.n n : } t 6 7 7 t : J !.f e w e f d q v I C C C S F w q ~.d f t !  + +M.P.)+'+'+^+^+J.;+J.J.J.p.w.u.p.C.C.C.u.p.u.C.C.u.u.C.C.C.C.u.C.C.p.u.u.u.u.C.u.C.u.u.u.p.u.u.q.u.u.p.;+,+,+)+)+'+'+'+'+,+'+,+,+,+,+'+,+,+;+;+;+;+J.p.J.,+,+,+;+'+'+)+]+^+1 c o o -.| / e.*+@+*+*+*+*+*+*+*+e.e.e.e.e.&+&+&+/ / / / / 5 ++N.|+L.L.L.L.N.N.N.W.W.W.Q.++++Z.$+#+#+' A ] ( ( ^ | r+y+y+w+w+y+v+v+v+v+h+u+o+v+v+v+w+w+u+w+u+z+w+w+n+y+q+n+q+y+q+q+m+q+m+l+>+J.w.w.;+,+,+'+{+{+)+)+{+{+8+]+^+M. + +U.! ^ ^ ) ^ ^ i e.1 #+%+%+%+$+$+$+$+! #+#+#+' ' ' A A ] ] ( ( ( ( ( ( ( ( ( ( ( ( ( ( ( ( ( ( ( ( ( ( ( ( ( ( ( ( ( 2 2 2 _ _ _ _ _ k : : } t t J r f e B S X c.c.c.c.:.:.<.<.^.<.X X V %.X %.<.8.<.Z Z Z X X %.&.&.Q W Z 7.&.%.Z X &.%.X &.....@.7.&.&.W I H S H G S H w p p p q f y C p m 9 ^ A   r 0 0 0 0 0 0 0 0 0 0 0 0 0 0 0 0 0 0 0 0 0 0 0 0 0 0 0 0 0 0 0 0 0 0 0 0 0 0 0 0 0 0 0 0 0 0 0 0 0 0 0 0 0 0 0 0 0 0 0 0 0 0 0 0 0 0 0 0 0 0 0 0 0 0 0 0 0 0 0 0 0 0 0 0 0 0 0 0 0 0 0 0 0 0 0 0 0 0 0 0 0 0 0 0 0 0 ",
"0 0 0 0 0 0 0 0 0 0 0 t   L     8 :       / ) &+) m 6 } 7 r m t 7 t r m 8 7 7 v p f d q w E y C z E F v p d (.-.: ( U.^+{+{+)+'+;+J.,+'+;+J.J.J.J.p.p.p.u.p.u.u.p.C.u.p.u.p.u.u.C.C.C.u.u.u.p.u.u.C.u.C.u.u.p.u.C.u.u.q.q.C.u.w.;+'+)+8+]+8+{+)+)+)+)+'+'+'+'+'+'+)+,+,+,+,+,+J.;+,+,+'+'+'+)+{+]+U./ c o o 0 5 / &+e.*+*+1 *+*+*+e.e.e.e.e.e.e.&+&+&+/ / | | / W.N.W.N.N.W.W.W.W.W.Q.Q.Z.Y.%+$+#+d.A A ] ( 1 _ _ _ 9 !+n+y+y+w+w+u+o+v+u+v+v+v+v+v+v+v+u+u+w+u+n+w+w+r+p+w+n+n+r+m+q+m+m+m+i+$ w.w.J.w.J.,+'+)+'+,+'+)+)+)+)+)+8+]+V.[.1 ^ ^ ^ ^ 1 i e.@+Z.T.[.[.++++Z.Z.Z.%+%+%+! ! ! #+' d.A A ] ] ( 1 1 1 ( ( ( ( ( ( ( ( ( ( ( ( ( ( 2 ( ( 2 ( 2 2 2 2 2 _ _ _ _ _ _ : : : j t t J r f C v T :.9+c.c.c.c.c.:.%.%.Z X ..&.%.Z X Z Z <.<.Z Z 8.Z 8.&.&.Q Q %.<.Z %.&.5.%.%.X T ..Q I W Q &.G H S H T S H v v q p d e s y s 6 m '.1 D   r 0 0 0 0 0 0 0 0 0 0 0 0 0 0 0 0 0 0 0 0 0 0 0 0 0 0 0 0 0 0 0 0 0 0 0 0 0 0 0 0 0 0 0 0 0 0 0 0 0 0 0 0 0 0 0 0 0 0 0 0 0 0 0 0 0 0 0 0 0 0 0 0 0 0 0 0 0 0 0 0 0 0 0 0 0 0 0 0 0 0 0 0 0 0 0 0 0 0 0 0 0 0 0 0 0 0 ",
"0 0 0 0 0 0 0 0 0 0 -.  7     m 0         ^ 1 ]   } 9 6 6 t 8 '.5 m t 7 t t f e w f e p v z y z z v E v d q -.6 ) ' U.^+8+)+,+;+;+w.J.w.w.J.w.p.p.u.u.w.w.u.u.C.C.u.u.C.u.u.C.u.p.u.u.u.u.u.u.u.u.C.C.C.C.u.p.C.u.p.u.C.z.z.q.u.w.'+{+8+b+]+]+8+{+{+{+)+)+)+)+)+)+)+{+'+'+'+'+'+,+'+,+'+)+{+8+8+]+^+[.5 k.o o c 5 / &+e.e.e.e.e.e.e.e.e.e.e.e.e.&+&+/ / / | | 1 Q.Q.Q.Q.Q.Z.Z.Z.Z.Y.Z.$+%+$+#+#+A ] ] 1 1 1 i ^ ) : 9 | n+x+u+u+u+o+o+o+v+v+o+u+v+o+u+v+w+u+w+y+w+n+n+n+w+n+n+w+n+m+m+m+m+m+*+w.w.J.w.w.w.;+,+,+,+,+,+;+'+,+'+)+{+^+++1 e.i i 1 1 1 e.@+++V.P.^+M. +U.U.L.N.[.[.[.[.++++++%+%+$+! D ' ' A ] ] ( ( ( ( ( ( ( ( 2 2 1 2 2 2 2 2 2 2 2 2 _ 2 2 2 2 2 2 k k k k : k j t t J r e z H ..c.9+c.c.:.:.c.<.Z &.&.X V V 5.%.X %.%. .Z Z %.%.X %.%.W G I &.Z <.X &.5.%.V V V ..H G &.&.&.S S H w S v p q q q p d y q d (.9 9 i '     0 0 0 0 0 0 0 0 0 0 0 0 0 0 0 0 0 0 0 0 0 0 0 0 0 0 0 0 0 0 0 0 0 0 0 0 0 0 0 0 0 0 0 0 0 0 0 0 0 0 0 0 0 0 0 0 0 0 0 0 0 0 0 0 0 0 0 0 0 0 0 0 0 0 0 0 0 0 0 0 0 0 0 0 0 0 0 0 0 0 0 0 0 0 0 0 0 0 0 0 0 0 0 0 0 0 0 ",
"0 0 0 0 0 0 0 0 0 0   r 6 b 7 0 0 -.      ' ( ] 8 8     6 n m '.} n m 8 t } 7 d q f 7 q d z C f z B z w v d 0 6 ^ Z.U.]+'+,+;+,+;+J.J.;+p.J.w.p.p.p.u.u.w.u.u.p.u.w.w.p.p.p.p.u.u.p.u.C.u.u.u.u.u.u.p.u.u.u.p.p.u.p.u.u.C.z.z.q.w.;+'+{+8+]+]+8+]+8+{+{+{+)+{+{+)+'+)+)+'+)+'+'+,+)+)+{+{+8+]+]+b+^+M.! !.k.o o k.n | &+&+e.e.e.e.e.e.e.e.e.e.e.^ &+/ / / / 9 $+Z.Y.Y.Y.Y.Y.%+%+%+#+$+#+d.d.' A ] 1 1 i ^ ^ ^ '.'.'.} 5 r+w+y+w+w+u+v+u+u+o+v+u+u+w+v+w+w+u+n+y+x+n+y+n+r+n+n+n+m+n+m+l+m+i+@ w.w.p.J.p.u.w.;+;+,+,+,+;+,+,+,+)+ +%+@+@+1 1 1 ] @+@+%+M.)+'+,+)+)+]+]+8+]+^+M.^+ + + + +U.U.T.T.[.[.[.++++++~ 0.' A ] ( ( ( ( 2 2 2 _ 2 2 2 2 2 2 2 2 2 2 2 2 2 2 2 2 k k k k k j j t r s e B S Y 9+9+:.:.c.c.c.:.Z Z ..V V W &.X &.%.X &.%.%.X X %.%.Z ..Q Q W l.8.X V Z X X V V G H G ..V Q H S w w v p p q q z q e C w d !.9 9 ( D 4.(.0 0 0 0 0 0 0 0 0 0 0 0 0 0 0 0 0 0 0 0 0 0 0 0 0 0 0 0 0 0 0 0 0 0 0 0 0 0 0 0 0 0 0 0 0 0 0 0 0 0 0 0 0 0 0 0 0 0 0 0 0 0 0 0 0 0 0 0 0 0 0 0 0 0 0 0 0 0 0 0 0 0 0 0 0 0 0 0 0 0 0 0 0 0 0 0 0 0 0 0 0 0 0 0 0 0 0 ",
"0 0 0 0 0 0 0 0 0 0 d 0   6 0 0 0 0 8     ! D A d d 0 0 e }   ) 9 !.} f } } m 7 f 7 6 f C z y f d q z v p 0 (.6 1 ++ +]+)+,+,+;+,+;+;+J.w.J.J.J.J.w.p.p.p.u.p.u.C.p.u.w.p.u.w.u.u.u.u.C.C.u.u.u.u.p.p.w.p.p.p.w.p.p.p.u.u.q.z.q.C.p.w.,+{+]+b+_+b+b+]+8+8+8+8+8+8+8+8+{+{+{+{+{+)+)+{+8+8+]+]+b+_+M. +U.i !.k.o o k.n | / &+&+&+&+e.e.e.e.e.e.e.&+&+&+&+/ / 1 $+$+$+$+#+$+$+#+#+#+d.d.d.A A ] ] 1 i [ ^ / ) / / | 9 9 9 !+y+w+w+w+w+u+u+w+u+u+u+y+u+y+w+y+w+n+y+n+n+n+n+n+q+r+m+m+m+l+m+m+Y.p.w.w.p.w.w.C.w.J.J.;+;+'+;+,+;+{+L.#+@+] A @+A A d.$+U.)+,+,+,+'+'+'+)+)+)+)+)+{+{+8+8+P.^+^+V.V.^+M.M. + +U.U.U.T.T.[.++~ 0.' b ( ( ( ( 2 2 2 2 2 2 g 2 g 2 2 2 2 2 2 2 2 2 2 k k : j J r s C v T Z 9+9+9+:.<.Z <.<.<.Z &...W Q &.` X %.X V %.X Z %.&.&.%.W G Q Q Z g.Z %.%.&.X V V S S Q G ..H S S w v v v q d e p d e p ~.-.} / i D     0 0 0 0 0 0 0 0 0 0 0 0 0 0 0 0 0 0 0 0 0 0 0 0 0 0 0 0 0 0 0 0 0 0 0 0 0 0 0 0 0 0 0 0 0 0 0 0 0 0 0 0 0 0 0 0 0 0 0 0 0 0 0 0 0 0 0 0 0 0 0 0 0 0 0 0 0 0 0 0 0 0 0 0 0 0 0 0 0 0 0 0 0 0 0 0 0 0 0 0 0 0 0 0 0 0 0 0 ",
"0 0 0 0 0 0 0 0 0 0 0 0 0 0 0 0 0 0       0.  { -.0 0         ^ } 8 9 6 t ).t 7 t 8 6 7 e z x 7 d q q e d k.-.).@+W.M.b+8+)+'+,+;+,+,+J.w.w.w.w.J.J.J.w.w.w.p.w.u.w.p.w.p.u.p.p.p.C.C.u.C.C.C.w.w.p.p.p.u.p.p.p.u.u.u.p.u.u.q.z.q.q.C.p.;+8+b+_+_+b+b+]+]+]+]+]+8+]+]+]+]+]+8+8+]+8+8+]+8+b+_+_+(+:+U.T.%+9 m 0 o }.k.n | / / &+&+&+e.e.e.e.e.e.^ &+^ ^ / ) d..+d.d.#+d.d.d.d.d.d.A ] @+] 1 1 1 i ) / ) / 9 9 | | 9 9 9 !+n+n+p+n+q+q+q+q+q+n+n+x+x+n+y+y+w+y+n+y+w+q+r+n+n+m+m+m+l+m+l+!+;+J.J.w.w.u.p.u.p.J.;+;+,+;+J.;+P.Q..+.+@+d.d.d.d.$+N.P.;+;+,+,+'+'+,+;+'+)+)+)+)+)+)+'+{+)+{+P.P.8+P.P.V.V.V.V.M.M. + +U.T.T.T.< - 0.D ' b b b 2 2 2 2 2 g g 2 2 2 2 2 2 2 2 2 2 k k k j t r f z w ..^.c.:.:.:.^.g.<.<.Z X &.V V V &.X &.X %.&.X &.X Z &.Q &.&.Q W Q &.Z Z X V V &.X G H H Q T S H S H v v q z q e q d f p q -.h.) / ( ( f   -.0 0 0 0 0 0 0 0 0 0 0 0 0 0 0 0 0 0 0 0 0 0 0 0 0 0 0 0 0 0 0 0 0 0 0 0 0 0 0 0 0 0 0 0 0 0 0 0 0 0 0 0 0 0 0 0 0 0 0 0 0 0 0 0 0 0 0 0 0 0 0 0 0 0 0 0 0 0 0 0 0 0 0 0 0 0 0 0 0 0 0 0 0 0 0 0 0 0 0 0 0 0 0 0 0 0 0 ",
"0 0 0 0 0 0 0 0 0 0 0 0 0 0 0 0 0 0 0 8   0.    m 0 0 -.0 7   1 9 } / 5 m 6 } m : !.8 -.q e r 6 p e e 0 e (.6 !.] N.M.^+{+'+'+'+;+;+J.J.p.p.p.w.w.,+,+w.p.w.p.p.p.p.w.w.p.u.u.C.p.C.u.C.u.C.C.u.p.p.p.p.u.C.u.u.u.u.u.u.p.C.C.z.z.z.q.u.w.'+]+:+:+(+_+b+b+b+b+b+]+]+]+]+]+b+b+]+b+]+b+b+_+_+(+:+:+L.N.W.++_ 9 ).e p o k.n | / &+&+&+&+e.e.e.e.e.^ ^ ^ &+/ ] @+@+@+@+d.A A @+@+@+@+] 1 1 1 i ^ ^ ) / / / 9 9 9 9 5 5 9 9 9 !+q+l+{.].{.j+{.j+j+j+j+j+l+m+q+n+n+x+n+n+n+n+q+q+q+m+l+m+m+i+#.J.;+w.w.p.u.p.p.p.w.w.w.J.J.;+M.Y.#+d.d.d.#+#+$+W.P.,+,+;+J.,+,+;+,+,+,+,+,+'+,+'+,+'+'+{+{+)+{+{+8+8+P.P.P.V.^+V.M.^+M. + +U.U.U.T.T.< < ~ 0.D b b b b b 2 2 2 2 2 2 2 2 2 2 2 2 k k k t J r e z H *.^.c.:.^.Z <.Z Z <.Z Z &.V V ..8.X X %.X &.X &...X %.Q Q &.Q W W V %.&.X &.X Q ..S H T G G G S S v v d q e e e d e q w 6 !.9 ) ^   6 0 -.f 0 0 0 0 0 0 0 0 0 0 0 0 0 0 0 0 0 0 0 0 0 0 0 0 0 0 0 0 0 0 0 0 0 0 0 0 0 0 0 0 0 0 0 0 0 0 0 0 0 0 0 0 0 0 0 0 0 0 0 0 0 0 0 0 0 0 0 0 0 0 0 0 0 0 0 0 0 0 0 0 0 0 0 0 0 0 0 0 0 0 0 0 0 0 0 0 0 0 0 0 0 0 0 0 0 0 0 ",
"0 0 0 0 0 0 0 0 0 0 0 0 0 0 0 0 0 0 0 0 0 -     8 0 0 0 0   ( 9 9 _ ) 9 !.n t ) 8 } 8 7 -.e 7 -.p f 7 )._.0 6 } A N.M.]+)+'+,+,+,+,+,+;+w.w.p.w.J.;+J.w.w.w.p.w.p.p.w.J.u.u.C.u.p.u.u.p.u.u.u.u.u.u.p.u.u.u.u.C.u.p.p.p.u.C.C.q.q.z.z.z.C.J.)+:+|+[+:+(+(+_+_+_+b+b+b+b+b+b+_+_+_+_+b+(+(+:+:+L.N.N.W.Z.++A } t ).e ~.o k.n 9 / / ^ ^ ^ e.e.e.e.e.^ ^ / e.@+@+@+@+@+@+@+@+1 1 1 1 1 e.^ ^ ^ / / / 9 / 9 | | 9 | 5 | 9 9 } | m+k+{.l+r+r+r+v+v+r+!+l+k+j+j+j+k+l+q+q+q+n+m+m+m+m+l+m+m+T.u.w.w.w.w.u.p.w.p.p.p.p.p.w.)+L.Y.#+$+#+#+#+S.Q.^+'+J.;+;+J.;+,+;+;+;+,+;+,+;+,+,+,+,+,+)+)+{+)+)+{+{+8+{+8+8+]+]+^+^+^+^+M. + + +U.U.T.T.T.= < - 0.D D b b b g 2 2 2 2 2 2 2 2 2 2 2 k j j J s e B S Y :.^.$. .<.Z %.Z Z X X &.&.V V &.%.&.X X &.&.X V Q &.W G V V W V W &.V V &.&.Q ..S H T H G T w H v q d e d d e q e q -.n 5 / ^ 1   d 0 0 0 0 0 0 0 0 0 0 0 0 0 0 0 0 0 0 0 0 0 0 0 0 0 0 0 0 0 0 0 0 0 0 0 0 0 0 0 0 0 0 0 0 0 0 0 0 0 0 0 0 0 0 0 0 0 0 0 0 0 0 0 0 0 0 0 0 0 0 0 0 0 0 0 0 0 0 0 0 0 0 0 0 0 0 0 0 0 0 0 0 0 0 0 0 0 0 0 0 0 0 0 0 0 0 0 0 0 0 ",
"0 0 0 0 0 0 0 0 0 0 0 0 0 0 0 0 0 0 0 0 0 - 2   0 0 0 -.  P A 9 9 } } / | !.5 : 8 9 } } 7 d 8 0 d f ).k.p k.6 [ ! T.M.]+{+'+'+,+'+'+'+;+J.w.w.J.J.J.p.p.w.w.w.p.p.w.w.p.p.u.C.C.C.C.u.u.p.u.p.u.u.u.u.C.u.u.u.u.u.u.p.w.p.u.C.q.q.z.q.t.z.q.w.]+|+Y.Q.|+[+(+(+(+(+_+_+(+_+_+(+(+(+(+(+:+:+:+L.N.W.W.Z.Y.%+' ) } 8 ).f q o k.n 9 / / &+&+^ e.e.^ e.^ ^ ) e.e.1 1 1 e.1 1 1 1 e.i ^ ^ ^ ^ / / / 9 | | 9 | 9 9 9 9 9 9 | ) 1 1 >+i+n+w+w+w+u+v+o+v+w+v+v+n+i+k+j+j+j+k+m+m+l+m+m+m+m+m+%+J.,+P.P.^+(+:+L.N.N.N.N.^+;+M.Q.Y.$+$+S.$+S.Q.:+,+J.;+J.;+;+J.;+;+;+;+;+;+;+,+J.,+,+,+,+'+)+'+)+'+)+{+{+{+{+8+]+8+]+b+^+^+^+M.M. + + + +U.U.U.T.T.= < - 3 0.b b b 2 2 2 2 2 2 2 2 2 2 k k j t J s C v G Z :.$.Z X %.%.&.&.X X l.&.&.V W V X &.&.&.%.V &.V W V W G W &.V &.W V &.W V V I I T S S H S H w w v q e e d e e q 0 7 n n 9 ) ]   t 0 0 0 0 0 0 0 0 0 0 0 0 0 0 0 0 0 0 0 0 0 0 0 0 0 0 0 0 0 0 0 0 0 0 0 0 0 0 0 0 0 0 0 0 0 0 0 0 0 0 0 0 0 0 0 0 0 0 0 0 0 0 0 0 0 0 0 0 0 0 0 0 0 0 0 0 0 0 0 0 0 0 0 0 0 0 0 0 0 0 0 0 0 0 0 0 0 0 0 0 0 0 0 0 0 0 0 0 0 0 0 ",
"0 0 0 0 0 0 0 0 0 0 0 0 0 0 0 0 0 0 0 0 0 j 2   0 0 0 q d     i '.'.9 ^ 8 5 | 9 m t ) : -.f } d p 7 7 q ~.(.)._ ++T. +^+8+{+'+'+'+'+'+;+w.J.w.;+J.w.w.w.w.w.w.w.p.p.w.w.p.u.u.u.u.u.u.p.p.p.p.w.p.p.p.p.u.u.p.w.p.u.u.p.C.u.u.p.u.z.B.B.z.z.p.,+(+Y..+Y.Q.N.L.:+ +(+(+(+M.(+(+:+:+:+:+L.L.L.|+W.W.Z.%+$+#+' ^ } t 8 7 f q w k.n 9 / / ^ ^ ^ ^ i ^ ) ) e.e.e.e.e.e.e.^ ^ e.e.^ ^ ^ / / ) / / | 9 | 9 9 | | | | | / ) i ] 0.~ A *+y+w+u+o+v+h+v+o+u+u+w+w+w+n+m+k+j+j+{.k+m+m+m+m+m+>+L.Q.Y.S.S.S.S.S.S.S.S.Y.Y.Q.W.Y.Y.$+$+Y.Y.Q.L.)+J.J.;+J.;+;+J.J.w.J.;+J.;+;+;+;+;+,+,+,+'+'+'+'+)+)+)+{+{+{+{+8+]+]+]+b+]+]+^+^+M.M.M. + +U.U.U.U.,.T.< < < - 0.D b b 2 2 2 2 2 2 2 2 2 k k j t r s z w ..<.c.:.<.%.%.X %.X X &.&.V W &.W V ` V V &.X %...V W ..Q I Q V V Q Q W V ..W Q Q V S H H H S H v w q d f e d d q f 7 ).9 './ i '   -.0 0 0 0 0 0 0 0 0 0 0 0 0 0 0 0 0 0 0 0 0 0 0 0 0 0 0 0 0 0 0 0 0 0 0 0 0 0 0 0 0 0 0 0 0 0 0 0 0 0 0 0 0 0 0 0 0 0 0 0 0 0 0 0 0 0 0 0 0 0 0 0 0 0 0 0 0 0 0 0 0 0 0 0 0 0 0 0 0 0 0 0 0 0 0 0 0 0 0 0 0 0 0 0 0 0 0 0 0 0 0 ",
"0 0 0 0 0 0 0 0 0 0 0 0 0 0 0 0 0 0 0 0 0 0   t 6 0 d 0 0 d _ ] 1 1 5 ) 5 | 9 9 / } ) } h.f 6 -.7 8 0 ~.v p } ) ~ T. +^+]+{+{+'+,+,+;+;+;+;+J.J.J.w.;+;+;+J.w.p.J.p.p.p.u.p.p.u.p.u.u.p.p.w.w.w.p.w.w.w.w.p.p.w.p.w.p.u.C.C.C.u.u.q.z.B.B.z.C.J.)+Y.=+=+S.S.Q.W.L.U.L.L.:+:+L.L.L.L.N.N.N.W.Q.Q.Y.$+$+#+#+D 1 ) } t 8 7 f d o k.n 9 '.) ^ ^ ^ i ) ) e.e.e.e.&+&+^ &+/ / &+^ / / / / / 9 / 9 9 | 9 | | 9 | | / / ^ ( ' ~ N. + +=+w+w+u+v+v+o+o+w+u+u+u+y+w+n+n+n+l+j+j+j+b.m+m+m+!+Y.$+#+#+d.#+#+$+#+#+$+$+$+$+Y.$+$+$+Y.Y.Y.N.P.;+w.w.w.J.w.J.J.J.J.w.J.;+J.J.J.;+;+;+;+;+;+,+,+,+)+)+)+'+)+)+)+{+{+8+8+8+]+b+b+]+^+^+^+M. + + +U.U.U.U.T.< = < [.- 3 0.b b b 2 2 2 2 2 2 2 k k j t r y z w V c.:.^.Z <.%.Z 8.<.Z %.&.X W Q V V X V V &.V X &.W W V W G Q Q V Q Q V W V W Q V S S w v H w H v p e f d q d q d !.).!.9 '.^ ]     0 0 0 0 0 0 0 0 0 0 0 0 0 0 0 0 0 0 0 0 0 0 0 0 0 0 0 0 0 0 0 0 0 0 0 0 0 0 0 0 0 0 0 0 0 0 0 0 0 0 0 0 0 0 0 0 0 0 0 0 0 0 0 0 0 0 0 0 0 0 0 0 0 0 0 0 0 0 0 0 0 0 0 0 0 0 0 0 0 0 0 0 0 0 0 0 0 0 0 0 0 0 0 0 0 0 0 0 0 0 0 0 ",
"0 0 0 0 0 0 0 0 0 0 0 0 0 0 0 0 0 0 0 0 0 0 6 -.7 0 0 0 0 -.      1 '.1 ) 9 m / 9 9 9 8 9 7 d 0 f m w ~.U S t 1 ! [.U.M.]+{+)+)+'+;+,+;+;+;+;+,+J.;+J.J.;+J.w.J.p.w.p.u.p.u.u.u.u.C.q.q.u.w.J.w.w.J.w.w.p.p.p.p.p.p.w.p.C.C.C.q.C.u.C.q.z.z.q.p.;+^+=+>+=+=+.+S.Z.W.W.N.N.N.N.W.W.W.Q.W.Q.Z.Y.S.#+d.#+@+@+A 1 ^ ) '.t 8 m f d v q n t : [ _ _ ) ^ ^ ^ &+^ &+&+/ &+/ / / / / / / / / | | 9 | | 9 9 9 9 | / / ^ i ] 0.[.U.M.V._+u+y+v+u+v+o+s+o+o+u+u+v+w+w+w+w+q+n+m+l+k+j+l+i+>+$+$+#+#+#+#+d.#+#+! ! ! $+$+$+$+%+%+Y.Y.Q.^+J.w.J.w.J.w.w.p.J.w.J.w.J.;+;+J.p.J.;+J.;+;+;+J.,+,+'+)+)+'+'+)+{+)+{+{+{+8+8+8+]+]+]+^+^+M.M.M. + + +U.U.U.T.T.T.= < [.- 3 0.b b b 2 2 2 2 2 2 k k j J r e B H X c.:.<.Z <.8.&.8.Z X %.X &.X G V V &...V X %.&.&...Q Q W Q Q V V W W V &.Q ..Q ..w H v w w H w v v f e d d q e 6 n ).9 '.) 1 '   t 0 0 0 0 0 0 0 0 0 0 0 0 0 0 0 0 0 0 0 0 0 0 0 0 0 0 0 0 0 0 0 0 0 0 0 0 0 0 0 0 0 0 0 0 0 0 0 0 0 0 0 0 0 0 0 0 0 0 0 0 0 0 0 0 0 0 0 0 0 0 0 0 0 0 0 0 0 0 0 0 0 0 0 0 0 0 0 0 0 0 0 0 0 0 0 0 0 0 0 0 0 0 0 0 0 0 0 0 0 0 0 0 ",
"0 0 0 0 0 0 0 0 0 0 0 0 0 0 0 0 0 0 0 0 0 0 -.0 0 0 0 0   r   L       1 1 / 9 5 !.| } 9 9 7 6 -.).d j.v D+U q ( 0.[.U.M.^+{+)+)+'+,+,+;+;+;+;+,+,+;+J.J.w.p.w.w.w.w.w.p.u.u.p.u.p.u.q.q.C.p.w.p.w.J.;+w.w.w.p.p.w.w.J.J.w.p.u.u.C.q.C.C.q.q.C.u.J.)+L.!+!+>+=+.+.+.+S.Y.Y.Z.Q.Q.Q.Y.Y.%+$+$+#+.+.+.+@+@+@+@+1 ^ / '.} t 8 r f e q _ : _ i i ^ e.&+^ / / / / / / / / / / / / | | 9 9 | | | 9 | | 9 '.| / / i 1 A %+T. +V.8+)+|+y+u+w+o+w+o+v+o+w+u+w+w+u+y+r+p+n+m+m+m+i+f.&+d.%+! #+! ! ' d.d.' ' 0.! ! ! #+$+$+%+%+Y.L.,+p.u.w.w.w.w.p.p.p.w.w.J.J.J.J.;+w.p.J.;+J.;+;+;+;+,+;+;+'+)+)+{+{+{+{+8+{+{+8+8+]+]+]+b+b+^+_+^+M. + +U.U. +U.T.T.T.= [.[.- - 3 3 b b b 2 2 2 2 2 k k j J s C B G Z c.<.Z %.<.Z X Z Z %.&.X V V V Q V &...&.X Z &.X W Q Q W Q Q &.&.Q G Q V W V G S v v v w H w v w d d e d q d f 0 ).h.'.) ( ' {     0 0 0 0 0 0 0 0 0 0 0 0 0 0 0 0 0 0 0 0 0 0 0 0 0 0 0 0 0 0 0 0 0 0 0 0 0 0 0 0 0 0 0 0 0 0 0 0 0 0 0 0 0 0 0 0 0 0 0 0 0 0 0 0 0 0 0 0 0 0 0 0 0 0 0 0 0 0 0 0 0 0 0 0 0 0 0 0 0 0 0 0 0 0 0 0 0 0 0 0 0 0 0 0 0 0 0 0 0 0 0 0 ",
"0 0 0 0 0 0 0 0 0 0 0 0 0 0 0 0 0 0 0 0 0 0 0 0 0 0 0 0 0 0 -.e         ] &+| 5 6 5 9 | 5 h.m ).!.o o }.B+C+S ( 0.[.T.M.^+8+{+{+)+'+,+,+,+;+;+J.;+J.w.w.p.w.w.J.w.u.J.w.w.p.u.p.u.u.u.u.p.p.p.w.p.J.;+J.J.J.w.p.w.J.J.J.J.p.w.p.u.C.C.q.C.q.C.C.u.;+]+.+f.f.| *+=+.+.+.+.+.+$+S.$+$+#+.+.+.+.+=+@+@+@+@+@+e.1 ^ ^ ) } } t 8 m f e 8 1 1 ^ ^ ^ ) / / / / / / / / / | | | | | | | | | | 9 | 9 9 | / / / ^ 1 A ! ++T.M.P.8+{+b+w+y+w+o+v+o+o+o+u+v+o+w+w+w+y+n+y+q+r+n+i+&+Z.~ $+! ' D D 0.D ' ' D D D D ! ! ! ! ! $+%+Z.P.u.p.J.J.w.w.w.p.p.u.p.p.w.J.;+J.w.u.J.J.,+;+,+;+J.;+J.;+;+'+)+)+)+)+{+{+{+{+{+8+8+8+]+]+]+]+^+^+^+^+M. +U.U. +U.U.T.T.T.< < [.- 3 3 0.b b b 2 2 2 2 k j t J s d E T <.:.<.Z Z Z 8.%.X Z %.&.X X W W Q V V Q &.X X X V V I ..Q Q G &.&...K Q Q V Q S w H w v v G w p p q f e d d 7 d 0 6 5 ^ 1 D ~     6 7 0 0 0 0 0 0 0 0 0 0 0 0 0 0 0 0 0 0 0 0 0 0 0 0 0 0 0 0 0 0 0 0 0 0 0 0 0 0 0 0 0 0 0 0 0 0 0 0 0 0 0 0 0 0 0 0 0 0 0 0 0 0 0 0 0 0 0 0 0 0 0 0 0 0 0 0 0 0 0 0 0 0 0 0 0 0 0 0 0 0 0 0 0 0 0 0 0 0 0 0 0 0 0 0 0 0 0 0 0 0 0 ",
"0 0 0 0 0 0 0 0 0 0 0 0 0 0 0 0 0 0 0 0 0 0 0 0 0 0 0 0 0 d 0 0     f   A e.^ 9 6 0 5 8 / 9 5 !.0 _.o U o B+].r 0.++N. +^+]+8+{+)+'+'+'+,+;+,+'+;+;+J.J.w.w.J.J.w.w.w.J.w.J.w.u.u.u.C.u.p.p.w.w.J.J.;+J.J.;+J.w.w.w.p.w.J.J.w.w.w.u.C.C.C.C.C.u.u.p.,+^+&+f.f.f.&+*+=+.+.+.+.+.+.+.+.+=+=+=+=+@+@+@+@+@+*+e.e.&+&+/ / } } t 8 m 7 f 1 1 [ ^ ^ / / / / | | | | | | | | | | | | | | 9 9 | | 9 | / / ) i ] ' ++T. +^+]+8+{+'+s+w+y+u+w+v+o+o+v+v+v+w+u+x+y+n+n+n+r+n+m+l+e.! ! 0.0.0.0.D D D D ' ' D D D 0.! 0.! $+$+%+Y.Q.P.w.p.w.p.p.p.u.C.C.u.p.p.w.w.w.p.w.J.w.;+;+;+;+;+;+J.;+;+,+'+'+)+)+{+{+{+{+{+8+]+]+]+]+]+b+^+_+M.^+M.M. +U.U.U.U.U.U., = < [.- 3 3 3 0.b b 2 2 2 2 k j t r e z w ..c.^.<.X Z 8.<.Z %.Z Z &.W %...Q V Q W Q &.%.&.X ..&.Q Q ..Q G &...Q I S G ..G H v w w v v ..w q p d f f e 0 d _.-.9 9 1 A   -   7 m 0 0 0 0 0 0 0 0 0 0 0 0 0 0 0 0 0 0 0 0 0 0 0 0 0 0 0 0 0 0 0 0 0 0 0 0 0 0 0 0 0 0 0 0 0 0 0 0 0 0 0 0 0 0 0 0 0 0 0 0 0 0 0 0 0 0 0 0 0 0 0 0 0 0 0 0 0 0 0 0 0 0 0 0 0 0 0 0 0 0 0 0 0 0 0 0 0 0 0 0 0 0 0 0 0 0 0 0 0 0 0 0 ",
"0 0 0 0 0 0 0 0 0 0 0 0 0 0 0 0 0 0 0 0 0 0 0 0 0 0 0 0 0 0 0 0 0 0 0 2 A *+@+/ n c k.9 9 9 / n 0 a o o o b.b.H D ++[.U.M.^+8+{+{+)+,+,+,+,+,+,+;+;+;+w.w.p.p.w.w.w.p.J.p.w.p.u.u.u.p.p.u.p.w.J.J.;+,+;+J.;+J.;+;+;+J.p.p.w.w.w.w.p.u.u.u.p.u.u.u.u.J.)+U.f.a c -.| e.*+=+.+.+.+.+.+.+.+.+@+@+@+*+@+*+@+e.e.e.e.&+/ / '.} } t 8 m f : ( 1 i ^ ^ / / / / | | | | | | | | | | | | | | | | | / / / ^ 1 A %+[.U.M.P.{+8+8+'+(+w+x+w+w+v+o+o+s+u+v+w+w+w+u+w+n+y+p+r+m+m+m+.+! 0.0.0.D D D ' ' D D D ' D D ! 0.! ! %+$+$+Y.Y.|+,+u.w.w.u.p.C.C.u.u.p.u.p.w.J.J.J.J.J.,+;+J.;+,+;+;+;+;+,+,+'+'+'+)+)+)+{+8+8+8+8+]+b+]+b+^+_+_+M.M.M. + + +U.U.T.T.T.[.[.[.++3 3 3 3 0.b b 2 2 k k j 8 r e B S &.c.$.<.&.X Z Z <.X 8.Z &.V V ....V ..V ..X Z X V V ..V W Q Q Q Q ....Q I S S G w p w v q G T p w q 6 7 e 0 f ~.(.-.'.1 ( '     L q 6 0 0 0 0 0 0 0 0 0 0 0 0 0 0 0 0 0 0 0 0 0 0 0 0 0 0 0 0 0 0 0 0 0 0 0 0 0 0 0 0 0 0 0 0 0 0 0 0 0 0 0 0 0 0 0 0 0 0 0 0 0 0 0 0 0 0 0 0 0 0 0 0 0 0 0 0 0 0 0 0 0 0 0 0 0 0 0 0 0 0 0 0 0 0 0 0 0 0 0 0 0 0 0 0 0 0 0 0 0 0 0 0 ",
"0 0 0 0 0 0 0 0 0 0 0 0 0 0 0 0 0 0 0 0 0 0 0 0 0 0 0 0 0 0 0 0 0 0 0   - .+@+e.5 f.c 9 | ) / | n -.a a o }.j.` j ~ [.U.M.^+8+{+{+'+'+'+,+;+,+,+,+,+;+w.J.w.w.w.w.w.w.w.p.u.p.p.p.u.u.p.w.w.J.J.;+,+;+,+;+J.J.,+'+,+;+;+J.p.p.w.J.J.w.w.J.J.w.u.p.p.w.,+]+%+c a o a f./ *+@+@+.+.+.+.+.+.+@+@+=+@+@+@+*+@+e.e.e.^ ^ / / '.} 9 t 8 m f ( ( 1 i ^ ^ './ / | / / | | | | | | | 9 | 9 | | / / / / i @+' ++T.M.P.P.{+)+)+)+'+v+x+y+w+v+o+u+o+w+v+v+o+y+w+w+w+w+n+y+n+n+m+i+D 0.0.0.0.D 0.0.D ' ' 0.D D D D D 0.0.! ! $+$+%+Y.Q.{+w.w.u.C.p.C.u.p.w.p.u.p.u.w.;+w.;+;+;+J.J.;+;+J.;+J.;+;+,+,+'+'+'+)+)+{+{+8+8+8+]+b+b+b+_+^+^+M.M.M. + + + +T.T.U.T.[.[.[.++3 3 3 3 0.b b 2 2 k : t J f d v G %.:.Z Z X X Z %.8.&.<.X &.&.V ....Q V ..Q X <.X V V ....Q ..G Q ..*.T G G F w H w q v v p +.w w v 0 7 f -.d q a 6 h.'.1   !     7+v 0 0 0 0 0 0 0 0 0 0 0 0 0 0 0 0 0 0 0 0 0 0 0 0 0 0 0 0 0 0 0 0 0 0 0 0 0 0 0 0 0 0 0 0 0 0 0 0 0 0 0 0 0 0 0 0 0 0 0 0 0 0 0 0 0 0 0 0 0 0 0 0 0 0 0 0 0 0 0 0 0 0 0 0 0 0 0 0 0 0 0 0 0 0 0 0 0 0 0 0 0 0 0 0 0 0 0 0 0 0 0 0 0 ",
"0 0 0 0 0 0 0 0 0 0 0 0 0 0 0 0 0 0 0 0 0 0 0 0 0 0 0 0 0 0 0 0 0 0 0   - d.] ' &+5 5 6 9 '.'./ | 5 a k.o o o ].B ~ [.T. +^+P.{+8+)+'+)+'+;+,+,+,+,+,+J.J.J.J.J.J.w.p.u.u.u.p.p.w.w.p.w.w.w.,+,+'+'+'+,+,+,+,+,+,+,+'+'+,+,+;+J.;+J.J.w.J.;+;+J.w.J.J.,+)+^+^ c o j.o 0 | e.@+@+@+=+=+@+=+=+@+@+@+@+@+*+*+e.e.e.e.^ &+/ / / 9 t t 8 d e ( 1 1 1 ^ ^ / / / / / / / / / / / 9 9 9 / / / / ) i 1 A ! [.U.M.P.)+)+)+'+'+'+h+x+y+w+u+u+v+o+o+o+v+w+w+w+u+x+r+n+y+n+n+m+m+!+0.0.0.0.0.D D 0.D D D 0.0.0.D 0.D 0.0.#+$+%+$+$+Y.|+)+u.w.u.C.u.u.p.p.p.C.u.p.p.J.J.;+;+,+;+;+J.;+;+w.J.;+,+;+,+'+'+)+)+)+{+{+{+8+8+8+]+]+]+b+^+^+^+M.M. + + +U. +U.U.T.T.T.[.[.++3 3 3 3 0.N b 2 2 k : t J f d w T  .:.Z &.%.&.Z &.%.&.8.X &.&.Q Q W ..V ..Q %.Z X Y Q V Q Q Q Q G G ..T S G H F H v q q q v S v w d 7 7 6 (.d _.0 9 9 i 1         7 d 0 0 0 0 0 0 0 0 0 0 0 0 0 0 0 0 0 0 0 0 0 0 0 0 0 0 0 0 0 0 0 0 0 0 0 0 0 0 0 0 0 0 0 0 0 0 0 0 0 0 0 0 0 0 0 0 0 0 0 0 0 0 0 0 0 0 0 0 0 0 0 0 0 0 0 0 0 0 0 0 0 0 0 0 0 0 0 0 0 0 0 0 0 0 0 0 0 0 0 0 0 0 0 0 0 0 0 0 0 0 0 0 0 ",
"0 0 0 0 0 0 0 0 0 0 0 0 0 0 0 0 0 0 0 0 0 0 0 0 0 0 0 0 0 0 0 0 0 0 7     ! { 0.*+e.5 !.'.'.5 9 ^ | n c a a o b.` g [.[.U.M.^+8+8+{+'+)+)+,+,+,+,+,+,+;+;+J.J.J.;+J.J.p.w.p.u.p.p.w.w.u.p.p.J.;+'+{+{+)+'+)+)+)+'+,+'+'+,+,+,+,+,+;+J.;+J.J.,+;+;+;+;+;+'+8+U.5 a o D+o k.5 / *+@+@+@+@+@+@+@+@+*+*+@+*+e.e.e.e.e.^ &+&+/ / / } } t p T e ] ( 1 1 ^ ^ ) ) './ '.'./ / '.'./ / / './ ) ^ i ] ' ++N. +V.P.{+)+'+'+,+'+]+w+w+y+w+u+v+s+u+o+u+u+u+u+y+y+u+p+y+y+n+n+n+m+&+0.0.0.0.0.D D 0.D D D 0.0.D D D D ! ! ! $+$+%+Y.Y.[+J.p.p.p.u.u.u.p.u.u.u.p.p.w.J.;+;+;+;+;+w.w.J.J.J.J.J.;+,+'+'+'+)+)+)+)+{+8+8+8+8+]+b+]+b+b+^+^+M.M.:+:+ + + +U.U.T.T.[.< < - 3 3 3 3 0.D b b 2 k j t r f q H ..:.^.X &.%.&.8.Z V V &.%.V &.W ......V V ..X <.X Y ....V G Q G Q G G G G I I w p p q q q v v v p e m 7 -.d q -.6 1 }               0 0 0 0 0 0 0 0 0 0 0 0 0 0 0 0 0 0 0 0 0 0 0 0 0 0 0 0 0 0 0 0 0 0 0 0 0 0 0 0 0 0 0 0 0 0 0 0 0 0 0 0 0 0 0 0 0 0 0 0 0 0 0 0 0 0 0 0 0 0 0 0 0 0 0 0 0 0 0 0 0 0 0 0 0 0 0 0 0 0 0 0 0 0 0 0 0 0 0 0 0 0 0 0 0 0 0 0 0 0 0 0 0 0 ",
"0 0 0 0 0 0 0 0 0 0 0 0 0 0 0 0 0 0 0 0 0 0 0 0 0 0 0 0 0 0 0 0 0 0     0.    3 ' ( / 9 h.1 9 6 i / | 6 k.a _.j.{.F 3 [.T. +M.P.{+{+)+'+,+,+,+'+,+'+'+,+;+;+J.J.J.J.J.J.w.p.u.u.C.u.u.C.u.u.w.;+,+)+{+{+{+)+)+)+'+,+,+'+'+'+'+,+,+,+;+,+'+;+;+,+,+,+,+'+'+{+]+[.f.a o j.}.a n / e.e.*+@+@+@+@+*+@+@+@+*+*+e.e.e.e.e.&+&+/ / '.'.} t w S B+f A ] 1 1 i ^ ^ ^ ^ / ) ) ) / / '.'.'.) ^ i 1 A ! ++U.M.V.{+{+{+)+,+,+,+,+o+y+y+y+u+u+v+o+o+w+u+w+y+w+y+y+y+y+x+q+w+m+q+m+@+0.0.0.0.0.0.0.0.0.D D 0.0.D D 0.! D ! ! %+%+Z.Y.Q.(+p.p.w.p.u.u.u.u.p.w.w.J.p.w.w.J.J.J.J.J.w.w.w.J.;+;+,+,+,+'+,+,+)+)+)+)+{+8+8+8+8+]+b+b+b+b+^+V.^+M.M. + + +U.U.U.T.T.T.< [.- 3 3 0.0.0.D b b 2 k j t r e B S X c.^.&.%.&.&.Z Z &.&.&.V W X V Q ..........&.<.X &.V V Q I Q G Q G I G S H w w q q d q q q q v d ).6 -.6 e k.5 9 '           7 r -.7 0 0 0 0 0 0 0 0 0 0 0 0 0 0 0 0 0 0 0 0 0 0 0 0 0 0 0 0 0 0 0 0 0 0 0 0 0 0 0 0 0 0 0 0 0 0 0 0 0 0 0 0 0 0 0 0 0 0 0 0 0 0 0 0 0 0 0 0 0 0 0 0 0 0 0 0 0 0 0 0 0 0 0 0 0 0 0 0 0 0 0 0 0 0 0 0 0 0 0 0 0 0 0 0 0 0 0 0 0 0 0 0 0 ",
"0 0 0 0 0 0 0 0 0 0 0 0 0 0 0 0 0 0 0 0 0 0 0 0 0 0 0 0 0 0 0 0 0 0 7   : 8     - 0.e.i   _ ) n | 1 ^ 9 6 k.a o b.].k < < T.M.^+P.{+{+)+'+'+,+'+,+)+)+)+;+,+;+;+w.J.J.J.w.p.p.w.C.C.C.C.q.q.C.w.,+'+{+{+{+{+{+)+)+'+,+,+'+'+'+'+'+'+'+'+)+'+,+'+,+,+,+'+'+{+8+^+! 6 a o j.U a 6 5 / e.e.@+@+@+*+@+@+*+@+*+e.e.e.e.e.^ ^ &+/ ) '.} m H S C+B+e ( ] ( 1 1 i ^ ^ ^ ) ) ) ) ) ) ) ^ ^ 1 ] ' %+[.U.^+]+8+{+)+)+'+'+,+J.|+y+w+y+u+y+v+w+v+v+v+v+w+w+w+w+w+y+y+x+n+m+n+m+i+A 0.0.0.0.0.0.0.0.0.0.0.0.0.0.D 0.0.! ! ! %+%+Z.Y.Q.P.C.u.w.p.u.p.u.p.J.w.;+;+J.J.w.J.J.w.w.J.J.w.J.w.;+,+;+,+'+'+'+'+'+)+)+)+{+8+8+8+]+b+b+b+b+b+b+V.^+M.M. + +U.U.U.T.T.< [.[.[.~ 3 0.0.0.0.D b b 2 k j J s e B G  .c.Z %.<.&.&.%.Z V W &.Q W &.&.Q ......W ..X Z &.&.......Q I T V G G G S H H w q d d z z q d q f 8 -.).7 k.).^ 1         9.    0 0 -.0 0 0 0 0 0 0 0 0 0 0 0 0 0 0 0 0 0 0 0 0 0 0 0 0 0 0 0 0 0 0 0 0 0 0 0 0 0 0 0 0 0 0 0 0 0 0 0 0 0 0 0 0 0 0 0 0 0 0 0 0 0 0 0 0 0 0 0 0 0 0 0 0 0 0 0 0 0 0 0 0 0 0 0 0 0 0 0 0 0 0 0 0 0 0 0 0 0 0 0 0 0 0 0 0 0 0 0 0 0 0 0 0 ",
"0 0 0 0 0 0 0 0 0 0 0 0 0 0 0 0 0 0 0 0 0 0 0 0 0 0 0 0 0 0 0 0 0 0 -.  6 8     = - =+1       / 5 [ ] i 9 -.a o j.b.H 3 < T.U.M.V.P.{+)+'+{+'+'+,+)+{+)+,+;+J.;+J.w.w.J.w.u.p.p.u.C.q.q.z.z.C.p.;+'+{+8+8+]+]+{+{+)+'+'+,+'+{+)+)+{+)+)+'+'+)+)+)+'+'+'+)+{+]+^+ +1 6 c o j.B+o 0 5 / &+e.e.e.@+*+*+@+@+@+1 e.e.e.e.e.^ ^ ^ ) ) ) d S S S B++.v _ A ( 1 1 _ ^ ^ ^ ^ ^ ) ^ ) ^ i 1 A ! ++T. +^+]+8+{+)+'+'+,+,+,+b+w+w+y+u+w+o+v+v+s+u+u+y+u+y+w+y+y+y+x+w+r+n+n+m+f.D 0.0.0.0.0.0.0.0.D 0.0.0.0.0.0.D ! ! %+%+%+%+Y.Y.|+,+u.p.w.w.u.u.u.u.w.p.J.;+J.;+w.J.w.w.w.w.J.J.;+J.;+,+,+,+'+,+'+)+'+)+)+)+{+{+8+8+]+b+b+b+b+b+^+P.^+M. + +U.U.U.U.T.T.T.< [.- ~ 3 3 0.0.D D b b 2 k } J f C E Q <.:.Z %.%.V %.Z Z V W %.Q V &.V ........&.V X %.W X Q ..Q G I G V Q H G H S H v q d e z p d d d ).6 7 !.0 6 9 1         6.G 7 -.0 0 0 0 0 0 0 0 0 0 0 0 0 0 0 0 0 0 0 0 0 0 0 0 0 0 0 0 0 0 0 0 0 0 0 0 0 0 0 0 0 0 0 0 0 0 0 0 0 0 0 0 0 0 0 0 0 0 0 0 0 0 0 0 0 0 0 0 0 0 0 0 0 0 0 0 0 0 0 0 0 0 0 0 0 0 0 0 0 0 0 0 0 0 0 0 0 0 0 0 0 0 0 0 0 0 0 0 0 0 0 0 0 0 0 0 ",
"0 0 0 0 0 0 0 0 0 0 0 0 0 0 0 0 0 0 0 0 0 0 0 0 0 0 0 0 0 0 0 0 0 0 6 7 0 0 s       .+]       1 9 '.] A 1 '.6 _._.}.{.u T.< T. +^+P.8+{+)+)+'+'+)+)+)+)+'+J.J.J.w.w.p.w.;+p.p.u.C.u.C.C.C.z.q.u.w.;+)+8+]+]+b+]+8+8+{+)+)+{+8+8+8+8+8+{+{+{+{+{+{+{+8+8+]+]+b+^+ +[./ 6 d o j.+.H d ).| / e.e.1 e.e.*+@+*+1 e.e.e.e.i ^ ^ ^ ) ^ t v H w H S B++.H _ A ( 1 1 _ [ ^ ^ ^ ^ ^ ^ 1 ( ' ! [.U. +V.P.8+{+{+)+,+,+;+;+{+v+w+x+w+w+o+u+v+o+o+o+v+v+y+y+v+x+y+y+y+n+r+q+q+l+>+0.0.0.0.0.0.0.D D D 0.0.0.D 0.0.0.! 0.! %+%+%+Z.Q.:+;+p.u.p.p.p.w.p.u.p.p.J.,+J.w.J.J.w.;+w.J.J.J.J.J.;+,+)+'+'+'+)+'+'+)+)+{+{+8+8+]+]+]+b+b+b+^+^+^+^+^+ + +U.U.L.T.N.< [.< [.- ~ 3 3 0.D D b b 2 2 k t r f z w ..:.c.Z %.%.&.X Z X V V V Q V &.V V G ..Q X V X Z Q X ..Q ..G I ....G S ..w H H v q e e p p d q f 8 6 !.n 0 9 1 A     t 0 q 0 J 0 0 0 0 0 0 0 0 0 0 0 0 0 0 0 0 0 0 0 0 0 0 0 0 0 0 0 0 0 0 0 0 0 0 0 0 0 0 0 0 0 0 0 0 0 0 0 0 0 0 0 0 0 0 0 0 0 0 0 0 0 0 0 0 0 0 0 0 0 0 0 0 0 0 0 0 0 0 0 0 0 0 0 0 0 0 0 0 0 0 0 0 0 0 0 0 0 0 0 0 0 0 0 0 0 0 0 0 0 0 0 0 0 0 0 0 0 ",
"0 0 0 0 0 0 0 0 0 0 0 0 0 0 0 0 0 0 0 0 0 0 0 0 0 0 0 0 0 0 0 0 0 0 0 0 0 0 0       %+A         e.i     { ) | 0 k.k.}.b.N T.T.U.M.^+]+8+{+)+)+'+)+'+'+)+,+;+;+J.p.w.J.J.J.w.p.u.u.C.u.u.u.C.q.z.C.J.,+{+]+b+b+b+]+8+8+8+{+8+8+8+8+]+]+8+8+]+]+]+]+]+]+]+_+_+_+^+ +U.' 8 7 (.p H T C+d 6 9 / ^ ^ e.e.e.1 e.e.e.1 1 e.e.^ ^ ^ ^ ^ e v w w w w S T *.T t ' ( 1 1 1 _ _ _ [ _ 1 ( ' %+[.U.M.^+8+{+8+{+)+'+,+,+J.J.h+w+y+u+y+u+u+v+o+v+o+v+v+u+y+w+x+w+w+n+r+n+n+q+i+m+d.0.0.0.0.0.0.0.0.0.0.0.0.0.0.0.0.! ! ~ %+%+%+Z.Z.Q.]+J.p.u.u.p.u.p.p.w.w.w.w.;+w.w.J.p.p.;+w.w.w.w.J.J.;+;+,+,+'+,+'+)+)+)+)+{+{+8+8+]+]+b+]+b+b+^+_+^+^+^+ + + +U.U.T.T.T.[.[.[.++~ 3 0.0.D D b b 2 2 k t J f q H Y ^.c.8.%.Z &.X %.V V &.V Q V &.V X Q ..Q Y V X X V &.V ..Q I Q Q G Q S H H v w v q d d p d 0 0 ).8 0 !.6 !.^         -.0 0 0 0 0 0 0 0 0 0 0 0 0 0 0 0 0 0 0 0 0 0 0 0 0 0 0 0 0 0 0 0 0 0 0 0 0 0 0 0 0 0 0 0 0 0 0 0 0 0 0 0 0 0 0 0 0 0 0 0 0 0 0 0 0 0 0 0 0 0 0 0 0 0 0 0 0 0 0 0 0 0 0 0 0 0 0 0 0 0 0 0 0 0 0 0 0 0 0 0 0 0 0 0 0 0 0 0 0 0 0 0 0 0 0 0 0 0 0 0 0 ",
"0 0 0 0 0 0 0 0 0 0 0 0 0 0 0 0 0 0 0 0 0 0 0 0 0 0 0 0 0 0 0 0 0 0 0 0 0 0 0       ++'   f     ] )         [ !.6 6 k.}.C < [.T.U.M.^+]+8+{+{+)+{+)+)+'+'+'+,+J.J.w.w.w.J.J.J.w.p.u.u.p.u.q.C.C.C.w.,+)+8+_+(+(+_+b+b+b+]+8+]+]+]+b+]+]+]+]+b+b+b+b+_+_+(+:+(+:+U.N.[.) 8 7 0 q w B+T p 6 5 | / ^ i e.e.1 e.e.1 1 e.i ^ i ^ i m d p v v v w C+B++.].Y r A ( ( 1 _ _ _ 1 1 ] ' ! [.U.M.P.8+{+{+8+)+'+'+;+;+w.[+y+x+y+y+w+v+v+v+o+o+u+u+u+w+u+w+w+w+r+y+n+w+p+r+r+!+! 0.0.0.D 0.0.0.0.0.! 0.3 0.0.0.0.0.! %+%+%+%+Z.Q.|+,+u.p.p.p.p.w.p.p.w.J.w.w.J.J.w.p.p.p.w.J.;+J.J.J.J.;+,+,+,+'+'+'+'+)+)+{+)+{+8+]+b+b+b+b+b+_+^+^+^+^+^+M. + + +U.T.T.T.[.[.[.- ~ 3 0.0.D b b 2 2 2 j t r e B S Z c.:.Z %.Z %.&.X &.W &.Q Q &.&.V &...Q Q &.V V X V V &...Q F G Q S S S S w p w v q e e p e 7 ).8 -.-.5 5 /       J   0 0 0 0 0 0 0 0 0 0 0 0 0 0 0 0 0 0 0 0 0 0 0 0 0 0 0 0 0 0 0 0 0 0 0 0 0 0 0 0 0 0 0 0 0 0 0 0 0 0 0 0 0 0 0 0 0 0 0 0 0 0 0 0 0 0 0 0 0 0 0 0 0 0 0 0 0 0 0 0 0 0 0 0 0 0 0 0 0 0 0 0 0 0 0 0 0 0 0 0 0 0 0 0 0 0 0 0 0 0 0 0 0 0 0 0 0 0 0 0 0 0 ",
"0 0 0 0 0 0 0 0 0 0 0 0 0 0 0 0 0 0 0 0 0 0 0 0 0 0 0 0 0 0 0 0 0 0 0 0 0 0 0 j t   < <   0       (   8       9 h.n 6 k.}.k T.[.T.U.M.^+b+8+8+8+)+{+8+)+'+,+'+,+;+;+w.p.p.w.J.J.w.J.w.u.u.C.q.q.C.p.,+)+]+(+L.L.:+(+M.^+b+^+b+_+b+]+b+b+b+_+_+_+_+_+(+(+:+L.L.N.N.W.[.A } t 7 f q v S T v f 8 } ) ^ ^ i e.e.e.e.i e.i i i i } k._.q q d q p }.U +.*.].` C ( 1 _ _ _ _ ( ( ' 0.[.U.M.V.P.)+{+{+{+)+'+'+;+J.(+y+y+u+x+w+v+v+v+u+o+u+o+v+w+u+o+w+y+n+y+n+w+n+n+m+m+>+0.0.0.0.0.0.0.0.0.0.0.! 0.! 3 0.0.! %+%+%+%+Z.Z.Q.:+w.u.w.p.w.p.w.p.p.p.w.w.J.J.w.w.p.w.w.w.J.;+,+;+;+J.J.;+,+'+'+)+)+)+)+)+{+{+8+8+]+b+]+b+b+b+^+^+(+^+^+M. + + +U.U.T.[.[.< [.- - ~ 3 0.D b b b 2 2 k j J r e v T <.:.<.X 8.%.Z X %.V &.&.Q W %.V V V ....&.V X V &.V V W V V F G G T S H S w p v v d f e v f m 8 -.(.6 9 /       0 7 8 0 0 0 0 0 0 0 0 0 0 0 0 0 0 0 0 0 0 0 0 0 0 0 0 0 0 0 0 0 0 0 0 0 0 0 0 0 0 0 0 0 0 0 0 0 0 0 0 0 0 0 0 0 0 0 0 0 0 0 0 0 0 0 0 0 0 0 0 0 0 0 0 0 0 0 0 0 0 0 0 0 0 0 0 0 0 0 0 0 0 0 0 0 0 0 0 0 0 0 0 0 0 0 0 0 0 0 0 0 0 0 0 0 0 0 0 0 0 0 0 0 0 ",
"0 0 0 0 0 0 0 0 0 0 0 0 0 0 0 0 0 0 0 0 0 0 0 0 0 0 0 0 0 0 0 0 0 0 0 0 0 0 0 7 7     -   0 0     ! t p   0           -.k.~.3 [.[.T.U.M.^+]+]+{+{+{+8+)+)+,+'+'+,+;+J.p.u.p.p.w.,+,+;+w.u.C.C.q.C.w.;+,+{+(+N.Q.W.L. + +M.^+_+_+_+_+_+_+_+^+_+(+(+:+:+L.L.|+|+W.Q.Z.++' ^ } t 7 f d p H T w e m } ) ^ _ i e.1 i i i 1 i [ ^ h.(.~.q d d q q o j.B++.*.` ;.B ( ( 1 1 ( ( D %+[.T.M.^+P.{+)+)+{+{+)+,+,+J.]+w+x+y+y+y+u+u+o+u+v+v+v+o+w+w+w+u+w+x+w+w+y+n+n+r+n+m+A 0.! 0.0.0.0.0.0.0.0.0.! 0.0.%+0.! %+%+%+%+%+Z.Q.Q.]+w.w.w.w.J.p.w.w.p.p.w.w.w.w.p.w.w.w.J.J.,+;+;+;+,+,+;+J.,+'+)+'+{+)+{+{+{+{+8+8+]+]+]+]+b+b+^+^+M.M.M. + + +U. +U.N.[.[.[.[.~ ~ 3 3 0.D b b b 2 2 : j J s C w ..c.9+8.<.g.%.8.&.%.%.&.@.Q %.&.V &.V V Q X ..X V &.W &.Q ..V F G G S T w H w p q p q f q p -.8 ).k.0 h.| i t t 7 0 0 0 0 0 0 0 0 0 0 0 0 0 0 0 0 0 0 0 0 0 0 0 0 0 0 0 0 0 0 0 0 0 0 0 0 0 0 0 0 0 0 0 0 0 0 0 0 0 0 0 0 0 0 0 0 0 0 0 0 0 0 0 0 0 0 0 0 0 0 0 0 0 0 0 0 0 0 0 0 0 0 0 0 0 0 0 0 0 0 0 0 0 0 0 0 0 0 0 0 0 0 0 0 0 0 0 0 0 0 0 0 0 0 0 0 0 0 0 0 0 0 0 0 0 ",
"0 0 0 0 0 0 0 0 0 0 0 0 0 0 0 0 0 0 0 0 0 0 0 0 0 0 0 0 0 0 0 0 0 0 0 0 0 0 0 f 0         0 0 t     ( 0 t 0 v           -._.} = < [.T.U.M.^+]+8+{+8+8+{+)+'+'+'+'+'+,+J.w.p.p.u.w.w.J.;+w.w.w.p.p.w.;+,+{+]+L.S.S.Y.W.U.:+:+ + +(+ + + + + +(+:+L.L.L.N.W.Q.Q.Y.Z.$+#+' ^ ) } 8 m f e q w S w e r } : _ _ _ _ 1 _ 1 1 _ (       ).-.k.~.e q ~.w D++.*.Y ].].B b b b b D 0.++T. +M.V.8+{+{+)+)+{+'+,+J.o.u+n+y+y+w+v+w+v+v+s+o+u+v+u+u+v+y+u+y+w+y+y+u+y+w+n+m+!+! 3 0.0.0.0.0.0.0.0.0.! 0.3 3 ! %+0.! Z.%+%+Z.Y.Q.|+'+w.u.p.J.w.w.J.w.w.w.w.p.w.w.w.J.J.J.J.;+,+;+J.,+,+,+;+J.,+)+)+)+{+{+{+{+{+{+8+8+8+]+]+b+_+_+^+^+M.M.M. +U.U.U. +U.T.[.[.[.[.++3 3 0.0.D D b 2 2 k : t r f q w Y :.c.<.<.<.<.<.%.7.%.&.G W %.&.&.&.X W V X V &.X %.W &.Q Q Q Q G ..G T H H S q q z d d q p 0 h.0 k.5 / i f 0 6 6 0 0 0 0 0 0 0 0 0 0 0 0 0 0 0 0 0 0 0 0 0 0 0 0 0 0 0 0 0 0 0 0 0 0 0 0 0 0 0 0 0 0 0 0 0 0 0 0 0 0 0 0 0 0 0 0 0 0 0 0 0 0 0 0 0 0 0 0 0 0 0 0 0 0 0 0 0 0 0 0 0 0 0 0 0 0 0 0 0 0 0 0 0 0 0 0 0 0 0 0 0 0 0 0 0 0 0 0 0 0 0 0 0 0 0 0 0 0 0 0 0 0 0 0 0 ",
"0 0 0 0 0 0 0 0 0 0 0 0 0 0 0 0 0 0 0 0 0 0 0 0 0 0 0 0 0 0 0 0 0 0 0 0 0 0 0 0 0       t 0 0 8       e 0 0 q             -.  D < [.[.T.U.M.^+^+8+8+8+{+)+)+)+'+'+'+,+;+;+w.w.p.p.J.J.w.J.;+J.;+J.J.;+,+)+8+_+W.=+.+S.Z.W.N.L.L.L.L.L.U.L.L.L.L.N.W.W.Q.Q.Y.S.$+#+#+d.d.e.^ : } 8 8 7 e d v v 0 7 j k 2 2 _ 1 1 1 2 ( 8 z         n -.0 -.0 d o C+U +.*.].Y ` y D D D 0.3 [.U.M.^+P.{+)+)+)+'+)+'+,+'+o+n+y+w+w+u+u+v+v+u+u+u+u+v+w+u+w+v+u+w+w+x+w+y+n+n+m+r+&+%+0.! 0.0.0.0.' D ! 0.! 0.3 3 0.3 3 %+%+%+%+Z.Z.Q.(+;+J.w.p.J.J.J.J.J.w.J.;+J.J.J.w.w.w.J.J.;+;+;+J.J.,+,+J.;+,+)+)+)+{+{+{+{+8+8+]+]+]+b+b+b+_+_+^+^+M.M.M.M. +U.U.U.T.T.[.[.[.++++~ 3 0.0.D b ( 2 2 : } t r f z S Z c.:.<.Z Z 8.l.8.l.7.&.W V %.V X V Z &.V &...W &.&.V &.Q Q W G G @.G T S v B+q p q e e p p 7 6 -.n 9 1 _ v 0 d 0 0 0 0 0 0 0 0 0 0 0 0 0 0 0 0 0 0 0 0 0 0 0 0 0 0 0 0 0 0 0 0 0 0 0 0 0 0 0 0 0 0 0 0 0 0 0 0 0 0 0 0 0 0 0 0 0 0 0 0 0 0 0 0 0 0 0 0 0 0 0 0 0 0 0 0 0 0 0 0 0 0 0 0 0 0 0 0 0 0 0 0 0 0 0 0 0 0 0 0 0 0 0 0 0 0 0 0 0 0 0 0 0 0 0 0 0 0 0 0 0 0 0 0 0 0 ",
"0 0 0 0 0 0 0 0 0 0 0 0 0 0 0 0 0 0 0 0 0 0 0 0 0 0 0 0 0 0 0 0 0 0 0 0 0 0 0 0 0 t   k 7 0 0 0 7   t e q 0 0 0 d v (.          3 T.[.[.T. +M.^+]+8+]+8+{+{+)+'+'+'+,+;+;+,+;+;+J.J.;+J.;+;+,+,+'+'+'+)+'+{+b+ +.+=+.+.+#+%+Z.W.W.N.N.W.W.W.Q.W.Q.Q.Z.Y.S.#+.+.+d..+@+@+1 i ^ : } 8 8 7 f d p (.0 -.).l 2 b 2 A _ } -.0 0         ).9 n 6 -.q p v C+B++.*.].].` 2 0.0.3 ++T.U.M.^+P.{+)+)+{+)+)+'+'+=+n+x+y+y+w+u+u+o+u+o+u+w+o+w+u+y+y+u+x+w+x+x+y+n+r+n+r+m+d.%+! ! 0.0.0.0.' D 0.0.0.0.0.%+%+~ %+%+%+Z.++++Q.Q.P.w.J.w.p.w.J.J.;+J.w.J.J.J.;+J.;+J.J.J.;+;+J.J.;+;+,+,+;+;+,+)+)+)+{+{+8+8+8+8+]+b+]+b+b+b+b+b+^+^+(+ + + + +U.U.T.T.W.[.[.[.++~ 3 3 3 D b b 2 2 _ : j J r e p G <.c.:.8.<.<.8.g.g.%.7.7.7.W &.V X V %.V W &.V &.X X ..G I G G I G T ..T S v w p q q e e v p 7 n !.'.1 J q q 0 0 0 0 0 0 0 0 0 0 0 0 0 0 0 0 0 0 0 0 0 0 0 0 0 0 0 0 0 0 0 0 0 0 0 0 0 0 0 0 0 0 0 0 0 0 0 0 0 0 0 0 0 0 0 0 0 0 0 0 0 0 0 0 0 0 0 0 0 0 0 0 0 0 0 0 0 0 0 0 0 0 0 0 0 0 0 0 0 0 0 0 0 0 0 0 0 0 0 0 0 0 0 0 0 0 0 0 0 0 0 0 0 0 0 0 0 0 0 0 0 0 0 0 0 0 0 0 ",
"0 0 0 0 0 0 0 0 0 0 0 0 0 0 0 0 0 0 0 0 0 0 0 0 0 0 0 0 0 0 0 0 0 0 0 0 0 0 0 0 0 7   j f 0 0 7 0 7 j 7 0 0 0 0 q w d q         7 [.[.[.W.N.U.M.^+]+]+8+{+{+)+'+)+)+'+,+;+,+'+,+;+w.J.,+,+,+,+'+)+)+'+{+)+{+]+^+W.>+e.*+.+.+#+#+$+Y.Y.Z.Z.Z.Z.Y.$+$+$+#+.+.+=+.+@+@+@+@+1 e.^ ^ : } t 8 r f e q d 0 0 0 -.6 6 -.0 0 0 0 0 d   -.      6 6 6 -.q ~.o H U T *.+.].y 0.3 3 [.T. +M.V.P.8+{+)+{+)+'+)+>+n+y+w+w+u+u+v+o+v+v+v+u+o+v+v+w+w+u+y+w+y+p+w+w+y+n+n+m+!+! ! ! ! 0.0.! 0.! D ! 0.0.! ! ! ! %+~ %+%+Z.++++W.N.'+p.J.w.w.w.w.w.;+;+;+;+J.J.J.w.;+,+J.;+,+J.w.p.J.J.,+'+'+,+'+)+)+)+8+{+8+8+8+]+]+b+b+b+b+b+b+^+^+M.M.M. + +U.U.U.U.T.N.[.++++~ ~ 3 3 0.D b b 2 _ k : t J s d v T c.9+<.%.l.%.Z Z <.%.%.%.&.V V V X X %.V V X &.%.<.X V Q I G F H H S ..T S w w v p p d e q p 6 5 ) A t W (.0 0 0 0 0 0 0 0 0 0 0 0 0 0 0 0 0 0 0 0 0 0 0 0 0 0 0 0 0 0 0 0 0 0 0 0 0 0 0 0 0 0 0 0 0 0 0 0 0 0 0 0 0 0 0 0 0 0 0 0 0 0 0 0 0 0 0 0 0 0 0 0 0 0 0 0 0 0 0 0 0 0 0 0 0 0 0 0 0 0 0 0 0 0 0 0 0 0 0 0 0 0 0 0 0 0 0 0 0 0 0 0 0 0 0 0 0 0 0 0 0 0 0 0 0 0 0 0 0 ",
"0 0 0 0 0 0 0 0 0 0 0 0 0 0 0 0 0 0 0 0 0 0 0 0 0 0 0 0 0 0 0 0 0 0 0 0 0 0 0 0 0 -.8 d 0 0 0 0 0 0 6 0 0 0 0 0 0 q q 0 d       q } T.[.[.W.N.U.M.^+b+]+8+{+'+)+)+'+{+{+'+,+,+'+'+,+,+,+'+'+)+)+{+{+{+{+8+]+]+^+ +*+!+| &+*+.+.+.+.+.+#+#+#+#+.+.+.+.+.+.+.+.+=+@+@+@+*+1 e.e.^ ) : } t 8 8 r f (.0 0 0 0 0 0 0 0 0 0 0 0 d q d q     t 9 n -.e d p w C+T *.+.+...b 3 - < T. +M.^+P.{+8+{+)+)+)+>+n+y+y+y+u+w+w+u+w+v+s+u+v+v+u+w+w+w+u+v+v+y+y+n+n+q+n+n+n+>+%+! ! ! ! 0.! ! 0.0.0.! 0.0.! %+! %+$+%+%+++++Q.Q.(+;+w.w.w.;+;+w.w.J.,+,+;+J.;+w.w.J.,+;+J.;+;+J.w.J.;+;+;+,+,+)+'+)+{+{+{+{+8+8+]+]+b+b+b+b+]+^+^+_+(+(+ + + + +U.T.T.T.[.[.++++~ 3 0.0.D b b b 2 _ k j t J f z w V 9+g.Z g.<.7.7.8.8.7.l.X &.W Q V %.%.X V &.%.X %.Z <.V &.V I G I I H I S ..w w p p q f p p k.n i ' ( 9.p 0 0 0 0 0 0 0 0 0 0 0 0 0 0 0 0 0 0 0 0 0 0 0 0 0 0 0 0 0 0 0 0 0 0 0 0 0 0 0 0 0 0 0 0 0 0 0 0 0 0 0 0 0 0 0 0 0 0 0 0 0 0 0 0 0 0 0 0 0 0 0 0 0 0 0 0 0 0 0 0 0 0 0 0 0 0 0 0 0 0 0 0 0 0 0 0 0 0 0 0 0 0 0 0 0 0 0 0 0 0 0 0 0 0 0 0 0 0 0 0 0 0 0 0 0 0 0 0 0 0 ",
"0 0 0 0 0 0 0 0 0 0 0 0 0 0 0 0 0 0 0 0 0 0 0 0 0 0 0 0 0 0 0 0 0 0 0 0 0 0 0 0 0 -.8 -.0 0 0 0 0 0 0 0 0 0 0 0 0 p (.0 0 0   d q 0 b < [.[.[.T. +M.^+b+8+{+{+)+)+)+)+{+{+)+'+'+'+)+)+)+)+{+{+{+{+{+]+8+]+]+b+^+^+W.!+f.f.| &+*+.+.+.+.+.+.+.+.+.+.+.+.+.+=+=+@+@+@+@+e.e.e.e.i ^ ) '.} t t 8 r -.d 0 0 0 0 0 0 0 0 0 0 0 v p f p q     8 9 6 ).-.d p w B+T T +.Y j 3 ++< U. +M.^+8+{+{+)+)+{+o+n+y+y+y+y+w+v+o+v+u+o+v+u+v+u+o+y+u+y+y+w+w+w+y+w+y+y+w+n+r+$+%+! %+! ! 0.~ ! ! 0.! %+! ! $+! %+%+%+%+%+++Z.Q.|+P.p.w.p.J.w.J.J.w.;+J.;+;+;+;+J.w.J.;+;+;+;+;+;+;+;+;+J.J.;+)+'+'+'+{+{+{+{+8+8+]+]+]+b+b+_+^+^+^+M.(+:+ + +L. +U.T.T.T.[.++++~ 3 3 0.0.D b b 2 2 k k t 8 r f z H %.9+:.Z :.&.%.l.8.l.l.Z %.&.W Q W 7.<.Z V ..V %.&.X X &...G Q H ..H F S v T w p p p d -.q ~.(.9 D D 5.p 0 0 0 0 0 0 0 0 0 0 0 0 0 0 0 0 0 0 0 0 0 0 0 0 0 0 0 0 0 0 0 0 0 0 0 0 0 0 0 0 0 0 0 0 0 0 0 0 0 0 0 0 0 0 0 0 0 0 0 0 0 0 0 0 0 0 0 0 0 0 0 0 0 0 0 0 0 0 0 0 0 0 0 0 0 0 0 0 0 0 0 0 0 0 0 0 0 0 0 0 0 0 0 0 0 0 0 0 0 0 0 0 0 0 0 0 0 0 0 0 0 0 0 0 0 0 0 0 0 0 0 ",
"0 0 0 0 0 0 0 0 0 0 0 0 0 0 0 0 0 0 0 0 0 0 0 0 0 0 0 0 0 0 0 0 0 0 0 0 0 0 0 0 0 7 0 0 0 0 0 0 0 0 0 0 0 0 0 0 0 0 0 0 0 d q 0 0 0 0 D [.[.[.W.T. +M.^+]+8+{+)+)+)+)+{+8+{+{+{+'+)+{+8+]+{+8+8+8+8+8+b+]+b+]+^+M. +@+f.f.f.5 / e.@+.+.+.+.+.+d..+.+.+.+.+@+@+@+@+@+@+@+1 e.e.i ^ / ) } } t t 8 r -.0 0 0 0 0 0 0 0 0 0 0 v 0 0 0 0 0     t 9 ).-.e q p v S S T +.p 0.++T.U. +M.^+]+8+{+)+P.o+n+x+w+x+y+u+w+u+o+u+o+v+o+v+w+v+w+v+u+w+w+y+x+w+x+x+n+n+n+q+!+%+%+%+! ! 0.0.0.0.! 0.! 0.! ! ! %+%+%+%+%+Z.Z.Z.Q.[+,+p.w.w.J.w.J.;+J.J.w.J.;+;+;+J.J.J.J.J.;+J.;+,+;+;+,+J.;+;+)+{+)+)+)+{+{+{+{+8+]+]+b+b+b+^+_+^+^+M. + + +U.U.U.U.T.T.T.[.[.++++~ 3 0.D D b 2 2 2 k k t 8 7 e p S <.c.:.Z <.^.8.8.l.8.7.l.%.&.W W I 5.8.<.Z X &.X <.Z &.V Q G I H Q G H S H S w v q q (.f d _.-.1     H 0 0 0 0 0 0 0 0 0 0 0 0 0 0 0 0 0 0 0 0 0 0 0 0 0 0 0 0 0 0 0 0 0 0 0 0 0 0 0 0 0 0 0 0 0 0 0 0 0 0 0 0 0 0 0 0 0 0 0 0 0 0 0 0 0 0 0 0 0 0 0 0 0 0 0 0 0 0 0 0 0 0 0 0 0 0 0 0 0 0 0 0 0 0 0 0 0 0 0 0 0 0 0 0 0 0 0 0 0 0 0 0 0 0 0 0 0 0 0 0 0 0 0 0 0 0 0 0 0 0 0 0 ",
"0 0 0 0 0 0 0 0 0 0 0 0 0 0 0 0 0 0 0 0 0 0 0 0 0 0 0 0 0 0 0 0 0 0 0 0 0 0 0 0 0 0 0 0 0 0 0 0 0 0 0 0 0 0 0 0 0 0 0 0 0 0 0 0 0 0 0 -.- [.[.[.W.N. +^+^+8+8+{+)+)+)+)+8+{+{+{+)+{+8+]+b+b+]+]+8+]+b+b+b+]+b+^+(+M.N.| f.c k.0 5 &+*+@+.+.+@+.+=+.+.+@+@+.+@+@+@+*+*+@+1 1 e.i ^ ^ / '.} } t t 8 0 0 0 0 0 0 0 0 0 0 0 0 d 0 0 0 0 H 0     ^ 9 ).6 e d p H S U T *.2 - T.U. +M.^+8+8+)+^+u+n+x+y+y+w+v+u+u+v+v+u+v+u+v+v+v+w+y+u+w+u+y+y+u+x+x+n+q+n+n+r+*+%+%+! ! %+%+! 0.! 0.0.! ! 0.0.! %+$+%+%+%+Z.Z.Z.Q.(+J.w.J.J.;+w.w.J.,+w.J.;+;+;+;+;+;+J.;+;+J.J.;+'+,+,+,+,+,+'+'+)+'+)+{+{+8+8+8+8+]+]+b+b+b+^+^+^+^+M. + + + +U.U.U.T.T.[.[.++++~ 3 3 0.D b b ( 2 _ : j t r f d v ..9+c.<.8.g.:.8.5.g.8.%.%.Z &.W Q Q W 7.Z Z X &.&.V ..Q V V Q I F G H H H H H v q v d 6 f d (.n 1   7 d 0 0 0 0 0 0 0 0 0 0 0 0 0 0 0 0 0 0 0 0 0 0 0 0 0 0 0 0 0 0 0 0 0 0 0 0 0 0 0 0 0 0 0 0 0 0 0 0 0 0 0 0 0 0 0 0 0 0 0 0 0 0 0 0 0 0 0 0 0 0 0 0 0 0 0 0 0 0 0 0 0 0 0 0 0 0 0 0 0 0 0 0 0 0 0 0 0 0 0 0 0 0 0 0 0 0 0 0 0 0 0 0 0 0 0 0 0 0 0 0 0 0 0 0 0 0 0 0 0 0 0 0 ",
"0 0 0 0 0 0 0 0 0 0 0 0 0 0 0 0 0 0 0 0 0 0 0 0 0 0 0 0 0 0 0 0 0 0 0 0 0 0 0 0 0 0 0 0 0 0 0 0 0 0 0 0 0 0 0 0 0 0 0 0 0 0 0 0 0 0 0 0 6 - [.W.W.W.T. +^+b+]+{+{+{+{+)+8+8+8+8+{+{+8+b+b+b+b+b+b+b+_+_+_+_+_+M.M.M. +] 5 f.c o ~.6 / e.@+d..+.+.+.+.+@+@+@+@+@+*+*+@+*+e.e.e.i i ^ ) ^ : } } t t -.0 0 0 0 0 0 0 0 0 0 0 0 0 0 0 0 0 0 0     '.5 n 6 e d v H S S +.J - T.U. +M.^+8+{+[+w+x+y+w+y+w+v+w+u+u+v+o+o+v+o+v+u+v+u+v+y+x+w+w+u+w+y+y+n+n+n+r+i+$+%+%+%+%+! ! ! ! 0.! ! ! ! 0.! ! %+%+$+%+Z.Z.Z.Q.Q.]+w.J.J.w.w.J.J.J.,+J.J.;+J.;+,+,+,+,+;+J.J.;+,+)+'+,+,+'+,+)+)+{+{+{+{+8+8+8+8+8+]+b+b+_+_+^+^+^+V.M. + + + +U.T.T.T.[.[.[.++~ 3 3 0.D D b ( 2 2 _ : t 8 r f q w Y c.c.^.Z 8.<.l.l.g.<.8.%.Z %.%.W W X &.%.X X &.V V V &...Q Q ..H w I v w S T w p q e 7 f d 0 9     0 0 0 0 0 0 0 0 0 0 0 0 0 0 0 0 0 0 0 0 0 0 0 0 0 0 0 0 0 0 0 0 0 0 0 0 0 0 0 0 0 0 0 0 0 0 0 0 0 0 0 0 0 0 0 0 0 0 0 0 0 0 0 0 0 0 0 0 0 0 0 0 0 0 0 0 0 0 0 0 0 0 0 0 0 0 0 0 0 0 0 0 0 0 0 0 0 0 0 0 0 0 0 0 0 0 0 0 0 0 0 0 0 0 0 0 0 0 0 0 0 0 0 0 0 0 0 0 0 0 0 0 0 0 ",
"0 0 0 0 0 0 0 0 0 0 0 0 0 0 0 0 0 0 0 0 0 0 0 0 0 0 0 0 0 0 0 0 0 0 0 0 0 0 0 0 0 0 0 0 0 0 0 0 0 0 0 0 0 0 0 0 0 0 0 0 0 0 0 0 0 0 0 0 0 8 - [.[.[.W.N. +^+]+{+)+)+)+)+'+]+]+8+8+8+]+b+b+_+_+_+(+(+(+_+_+(+M.M.M.M.M.N.&+5 f.c o D+q 5 ^ @+@+@+@+@+@+@+@+@+@+*+@+@+@+@+e.e.e.e.1 ^ ^ ^ : } } } 8 0 0 0 0 0 0 0 0 0 0 0 0 0 0 0 0 0 0 0 0 f     ) 9 6 6 e q v S H T S 0.T.U. +M.^+8+S.n+n+x+y+y+y+u+w+w+u+v+v+o+v+s+u+u+v+u+v+u+w+u+x+y+x+x+y+y+r+n+q+n+>+Z.%+%+%+%+! ! ! ! $+! ! 0.! ! $+%+$+%+%+%+%+Z.Q.Q.[+)+w.p.J.w.J.J.;+;+,+;+;+J.;+;+,+,+,+,+;+w.J.;+,+,+)+'+'+)+)+{+{+{+{+{+{+{+8+]+8+8+]+]+b+b+_+^+^+M.M. +:+U. +U.U.T.T.T.[.[.++++~ ~ 3 0.D b b ( 2 2 k : t J 7 e p S Z 9+c.g.8.<.<.<.g.Z Z 8.&.Z Z &.W W V X %.V X X &.W ......Y Q G I H H w w F *.w p v e 7 7 6 !.'.  -.0 0 0 0 0 0 0 0 0 0 0 0 0 0 0 0 0 0 0 0 0 0 0 0 0 0 0 0 0 0 0 0 0 0 0 0 0 0 0 0 0 0 0 0 0 0 0 0 0 0 0 0 0 0 0 0 0 0 0 0 0 0 0 0 0 0 0 0 0 0 0 0 0 0 0 0 0 0 0 0 0 0 0 0 0 0 0 0 0 0 0 0 0 0 0 0 0 0 0 0 0 0 0 0 0 0 0 0 0 0 0 0 0 0 0 0 0 0 0 0 0 0 0 0 0 0 0 0 0 0 0 0 0 0 ",
"0 0 0 0 0 0 0 0 0 0 0 0 0 0 0 0 0 0 0 0 0 0 0 0 0 0 0 0 0 0 0 0 0 0 0 0 0 0 0 0 0 0 0 0 0 0 0 0 0 0 0 0 0 0 0 0 0 0 0 0 0 0 0 0 0 0 0 0 0 0 8 - [.[.[.W.N.:+^+8+)+)+)+'+)+)+8+8+]+]+b+b+b+_+(+(+:+(+:+(+:+(+ + + + + + +A / 5 -.c o B+w 6 } i @+@+@+@+@+@+@+@+@+@+@+@+1 1 1 1 1 i 1 ^ ^ ^ ) } } 8 0 0 0 0 0 0 0 0 0 0 0 0 0 0 0 0 0 0 0 0 0 e     [ 5 h.-.d q w w H +.k = U.U.M.^+>+y+n+x+y+w+y+u+v+u+v+o+v+u+v+v+v+v+v+w+x+u+v+u+y+x+u+y+x+n+n+n+r+r+r+S.Y.%+%+%+%+%+! $+#+! ! ! ! ! ! $+! %+%+%+$+%+Z.Q.Q.(+,+J.p.J.J.w.J.,+;+,+;+,+'+;+;+;+;+,+;+;+J.;+'+;+,+'+'+'+)+{+8+{+{+{+8+{+8+8+]+]+]+8+]+_+_+(+_+^+^+M. + +L.U.L.T.N.N.T.[.++++~ 3 %+0.D D b b ( 2 _ k j t r f d v T c.9+9+<.c.c.:.8.Z <.%.Z &.%.Z &.V W &.&.V &.V V V V V ..T ..G G ..G S H H H T w q d e f 0 m 9 ^   q (.0 0 0 0 0 0 0 0 0 0 0 0 0 0 0 0 0 0 0 0 0 0 0 0 0 0 0 0 0 0 0 0 0 0 0 0 0 0 0 0 0 0 0 0 0 0 0 0 0 0 0 0 0 0 0 0 0 0 0 0 0 0 0 0 0 0 0 0 0 0 0 0 0 0 0 0 0 0 0 0 0 0 0 0 0 0 0 0 0 0 0 0 0 0 0 0 0 0 0 0 0 0 0 0 0 0 0 0 0 0 0 0 0 0 0 0 0 0 0 0 0 0 0 0 0 0 0 0 0 0 0 0 0 ",
"0 0 0 0 0 0 0 0 0 0 0 0 0 0 0 0 0 0 0 0 0 0 0 0 0 0 0 0 0 0 0 0 0 0 0 0 0 0 0 0 0 0 0 0 0 0 0 0 0 0 0 0 0 0 0 0 0 0 0 0 0 0 0 0 0 0 0 0 0 0 0 J - [.[.[.W.N. +^+8+)+{+'+'+{+{+8+]+b+b+_+(+(+:+[+:+:+L.:+:+:+:+U. + +U.U.W.e./ 5 6 k.o B+G d m ) i 1 1 @+@+@+@+@+@+@+1 1 1 1 1 1 i i ^ [ ) ) } } 6 0 0 0 0 0 0 0 0 0 0 0 0 0 0 0 0 0 0 0 0 0 d w d   ) } m f p p v w T z < U.M.[+u+n+y+y+u+y+y+u+w+u+v+o+v+u+v+v+u+o+o+u+w+u+w+y+y+x+u+w+n+y+w+w+n+r+r+!+Q.Z.Z.%+%+%+%+! ! %+! 0.$+%+! ! ! $+%+%+%+%+Z.Z.Q.W.8+J.;+J.J.;+w.;+,+;+,+;+,+'+,+,+,+J.;+;+,+,+,+'+,+,+,+,+'+)+)+{+{+{+{+8+{+8+8+]+]+]+]+b+b+_+(+_+M.M. + +U.L.L.L.U.N.N.[.[.[.++~ 3 0.0.D D b b 2 2 _ k j 8 r f q w ..c.c.g.8.g.g.<.8.Z %.Z X X V X <.&.W V &.X V &.X W ..X ..G S G H E G H w w v G H q f f 7 6 m '.i   d 0 0 0 0 0 0 0 0 0 0 0 0 0 0 0 0 0 0 0 0 0 0 0 0 0 0 0 0 0 0 0 0 0 0 0 0 0 0 0 0 0 0 0 0 0 0 0 0 0 0 0 0 0 0 0 0 0 0 0 0 0 0 0 0 0 0 0 0 0 0 0 0 0 0 0 0 0 0 0 0 0 0 0 0 0 0 0 0 0 0 0 0 0 0 0 0 0 0 0 0 0 0 0 0 0 0 0 0 0 0 0 0 0 0 0 0 0 0 0 0 0 0 0 0 0 0 0 0 0 0 0 0 0 0 ",
"0 0 0 0 0 0 0 0 0 0 0 0 0 0 0 0 0 0 0 0 0 0 0 0 0 0 0 0 0 0 0 0 0 0 0 0 0 0 0 0 0 0 0 0 0 0 0 0 0 0 0 0 0 0 0 0 0 0 0 0 0 0 0 0 0 0 0 0 0 0 0 0 : - [.[.W.W.N.U.^+]+8+{+)+{+8+]+]+b+(+:+:+:+L.:+L.L.L.L.L.L.L.L.:+L.U.U.U.d.i '.9 n 0 _.w G v 6 } ^ _ 1 ] 1 @+@+@+1 @+1 1 1 1 1 1 ^ _ _ ^ : } t 0 0 0 0 0 0 0 0 0 0 0 0 0 0 0 0 0 0 0 0 0 0 0 d S     } 9 n (.p v v U *.0.,.=+n+n+y+y+y+y+y+u+v+w+v+o+u+v+v+u+u+u+u+v+u+v+o+u+y+w+y+y+x+y+n+r+n+n+q+q+|+|+Z.Z.Z.%+%+%+%+! %+! ! ! ! %+%+! %+%+%+%+%+Y.Z.Q.:+,+w.J.J.;+'+;+;+;+;+J.;+J.,+'+,+'+,+;+,+;+,+)+)+'+,+;+,+'+)+{+{+{+{+8+]+{+]+]+]+b+b+]+^+^+_+_+M.M.M. + +U.L.L.T.T.N.[.[.[.++%+~ %+0.D D D b b 2 2 k : t 8 r e p H X c.:.:.:.g.c.8.<.<.%.X V &.&...V <.V Q &.V &...X V Q ..Y ..B+..T S E H q w w p w e d f 6 6 !.'.(   d 0 0 0 0 0 0 0 0 0 0 0 0 0 0 0 0 0 0 0 0 0 0 0 0 0 0 0 0 0 0 0 0 0 0 0 0 0 0 0 0 0 0 0 0 0 0 0 0 0 0 0 0 0 0 0 0 0 0 0 0 0 0 0 0 0 0 0 0 0 0 0 0 0 0 0 0 0 0 0 0 0 0 0 0 0 0 0 0 0 0 0 0 0 0 0 0 0 0 0 0 0 0 0 0 0 0 0 0 0 0 0 0 0 0 0 0 0 0 0 0 0 0 0 0 0 0 0 0 0 0 0 0 0 0 ",
"0 0 0 0 0 0 0 0 0 0 0 0 0 0 0 0 0 0 0 0 0 0 0 0 0 0 0 0 0 0 0 0 0 0 0 0 0 0 0 0 0 0 0 0 0 0 0 0 0 0 0 0 0 0 0 0 0 0 0 0 0 0 0 0 0 0 0 0 0 0 0 0 0 : ++[.W.++W.N.:+^+]+8+8+{+]+b+b+_+(+:+:+L.L.L.L.L.N.N.N.L.L.|+L.L.L.L.U.[.1 i ) } m 6 d v H H e 8 : i 1 ( ( ( 1 @+1 1 1 1 1 1 1 i ^ ^ : ) : 6 0 0 0 0 0 0 0 0 0 0 0 0 0 0 0 0 0 0 0 0 0 0 0 0 d -.  t   [ ).q p v H *.f.u+n+x+y+y+y+w+y+u+u+w+u+u+o+o+o+u+v+v+u+v+y+w+w+w+w+u+x+w+w+x+w+n+y+n+n+w+>+)+:+Q.Z.Z.Z.%+%+! $+$+! ! %+! %+%+$+%+%+%+%+Y.Y.Q.Q._+J.p.J.J.;+,+;+,+J.;+;+,+;+,+,+,+'+,+;+;+;+'+)+)+'+)+,+'+'+)+8+{+8+]+]+]+8+8+]+]+b+b+b+^+^+M.M.M.M. + + +U.L.N.N.N.W.++[.[.++~ 3 3 D D D b b ( 2 2 k } t r f d p S :.c.:.:.:.c.:.g.Z c.%.X W V &.&.Q &.:.W X V W W W &.Q G ..S G S ..G T G v p v q p f e f ).!.h.^ {   Q d 0 0 0 0 0 0 0 0 0 0 0 0 0 0 0 0 0 0 0 0 0 0 0 0 0 0 0 0 0 0 0 0 0 0 0 0 0 0 0 0 0 0 0 0 0 0 0 0 0 0 0 0 0 0 0 0 0 0 0 0 0 0 0 0 0 0 0 0 0 0 0 0 0 0 0 0 0 0 0 0 0 0 0 0 0 0 0 0 0 0 0 0 0 0 0 0 0 0 0 0 0 0 0 0 0 0 0 0 0 0 0 0 0 0 0 0 0 0 0 0 0 0 0 0 0 0 0 0 0 0 0 0 0 ",
"0 0 0 0 0 0 0 0 0 0 0 0 0 0 0 0 0 0 0 0 0 0 0 0 0 0 0 0 0 0 0 0 0 0 0 0 0 0 0 0 0 0 0 0 0 0 0 0 0 0 0 0 0 0 0 0 0 0 0 0 0 0 0 0 0 0 0 0 0 0 0 0 0 0 t - [.++++W.N.U.M.^+^+b+^+^+_+(+ +L.L.L.N.N.N.N.N.N.N.N.N.L.N.N.L.U.T.T.! 1 i ) } 8 7 e q v H q r } ^ _ 1 1 1 1 1 1 ( ( 1 1 1 1 _ ^ ) : r 0 0 0 0 0 0 0 0 0 0 0 0 0 0 0 0 0 0 0 0 0 0 0 0 0 0 q d d B   } (.p p a i+p+p+x+w+x+y+y+y+w+v+u+v+o+o+u+v+o+o+o+v+o+u+w+u+u+y+w+x+x+w+x+u+y+y+n+r+r+m+N.p.]+Q.Z.Z.Z.%+%+%+%+%+%+%+! %+$+! %+%+%+$+%+Z.Y.Q.|+8+J.J.J.;+;+;+;+,+,+'+'+'+,+,+,+,+,+;+J.,+,+,+'+)+'+)+)+)+)+{+8+8+8+8+8+]+]+]+]+b+b+b+^+^+_+^+M.M.M. + + +U.L.U.T.N.W.[.[.++++~ 3 ! 0.D D b b 2 2 _ : } 8 r f d w T :.c.<.<.c.g.g.:.Z :.g.&.&.Q X V %...&.V V X %.&.G V V G G I S G G H S w v p q q d -.0 d 6 9 ) (   0 v 0 0 0 0 0 0 0 0 0 0 0 0 0 0 0 0 0 0 0 0 0 0 0 0 0 0 0 0 0 0 0 0 0 0 0 0 0 0 0 0 0 0 0 0 0 0 0 0 0 0 0 0 0 0 0 0 0 0 0 0 0 0 0 0 0 0 0 0 0 0 0 0 0 0 0 0 0 0 0 0 0 0 0 0 0 0 0 0 0 0 0 0 0 0 0 0 0 0 0 0 0 0 0 0 0 0 0 0 0 0 0 0 0 0 0 0 0 0 0 0 0 0 0 0 0 0 0 0 0 0 0 0 0 0 ",
"0 0 0 0 0 0 0 0 0 0 0 0 0 0 0 0 0 0 0 0 0 0 0 0 0 0 0 0 0 0 0 0 0 0 0 0 0 0 0 0 0 0 0 0 0 0 0 0 0 0 0 0 0 0 0 0 0 0 0 0 0 0 0 0 0 0 0 0 0 0 0 0 0 0 0 t - [.++++W.W.L.:+:+:+ + +:+:+L.L.N.W.W.W.N.N.N.N.N.N.N.N.N.N.N.N.T.T.[.A 1 _ ) } t r f e q w v r t : _ 1 1 1 1 1 ( ( 1 1 i i ^ ^ : : 0 0 0 0 0 0 0 0 0 0 0 0 0 0 0 0 0 0 0 0 0 0 0 0 0 0 0 0 0 q   t ) 6 0 i+n+n+n+x+y+y+y+w+u+y+u+v+u+u+o+o+o+v+v+u+v+v+v+u+u+u+y+y+w+x+n+x+w+w+x+y+q+n+n+!+'+w.'+:+Q.Z.Z.%+%+%+%+%+%+%+! %+! $+%+$+%+Z.Z.Z.Z.Q.:+'+J.;+J.;+,+,+,+,+,+)+)+,+,+,+'+)+,+,+;+,+,+'+)+)+)+)+)+{+)+{+8+8+8+8+8+8+]+]+b+b+b+^+^+^+M.M.M. + + + +U.U.L.T.N.W.[.[.++++%+0.~ 0.D ' b ( ( 2 _ k : t 8 7 e q H X :.:.:.<.:.<.<.<.<.<.<.X Q V V V &.&.V &.V &.X X W &.....S S H G G T S w q d q d e f 6 -.-.8 )       0 0 0 0 0 0 0 0 0 0 0 0 0 0 0 0 0 0 0 0 0 0 0 0 0 0 0 0 0 0 0 0 0 0 0 0 0 0 0 0 0 0 0 0 0 0 0 0 0 0 0 0 0 0 0 0 0 0 0 0 0 0 0 0 0 0 0 0 0 0 0 0 0 0 0 0 0 0 0 0 0 0 0 0 0 0 0 0 0 0 0 0 0 0 0 0 0 0 0 0 0 0 0 0 0 0 0 0 0 0 0 0 0 0 0 0 0 0 0 0 0 0 0 0 0 0 0 0 0 0 0 0 0 0 0 ",
"0 0 0 0 0 0 0 0 0 0 0 0 0 0 0 0 0 0 0 0 0 0 0 0 0 0 0 0 0 0 0 0 0 0 0 0 0 0 0 0 0 0 0 0 0 0 0 0 0 0 0 0 0 0 0 0 0 0 0 0 0 0 0 0 0 0 0 0 0 0 0 0 0 0 0 0 8 [.[.++++++Z.W.N.L.N.L.N.N.N.N.W.W.Q.Q.Q.W.W.W.W.W.W.W.W.W.W.W.N.< [.#+1 1 i ) : t 8 7 f e p v e t : _ 2 1 ( 1 1 1 1 1 i i [ [ : -.0 0 0 0 0 0 0 0 0 0 0 0 0 0 0 0 0 0 0 0 0 0 0 0 0 0 (.p 0 0 6 0   !+r+n+w+x+x+y+x+x+y+v+y+u+u+w+u+v+v+v+v+u+u+v+u+u+u+u+u+u+w+w+y+y+y+x+u+x+x+n+n+r+q+Z.p.J.;+8+N.Z.Z.%+$+%+%+%+%+%+%+%+%+$+%+$+%+Z.Y.Z.Q.|+_+'+;+;+J.;+'+,+,+,+,+'+,+,+,+'+{+)+,+,+,+,+,+)+)+)+{+)+{+{+{+{+8+8+]+8+8+8+]+b+b+b+^+^+^+(+:+ + + + +U.U.U.U.N.T.W.W.[.[.++++%+3 0.0.D b b ( ( 2 _ k j t r f d p S ` :.<.c.<.<.Z :.Z Z 8.<.%.W @.Q Q V Z &.X V %.%.&.&...V ..S H H S B+T T H q 0 d d 6 f f 7 -.9 1     e q 0 0 0 0 0 0 0 0 0 0 0 0 0 0 0 0 0 0 0 0 0 0 0 0 0 0 0 0 0 0 0 0 0 0 0 0 0 0 0 0 0 0 0 0 0 0 0 0 0 0 0 0 0 0 0 0 0 0 0 0 0 0 0 0 0 0 0 0 0 0 0 0 0 0 0 0 0 0 0 0 0 0 0 0 0 0 0 0 0 0 0 0 0 0 0 0 0 0 0 0 0 0 0 0 0 0 0 0 0 0 0 0 0 0 0 0 0 0 0 0 0 0 0 0 0 0 0 0 0 0 0 0 0 0 ",
"0 0 0 0 0 0 0 0 0 0 0 0 0 0 0 0 0 0 0 0 0 0 0 0 0 0 0 0 0 0 0 0 0 0 0 0 0 0 0 0 0 0 0 0 0 0 0 0 0 0 0 0 0 0 0 0 0 0 0 0 0 0 0 0 0 0 0 0 0 0 0 0 0 0 0 0 0 t - [.[.[.Z.Y.Z.Q.Q.W.W.W.Z.Z.Z.Z.Z.Z.Z.Z.Z.Z.++++Q.++++W.W.W.W.[.[.%+] 1 1 i ) } t t r 7 f q v d t k 2 2 1 1 1 1 i _ _ _ _ 8 0 0 0 0 0 0 0 0 0 0 0 0 0 0 0 0 0 0 0 0 0 0 0 0 0 0 0 0 0 (.0 0 0 f.!+n+n+r+y+x+x+x+y+w+w+y+u+v+u+u+v+w+u+o+o+v+u+w+w+v+u+w+v+y+w+u+w+y+w+v+u+y+u+n+y+n+i+o.w.J.w.,+L.Q.Y.%+%+%+%+! %+%+%+$+%+%+%+$+%+Z.Z.Z.Q.[+{+,+;+;+;+J.;+;+;+,+'+'+'+'+'+,+)+)+,+,+,+,+'+'+'+)+{+{+{+{+{+8+8+8+8+8+8+8+]+]+b+_+^+^+M. + + + +:+ + +U.U.U.T.T.W.++++++++~ 3 0.0.0.D D b ( 2 2 _ : } 8 7 f d v T ^.^.<.:.<.<.:.^.Z 8.%.Z V X W @.W W Z %.%.V V l.X &.V ..G G H w S S G H H p e e f 0 -.-.8 -./ 1   0 q -.0 0 0 0 0 0 0 0 0 0 0 0 0 0 0 0 0 0 0 0 0 0 0 0 0 0 0 0 0 0 0 0 0 0 0 0 0 0 0 0 0 0 0 0 0 0 0 0 0 0 0 0 0 0 0 0 0 0 0 0 0 0 0 0 0 0 0 0 0 0 0 0 0 0 0 0 0 0 0 0 0 0 0 0 0 0 0 0 0 0 0 0 0 0 0 0 0 0 0 0 0 0 0 0 0 0 0 0 0 0 0 0 0 0 0 0 0 0 0 0 0 0 0 0 0 0 0 0 0 0 0 0 0 0 ",
"0 0 0 0 0 0 0 0 0 0 0 0 0 0 0 0 0 0 0 0 0 0 0 0 0 0 0 0 0 0 0 0 0 0 0 0 0 0 0 0 0 0 0 0 0 0 0 0 0 0 0 0 0 0 0 0 0 0 0 0 0 0 0 0 0 0 0 0 0 0 0 0 0 0 0 0 0 0 r < [.++++Z.$+$+$+$+$+$+$+$+$+$+$+$+$+$+%+Z.Z.Z.Z.Z.Z.Z.++++++[.[.++] 1 1 i i : : } t J J s e p C k l 2 ( ( ( 1 1 1 1 1 m 0 0 0 0 0 0 0 0 0 0 0 0 0 0 0 0 0 0 0 0 0 0 0 0 0 0 0 0 0 0 0 k.f.r+n+n+n+n+y+y+y+y+y+y+w+u+u+v+u+v+v+v+u+o+v+w+v+u+u+o+y+w+u+u+w+u+y+u+y+y+u+y+y+n+n+n+q+S.w.w.p.w.,+L.Q.Z.%+Z.%+%+$+$+$+$+$+%+%+%+%+$+Y.Z.Q.|+b+,+;+,+,+;+;+;+;+,+,+,+)+)+)+'+'+{+'+,+,+'+,+'+'+)+{+)+8+{+{+{+8+8+]+8+8+8+]+]+b+b+(+_+^+M.M. + + + + + +U.U.T.N.T.[.[.[.++Z.~ 3 0.0.D b b b ( 2 2 _ } t 8 7 e q w *.^.$.<.^.<.Z :.<.<.Z Z Z &.V &.Q Q V %.%.Z &.X &.%.V V ..T G w H S w S S T p f e 6 0 0 6 m h.'.1   0 0 0 0 0 0 0 0 0 0 0 0 0 0 0 0 0 0 0 0 0 0 0 0 0 0 0 0 0 0 0 0 0 0 0 0 0 0 0 0 0 0 0 0 0 0 0 0 0 0 0 0 0 0 0 0 0 0 0 0 0 0 0 0 0 0 0 0 0 0 0 0 0 0 0 0 0 0 0 0 0 0 0 0 0 0 0 0 0 0 0 0 0 0 0 0 0 0 0 0 0 0 0 0 0 0 0 0 0 0 0 0 0 0 0 0 0 0 0 0 0 0 0 0 0 0 0 0 0 0 0 0 0 0 0 0 0 ",
"0 0 0 0 0 0 0 0 0 0 0 0 0 0 0 0 0 0 0 0 0 0 0 0 0 0 0 0 0 0 0 0 0 0 0 0 0 0 0 0 0 0 0 0 0 0 0 0 0 0 0 0 0 0 0 0 0 0 0 0 0 0 0 0 0 0 0 0 0 0 0 0 0 0 0 0 0 0 0 7 D [.++Z.%+$+#+#+#+#+#+#+#+d.#+#+#+$+$+%+$+Y.%+Z.%+Z.Z.Z.Z.Z.++%+A 1 1 1 1 _ : : } t 8 J r f d 7 _ g b b A ( ( 1 t -.0 0 0 0 0 0 0 0 0 0 0 0 0 0 0 0 0 0 0 0 0 0 0 0 0 0 0 0 0 0 0 i+r+n+n+n+n+y+y+w+y+u+w+y+w+w+u+u+v+o+v+o+v+v+v+u+v+u+u+o+y+w+u+w+y+v+y+x+u+x+w+w+x+w+n+n+r+i+V.w.J.w.w.'+|+Q.Z.%+%+%+$+$+$+$+$+$+%+%+$+$+Y.Y.Z.|+(+)+;+;+;+,+,+'+,+,+,+,+,+'+'+'+'+'+)+)+,+'+'+'+'+'+'+{+{+{+{+8+8+8+8+8+]+8+]+]+b+]+_+_+M.M.M.M. + +U.U. + +U.L.T.N.T.[.[.++++~ 0.0.0.0.0.b b b ( 2 _ k j t r f d p H X ^. . .<.<.<.:.Z <.%.%.%.X Q Q X V W V X &.Z X &.X &.......S w w V H v w S C+e 7 0 7 0 !.!.| i ]   6 0 0 0 0 0 0 0 0 0 0 0 0 0 0 0 0 0 0 0 0 0 0 0 0 0 0 0 0 0 0 0 0 0 0 0 0 0 0 0 0 0 0 0 0 0 0 0 0 0 0 0 0 0 0 0 0 0 0 0 0 0 0 0 0 0 0 0 0 0 0 0 0 0 0 0 0 0 0 0 0 0 0 0 0 0 0 0 0 0 0 0 0 0 0 0 0 0 0 0 0 0 0 0 0 0 0 0 0 0 0 0 0 0 0 0 0 0 0 0 0 0 0 0 0 0 0 0 0 0 0 0 0 0 0 0 0 ",
"0 0 0 0 0 0 0 0 0 0 0 0 0 0 0 0 0 0 0 0 0 0 0 0 0 0 0 0 0 0 0 0 0 0 0 0 0 0 0 0 0 0 0 0 0 0 0 0 0 0 0 0 0 0 0 0 0 0 0 0 0 0 0 0 0 0 0 0 0 0 0 0 0 0 0 0 0 0 0 0 -.b < ++Z.$+$+$+#+#+#+#+#+#+d.d.d.d.#+#+#+$+$+%+$+$+$+%+%+! $+d.] @+1 1 1 _ _ ) : } } t J r 7 0 0 6 8 2 _ } 6 0 0 0 0 0 0 0 0 0 0 0 0 0 0 0 0 0 0 0 0 0 0 0 0 0 0 0 0 0 0 0 f.i+n+n+n+n+n+n+y+w+w+w+y+y+u+w+u+v+w+v+u+u+o+o+w+v+v+v+v+u+u+u+w+y+w+y+w+y+w+w+x+w+u+y+w+n+y+w+m+*+J.,+;+J.J.'+|+Q.Z.%+%+%+$+$+%+%+%+$+%+$+$+$+Z.Y.Q.:+8+,+J.;+;+;+;+;+;+,+'+'+'+)+)+'+'+'+)+)+)+{+)+,+'+)+'+)+{+{+8+8+8+]+8+8+]+]+b+b+b+_+_+(+M. +:+ + + +U.U. +U.L.N.T.N.T.< ++++%+! 0.0.0.D D D b ( 2 2 2 k } t r f d v S <.^.Z <.:. .<.:.Z 8.X X X X W Q %.@.V &.V %.V &.V &.V G G Q G w E T ..v w w v p 0 7 d d n 5 5 ) A   G 0 0 0 0 0 0 0 0 0 0 0 0 0 0 0 0 0 0 0 0 0 0 0 0 0 0 0 0 0 0 0 0 0 0 0 0 0 0 0 0 0 0 0 0 0 0 0 0 0 0 0 0 0 0 0 0 0 0 0 0 0 0 0 0 0 0 0 0 0 0 0 0 0 0 0 0 0 0 0 0 0 0 0 0 0 0 0 0 0 0 0 0 0 0 0 0 0 0 0 0 0 0 0 0 0 0 0 0 0 0 0 0 0 0 0 0 0 0 0 0 0 0 0 0 0 0 0 0 0 0 0 0 0 0 0 0 ",
"0 0 0 0 0 0 0 0 0 0 0 0 0 0 0 0 0 0 0 0 0 0 0 0 0 0 0 0 0 0 0 0 0 0 0 0 0 0 0 0 0 0 0 0 0 0 0 0 0 0 0 0 0 0 0 0 0 0 0 0 0 0 0 0 0 0 0 0 0 0 0 0 0 0 0 0 0 0 0 0 0 0 } < [.Z.$+$+$+$+#+#+#+d.d.d.d.d.d.d.d.d.d.d.#+#+$+#+#+d.A A @+@+1 ( ( ( _ _ _ : : } t t t 0 0 0 0 0 0 0 0 0 0 0 0 0 0 0 0 0 0 0 0 0 0 0 0 0 0 0 0 0 0 0 0 0 0 0 0 0 i+r+n+n+n+n+n+n+y+y+x+u+u+w+u+u+y+v+v+u+v+u+v+o+s+u+o+v+w+v+o+w+w+w+y+u+y+y+w+y+x+w+y+w+y+y+y+y+n+r+i+V.;+;+;+J.J.{+|+Q.Z.Y.Z.%+%+%+$+%+$+%+%+$+$+Z.Z.Z.Q.b+,+,+,+;+,+'+,+'+,+,+'+,+'+)+)+)+)+)+)+{+)+{+{+)+'+{+)+)+)+{+8+]+8+8+b+]+]+]+b+b+b+_+_+(+M. +:+:+ +U.U.U.U.L.T.N.W.[.[.[.++Z.%+! 0.0.0.D D b b ( 2 _ _ : t 8 7 e q w T c.^.`  .:. .Z <.Z 8.%.&.%.&.V W W 7.Q V V X W V &.V %.V T S G w w G T T p v w q d -.(.q n 9 5 / A   I 0 0 0 0 0 0 0 0 0 0 0 0 0 0 0 0 0 0 0 0 0 0 0 0 0 0 0 0 0 0 0 0 0 0 0 0 0 0 0 0 0 0 0 0 0 0 0 0 0 0 0 0 0 0 0 0 0 0 0 0 0 0 0 0 0 0 0 0 0 0 0 0 0 0 0 0 0 0 0 0 0 0 0 0 0 0 0 0 0 0 0 0 0 0 0 0 0 0 0 0 0 0 0 0 0 0 0 0 0 0 0 0 0 0 0 0 0 0 0 0 0 0 0 0 0 0 0 0 0 0 0 0 0 0 0 0 ",
"0 0 0 0 0 0 0 0 0 0 0 0 0 0 0 0 0 0 0 0 0 0 0 0 0 0 0 0 0 0 0 0 0 0 0 0 0 0 0 0 0 0 0 0 0 0 0 0 0 0 0 0 0 0 0 0 0 0 0 0 0 0 0 0 0 0 0 0 0 0 0 0 0 0 0 0 0 0 0 0 0 0 0 f b [.++%+$+$+$+$+#+#+d.d.d.d.d.d.d.d.d.d.d.d.d.d.d.A A ] @+1 ] ( ( ( 1 _ _ : : : t } ).0 0 0 0 0 0 0 0 0 0 0 0 0 0 0 0 0 0 0 0 0 0 0 0 0 0 0 0 0 0 0 0 0 (.i+r+r+p+q+n+n+n+n+y+y+y+w+v+w+w+w+u+w+v+v+u+u+v+v+u+o+o+o+o+u+v+o+u+u+w+u+y+y+y+w+y+y+y+y+x+y+x+y+n+n+r+q+.+J.,+J.w.J.J.]+|+Q.Z.Z.%+%+%+$+%+%+$+%+%+%+$+%+Z.Y.Q.8+;+'+'+,+,+,+,+)+'+,+,+,+)+)+{+)+'+'+)+)+)+{+8+{+)+)+{+{+8+8+8+]+8+]+b+b+b+b+b+^+^+_+M.M.M.:+U.:+U.U. +U.U.N.T.T.[.[.[.[.++%+%+! 0.0.D D b b b ( 2 _ k j t r f d p C+Y :. .Y Z <.Z 8.<. .Z &.&.%.W &.%.Q V @.W &.Q Z W Z &.&.X ..G H v H S G T H v v q -.(.q (.!.| 5 ^ 1 s   0 0 0 0 0 0 0 0 0 0 0 0 0 0 0 0 0 0 0 0 0 0 0 0 0 0 0 0 0 0 0 0 0 0 0 0 0 0 0 0 0 0 0 0 0 0 0 0 0 0 0 0 0 0 0 0 0 0 0 0 0 0 0 0 0 0 0 0 0 0 0 0 0 0 0 0 0 0 0 0 0 0 0 0 0 0 0 0 0 0 0 0 0 0 0 0 0 0 0 0 0 0 0 0 0 0 0 0 0 0 0 0 0 0 0 0 0 0 0 0 0 0 0 0 0 0 0 0 0 0 0 0 0 0 0 0 ",
"0 0 0 0 0 0 0 0 0 0 0 0 0 0 0 0 0 0 0 0 0 0 0 0 0 0 0 0 0 0 0 0 0 0 0 0 0 0 0 0 0 0 0 0 0 0 0 0 0 0 0 0 0 0 0 0 0 0 0 0 0 0 0 0 0 0 0 0 0 0 0 0 0 0 0 0 0 0 0 0 0 0 0 0 0 t 3 [.Z.%+$+$+$+$+#+#+#+d.d.d.d.d.d.d.d.d.A d.A A A ] ] ] ( ( ( ( 1 _ _ ) : : } } -.0 0 0 0 0 0 0 0 0 0 0 0 0 0 0 0 0 0 0 0 0 0 0 0 0 0 0 0 0 0 c i+i+r+A+E+E+E+E+A+u+y+w+y+y+w+u+w+y+w+u+u+v+v+s+u+v+o+u+v+o+v+v+v+v+v+v+u+u+h+u+v+u+w+x+w+x+x+y+y+y+x+n+y+r+y+i+V.;+'+J.w.J.;+]+|+Q.Z.Z.%+%+%+%+%+$+%+%+%+%+%+$+Y.Y.Q.]+,+'+,+'+'+,+'+)+)+,+'+'+'+{+{+)+)+)+)+)+)+{+8+8+8+{+{+{+8+8+8+]+b+]+b+b+b+b+_+_+^+(+(+ + +:+L.U.L.L.U.U.T.N.N.T.[.[.[.++++Z.! ! D D D D b b ( 2 _ _ : } t 7 f d v S  .^.` X %. .Z <.Z Z X &.&.V X &.8.&.Q &.Q W V &.&.V V V V ..T H w G G H H G v v p 6 0 q k.-./ | ^ A   f 7 0 0 0 0 0 0 0 0 0 0 0 0 0 0 0 0 0 0 0 0 0 0 0 0 0 0 0 0 0 0 0 0 0 0 0 0 0 0 0 0 0 0 0 0 0 0 0 0 0 0 0 0 0 0 0 0 0 0 0 0 0 0 0 0 0 0 0 0 0 0 0 0 0 0 0 0 0 0 0 0 0 0 0 0 0 0 0 0 0 0 0 0 0 0 0 0 0 0 0 0 0 0 0 0 0 0 0 0 0 0 0 0 0 0 0 0 0 0 0 0 0 0 0 0 0 0 0 0 0 0 0 0 0 0 0 ",
"0 0 0 0 0 0 0 0 0 0 0 0 0 0 0 0 0 0 0 0 0 0 0 0 0 0 0 0 0 0 0 0 0 0 0 0 0 0 0 0 0 0 0 0 0 0 0 0 0 0 0 0 0 0 0 0 0 0 0 0 0 0 0 0 0 0 0 0 0 0 0 0 0 0 0 0 0 0 0 0 0 0 0 0 0 0 0 t 2 3 ~ ~ %+$+$+#+#+#+d.d.d.d.d.d.d.d.d.d.A @+A A A ] ( ( ( ( ( 1 2 _ ) : : 8 0 0 0 0 0 0 0 0 0 0 0 0 0 0 0 0 0 0 0 0 0 0 0 0 0 0 0 c i+i+r+r+n+r+E+E+s+r+A+E+H+H+E+s+w+y+u+w+u+u+w+u+u+v+u+o+v+s+v+u+o+s+u+v+w+v+v+v+u+v+u+w+u+w+w+o+y+u+v+w+v+y+y+w+q+n+q+.+J.;+'+,+;+,+;+]+|+Q.Z.++Z.%+%+$+$+$+$+%+%+%+%+Y.Y.Y.Q.]+;+,+,+'+'+,+'+'+'+,+'+,+'+)+{+)+)+)+)+)+)+8+8+8+8+8+8+8+8+8+{+8+]+]+b+_+_+_+_+_+(+(+:+ + +U.L.U.L.L.U.T.N.N.N.[.[.[.++++~ %+! 0.0.D D b b b ( _ _ : : t 8 7 e q v T ^.:.&.V X Z %.<.Z Z &.&.&.&.V &.Z %.W W V Q %.&.%.&.&.&...Q Q H w T ..H H H w p p 6 -.k.(.-.9 9 / '   f 0 0 0 0 0 0 0 0 0 0 0 0 0 0 0 0 0 0 0 0 0 0 0 0 0 0 0 0 0 0 0 0 0 0 0 0 0 0 0 0 0 0 0 0 0 0 0 0 0 0 0 0 0 0 0 0 0 0 0 0 0 0 0 0 0 0 0 0 0 0 0 0 0 0 0 0 0 0 0 0 0 0 0 0 0 0 0 0 0 0 0 0 0 0 0 0 0 0 0 0 0 0 0 0 0 0 0 0 0 0 0 0 0 0 0 0 0 0 0 0 0 0 0 0 0 0 0 0 0 0 0 0 0 0 0 0 ",
"0 0 0 0 0 0 0 0 0 0 0 0 0 0 0 0 0 0 0 0 0 0 0 0 0 0 0 0 0 0 0 0 0 0 0 0 0 0 0 0 0 0 0 0 0 0 0 0 0 0 0 0 0 0 0 0 0 0 0 0 0 0 0 0 0 0 0 0 0 0 0 0 0 0 0 0 0 0 0 0 0 0 0 0 0 0 0 0 0 7 t _ g ++%+%+$+#+#+d.d.d.d.d.d.d.d.d.A ] ] ] ] ] ( ( ( ( ( 2 _ _ _ : : -.0 0 0 0 0 0 0 0 0 0 0 0 0 0 0 0 0 0 0 0 0 0 k.i+i+i+n+n+q+q+n+n+v+F+E+r+A+E+A+r+r+A+H+H+F+s+w+w+w+w+v+v+u+v+o+v+s+o+w+v+s+v+v+u+w+u+o+w+u+v+u+v+w+y+u+w+w+v+w+y+y+y+w+n+p+n+i+P.;+J.;+,+;+,+,+_+Q.Q.Z.Z.Z.%+%+%+$+$+$+$+%+%+$+%+Y.Y.Q.^+;+;+;+,+'+;+'+'+)+,+,+,+;+'+)+)+)+{+{+{+]+8+8+{+{+8+8+8+8+8+8+8+]+]+b+b+_+_+_+(+:+:+:+:+:+U.L.U.U.U.T.N.N.[.T.++[.[.++~ ~ 0.0.0.D D D b b ( ( 2 _ : j t r f e p w *.:.%.V V Z %.%.<.%.X &.&.&.&.V V X 8.&.@.V Q &.Z Z <.<.%.Q Q ..w H T ..G w S w v p (.6 0 6 ).9 !.e.1   -.0 0 0 0 0 0 0 0 0 0 0 0 0 0 0 0 0 0 0 0 0 0 0 0 0 0 0 0 0 0 0 0 0 0 0 0 0 0 0 0 0 0 0 0 0 0 0 0 0 0 0 0 0 0 0 0 0 0 0 0 0 0 0 0 0 0 0 0 0 0 0 0 0 0 0 0 0 0 0 0 0 0 0 0 0 0 0 0 0 0 0 0 0 0 0 0 0 0 0 0 0 0 0 0 0 0 0 0 0 0 0 0 0 0 0 0 0 0 0 0 0 0 0 0 0 0 0 0 0 0 0 0 0 0 0 0 ",
"0 0 0 0 0 0 0 0 0 0 0 0 0 0 0 0 0 0 0 0 0 0 0 0 0 0 0 0 0 0 0 0 0 0 0 0 0 0 0 0 0 0 0 0 0 0 0 0 0 0 0 0 0 0 0 0 0 0 0 0 0 0 0 0 0 0 0 0 0 0 0 0 0 0 0 0 0 0 0 0 0 0 0 0 0 0 0 0 0 0 0 0 0 -.8 2 ~ %+#+#+#+#+d.d.d.d.A A A A A A ] ] ] ( 1 1 ( ( ( _ _ _ f 0 0 0 0 0 0 0 0 0 0 0 0 0 0 0 0 0 0 0 i+i+r+r+n+n+q+n+q+n+n+n+n+s+H+E+r+A+F+H+H+F+E+r+u+E+G+F+A+u+u+v+u+v+u+o+v+v+o+s+u+v+v+u+o+w+y+u+y+w+u+y+w+u+y+y+u+y+y+w+y+y+n+x+n+n+r+r+Y.p.;+;+;+;+,+,+,+(+Q.Q.Z.Z.Z.Z.%+$+#+$+$+$+%+%+$+%+Z.Y.Q._+,+,+;+,+,+,+'+)+'+,+'+,+,+'+'+)+)+8+{+)+8+8+8+{+{+8+8+8+]+8+]+b+b+b+b+_+(+(+(+(+:+:+:+L.L.L.L.L.L.T.T.T.N.N.< [.[.[.~ ~ 3 ! 0.D D D D b b ( 2 _ _ : t 8 7 f d p H ` <.%.&...Z X Z Z %.<.&.V &.V W W %.%.X V Q Q W Z Z %.Z Z V ..G w w S T S H w G v q d 6 -.).h.9 n / ! A 6 0 0 0 0 0 0 0 0 0 0 0 0 0 0 0 0 0 0 0 0 0 0 0 0 0 0 0 0 0 0 0 0 0 0 0 0 0 0 0 0 0 0 0 0 0 0 0 0 0 0 0 0 0 0 0 0 0 0 0 0 0 0 0 0 0 0 0 0 0 0 0 0 0 0 0 0 0 0 0 0 0 0 0 0 0 0 0 0 0 0 0 0 0 0 0 0 0 0 0 0 0 0 0 0 0 0 0 0 0 0 0 0 0 0 0 0 0 0 0 0 0 0 0 0 0 0 0 0 0 0 0 0 0 0 0 0 ",
"0 0 0 0 0 0 0 0 0 0 0 0 0 0 0 0 0 0 0 0 0 0 0 0 0 0 0 0 0 0 0 0 0 0 0 0 0 0 0 0 0 0 0 0 0 0 0 0 0 0 0 0 0 0 0 0 0 0 0 0 0 0 0 0 0 0 0 0 0 0 0 0 0 0 0 0 0 0 0 0 0 0 0 0 0 0 0 0 0 0 0 0 0 0 0 0 7 2 ~ %+! ! #+#+#+d.d.A A A A A A A A ( ( ( ( ( 1 _ _ : 0 0 0 0 0 0 0 0 0 0 0 0 0 0 0 0 0 0 (.m+q+n+n+q+q+q+n+n+n+n+n+n+A+H+E+r+A+F+F+H+F+H+H+H+A+y+A+H+F+A+w+o+v+v+v+o+u+s+s+u+o+s+u+v+u+u+u+v+u+w+u+w+y+w+w+w+y+y+v+u+y+y+x+n+y+n+n+i+o.,+;+;+w.;+'+,+'+(+Q.Q.Z.Z.Z.Z.Z.%+$+$+$+$+$+Z.$+%+Y.Z.Q.(+'+,+;+,+'+,+'+)+'+'+)+)+)+)+'+)+)+{+{+)+8+]+8+8+{+8+8+8+]+]+b+b+b+b+_+_+(+(+:+ + +:+L.L.N.L.N.N.N.T.T.N.N.[.[.[.++++~ %+3 0.0.D D D D b b ( 2 _ : : 8 8 f e q v S <. .&.X V Z V %.&.X Z W V 7.W V V X 7.&.&.&.Q @.V 8.Z &.X &.T S H v H B+G H H w p p q -.n n !.9 | 1 A {   -.p 0 0 0 0 0 0 0 0 0 0 0 0 0 0 0 0 0 0 0 0 0 0 0 0 0 0 0 0 0 0 0 0 0 0 0 0 0 0 0 0 0 0 0 0 0 0 0 0 0 0 0 0 0 0 0 0 0 0 0 0 0 0 0 0 0 0 0 0 0 0 0 0 0 0 0 0 0 0 0 0 0 0 0 0 0 0 0 0 0 0 0 0 0 0 0 0 0 0 0 0 0 0 0 0 0 0 0 0 0 0 0 0 0 0 0 0 0 0 0 0 0 0 0 0 0 0 0 0 0 0 0 0 0 0 ",
"0 0 0 0 0 0 0 0 0 0 0 0 0 0 0 0 0 0 0 0 0 0 0 0 0 0 0 0 0 0 0 0 0 0 0 0 0 0 0 0 0 0 0 0 0 0 0 0 0 0 0 0 0 0 0 0 0 0 0 0 0 0 0 0 0 0 0 0 0 0 0 0 0 0 0 0 0 0 0 0 0 0 0 0 0 0 0 0 0 0 0 0 0 0 0 0 0 0 f g 3 %+! ! #+' d.' d.A A A A ] ] ] ( ( ( ( ( 1 } 0 0 0 0 0 0 0 0 0 0 0 0 0 0 0 0 0 0 0 i+q+q+n+n+n+q+n+n+n+n+n+x+A+H+A+r+A+H+F+H+H+F+H+H+H+H+E+y+A+H+E+o+u+v+v+h+v+s+s+v+o+v+v+v+v+v+w+u+u+u+v+u+y+u+u+w+y+u+y+v+x+u+y+y+w+n+q+m+++;+'+,+,+;+;+,+'+'+:+Q.Q.Z.Z.Z.Y.Z.%+$+$+$+$+%+%+%+$+Y.Z.Q.:+'+;+,+)+)+)+)+'+'+'+)+)+)+)+)+)+{+{+{+)+8+]+8+8+8+8+8+8+]+b+_+_+_+_+_+(+(+(+:+ +:+L.L.N.N.N.N.N.N.T.T.N.[.W.[.[.++++~ %+3 0.0.D D D b b ( 2 2 _ : t t r f d q w +.c.Z &.&.&.V V &.X V 8.@.&.X W &.W 5.X V &.8.V I Q X %.&...V ..H H v H G H S w w w d q 0 6 m !.| ^ ] !     0 0 0 0 0 0 0 0 0 0 0 0 0 0 0 0 0 0 0 0 0 0 0 0 0 0 0 0 0 0 0 0 0 0 0 0 0 0 0 0 0 0 0 0 0 0 0 0 0 0 0 0 0 0 0 0 0 0 0 0 0 0 0 0 0 0 0 0 0 0 0 0 0 0 0 0 0 0 0 0 0 0 0 0 0 0 0 0 0 0 0 0 0 0 0 0 0 0 0 0 0 0 0 0 0 0 0 0 0 0 0 0 0 0 0 0 0 0 0 0 0 0 0 0 0 0 0 0 0 0 0 0 0 0 0 0 ",
"0 0 0 0 0 0 0 0 0 0 0 0 0 0 0 0 0 0 0 0 0 0 0 0 0 0 0 0 0 0 0 0 0 0 0 0 0 0 0 0 0 0 0 0 0 0 0 0 0 0 0 0 0 0 0 0 0 0 0 0 0 0 0 0 0 0 0 0 0 0 0 0 0 0 0 0 0 0 0 0 0 0 0 0 0 0 0 0 0 0 0 0 0 0 0 0 0 0 0 0 t 2 3 0.0.D ' ' ' ' A A A ] ] ] ( ( ( ( ( : 0 0 0 0 0 0 0 0 0 0 0 0 0 0 0 0 0 0 0 0 q+q+n+n+n+n+n+n+n+n+n+w+E+H+A+r+E+F+F+H+F+H+H+H+H+H+H+H+E+z+E+H+s+o+o+s+o+s+o+o+o+w+v+u+w+v+w+w+u+u+w+y+y+w+u+y+w+y+x+y+u+y+u+n+r+n+n+r+f.o.,+,+'+'+;+;+;+,+)+:+Q.Q.Z.Z.Z.Z.%+%+%+%+$+$+$+%+$+$+Z.Z.Q.L.)+,+'+'+)+{+)+)+)+)+)+{+{+{+)+{+)+{+)+{+8+]+8+8+]+]+]+8+]+]+_+_+_+_+(+:+:+:+:+:+U.L.L.N.N.N.W.N.W.N.[.[.[.++++++++~ 3 3 0.0.0.0.D b b b 2 2 _ _ : t t 7 e q p w Y <.&.W &.&.Q W 7.X &.%.@.V 7.W %.W 7.%.&.W X V G I Q Y Y ..G ..H v v w H S H w v p p 0 0 -.h.5 | e.' %+    0 0 0 0 0 0 0 0 0 0 0 0 0 0 0 0 0 0 0 0 0 0 0 0 0 0 0 0 0 0 0 0 0 0 0 0 0 0 0 0 0 0 0 0 0 0 0 0 0 0 0 0 0 0 0 0 0 0 0 0 0 0 0 0 0 0 0 0 0 0 0 0 0 0 0 0 0 0 0 0 0 0 0 0 0 0 0 0 0 0 0 0 0 0 0 0 0 0 0 0 0 0 0 0 0 0 0 0 0 0 0 0 0 0 0 0 0 0 0 0 0 0 0 0 0 0 0 0 0 0 0 0 0 0 0 0 ",
"0 0 0 0 0 0 0 0 0 0 0 0 0 0 0 0 0 0 0 0 0 0 0 0 0 0 0 0 0 0 0 0 0 0 0 0 0 0 0 0 0 0 0 0 0 0 0 0 0 0 0 0 0 0 0 0 0 0 0 0 0 0 0 0 0 0 0 0 0 0 0 0 0 0 0 0 0 0 0 0 0 0 0 0 0 0 0 0 0 0 0 0 0 0 0 0 0 0 0 0 0 0 7 2 3 3 0.! ' ' d.A A A ] ] ] ] ( ( 8 0 0 0 0 0 0 0 0 0 0 0 0 0 0 0 0 0 0 0 0 c n+n+n+n+n+n+n+n+y+y+u+E+H+A+r+E+H+H+H+H+H+H+H+H+H+H+H+H+F+y+A+H+E+o+u+o+v+v+s+o+u+v+v+u+u+u+w+u+v+y+y+u+y+y+w+x+w+y+x+x+y+x+w+n+u+r+n+i+T.;+,+'+,+,+;+,+,+,+)+:+Q.Q.Z.Z.Z.Z.%+$+%+%+$+$+$+$+$+Y.Z.Z.Y.L.)+,+'+)+)+{+{+{+{+{+)+)+{+{+{+8+{+)+)+{+8+]+]+]+]+]+b+b+]+b+_+_+(+:+(+:+:+:+L.L.L.L.N.W.N.N.W.W.W.W.[.[.[.++++~ %+3 ! 0.0.D D D D b b b 2 _ _ : } t 8 7 e q o C+ .<.V W W X W W 7.&.V 5.W V W W 7.7.Z <.&.&.W &.Q F W Q V X T ..T p p p S I T w v v q 0 0 7 9 5 | 1 !     7 0 0 0 0 0 0 0 0 0 0 0 0 0 0 0 0 0 0 0 0 0 0 0 0 0 0 0 0 0 0 0 0 0 0 0 0 0 0 0 0 0 0 0 0 0 0 0 0 0 0 0 0 0 0 0 0 0 0 0 0 0 0 0 0 0 0 0 0 0 0 0 0 0 0 0 0 0 0 0 0 0 0 0 0 0 0 0 0 0 0 0 0 0 0 0 0 0 0 0 0 0 0 0 0 0 0 0 0 0 0 0 0 0 0 0 0 0 0 0 0 0 0 0 0 0 0 0 0 0 0 0 0 0 0 0 0 ",
"0 0 0 0 0 0 0 0 0 0 0 0 0 0 0 0 0 0 0 0 0 0 0 0 0 0 0 0 0 0 0 0 0 0 0 0 0 0 0 0 0 0 0 0 0 0 0 0 0 0 0 0 0 0 0 0 0 0 0 0 0 0 0 0 0 0 0 0 0 0 0 0 0 0 0 0 0 0 0 0 0 0 0 0 0 0 0 0 0 0 0 0 0 0 0 0 0 0 0 0 0 0 0 0 7 2 3 ~ ! ! D ' ' A A A A A _ 6 0 0 0 0 0 0 0 0 0 0 0 0 0 0 0 0 0 0 0 0 0 i+q+q+n+n+n+y+x+x+y+o+F+H+o+r+F+F+H+H+H+F+F+H+H+H+H+H+H+H+H+s+v+H+E+o+s+v+u+v+o+u+u+v+w+w+u+w+y+v+y+y+w+w+w+w+w+x+y+y+y+u+x+w+v+n+u+n+r+>+;+,+'+'+,+'+,+,+;+;+)+:+Q.Q.Z.Z.Z.Z.%+$+$+%+%+%+%+$+$+Z.Z.Z.Q.|+8+,+'+)+)+8+]+]+8+{+{+)+{+{+8+{+{+{+8+8+]+]+]+]+]+]+b+b+b+b+_+_+(+:+:+:+:+:+L.L.L.L.N.N.W.N.N.W.W.++++++++%+%+%+%+%+0.0.D D D D b b b b 2 2 _ } t 8 7 f d p o +.:.g.%.W W V V W W 5.@.@.Q 5.@.5.8.%.%.Z &.Z V V Q G I G ..T ..H T w q q S S H H H w p d -.n 9 / ) 1 A     0 0 0 0 0 0 0 0 0 0 0 0 0 0 0 0 0 0 0 0 0 0 0 0 0 0 0 0 0 0 0 0 0 0 0 0 0 0 0 0 0 0 0 0 0 0 0 0 0 0 0 0 0 0 0 0 0 0 0 0 0 0 0 0 0 0 0 0 0 0 0 0 0 0 0 0 0 0 0 0 0 0 0 0 0 0 0 0 0 0 0 0 0 0 0 0 0 0 0 0 0 0 0 0 0 0 0 0 0 0 0 0 0 0 0 0 0 0 0 0 0 0 0 0 0 0 0 0 0 0 0 0 0 0 0 0 0 ",
"0 0 0 0 0 0 0 0 0 0 0 0 0 0 0 0 0 0 0 0 0 0 0 0 0 0 0 0 0 0 0 0 0 0 0 0 0 0 0 0 0 0 0 0 0 0 0 0 0 0 0 0 0 0 0 0 0 0 0 0 0 0 0 0 0 0 0 0 0 0 0 0 0 0 0 0 0 0 0 0 0 0 0 0 0 0 0 0 0 0 0 0 0 0 0 0 0 0 0 0 0 0 0 0 0 0 -.} 0.3 ~ 0.! D D ' _ ).0 0 0 0 0 0 0 0 0 0 0 0 0 0 0 0 0 0 0 0 0 0 0 q+n+n+p+n+x+w+x+y+A+F+F+v+o+F+H+F+H+H+A+r+u+A+F+H+F+H+H+H+H+A+u+H+E+v+v+v+v+v+v+u+w+w+u+y+y+u+y+u+u+y+u+w+w+w+y+y+w+w+y+w+y+y+x+p+n+m+i+M.'+'+{+'+,+)+,+'+'+,+)+:+Q.Q.Z.Z.++Z.%+%+$+$+$+%+%+$+$+Z.Z.Z.Q.|+]+,+,+'+8+^+W.W.b+8+{+{+{+{+8+{+{+8+]+]+]+]+b+b+b+b+b+b+b+_+_+(+:+:+:+:+L.L.L.N.N.N.N.W.W.W.W.[.++++Z.++++Z.%+%+! ! 0.D D D D b b b ( 2 2 _ : } t 8 f 0 q p j.*.Z <.7.W &.7.%.@.@.@.@.W W W @.W 8.%.Z %.W Z %.&.V G I Q G B+S S H v d p v H S H w w q 0 !.m 9 / | ^ A   8 0 0 0 0 0 0 0 0 0 0 0 0 0 0 0 0 0 0 0 0 0 0 0 0 0 0 0 0 0 0 0 0 0 0 0 0 0 0 0 0 0 0 0 0 0 0 0 0 0 0 0 0 0 0 0 0 0 0 0 0 0 0 0 0 0 0 0 0 0 0 0 0 0 0 0 0 0 0 0 0 0 0 0 0 0 0 0 0 0 0 0 0 0 0 0 0 0 0 0 0 0 0 0 0 0 0 0 0 0 0 0 0 0 0 0 0 0 0 0 0 0 0 0 0 0 0 0 0 0 0 0 0 0 0 0 0 0 ",
"0 0 0 0 0 0 0 0 0 0 0 0 0 0 0 0 0 0 0 0 0 0 0 0 0 0 0 0 0 0 0 0 0 0 0 0 0 0 0 0 0 0 0 0 0 0 0 0 0 0 0 0 0 0 0 0 0 0 0 0 0 0 0 0 0 0 0 0 0 0 0 0 0 0 0 0 0 0 0 0 0 0 0 0 0 0 0 0 0 0 0 0 0 0 0 0 0 0 0 0 0 0 0 0 0 0 0 0 0 -.8 } : } t -.0 0 0 0 0 0 0 0 0 0 0 0 0 0 0 0 0 0 0 0 0 0 0 0 c n+n+n+n+y+y+y+w+A+H+E+u+s+H+H+F+F+H+A+u+F+F+o+A+H+H+H+H+H+H+A+v+H+E+v+o+A+A+A+s+w+w+u+y+u+u+u+w+w+y+y+u+u+w+w+u+w+w+y+w+y+n+x+q+q+n+q+S.)+)+'+)+)+,+)+'+,+)+'+)+(+Q.Z.Z.Z.Z.Z.Y.$+%+$+%+$+%+$+$+$+Z.Z.Q.N.^+'+,+)+8+U._ } L.]+{+8+{+8+8+{+8+]+]+]+]+b+b+_+_+b+_+b+_+_+_+(+:+L.L.L.L.L.N.N.N.W.W.W.W.W.++++++++++++++~ %+! ! 0.0.D D D b b b b ( 2 _ _ : } 8 7 -.d q o D+ .Z &.W W W 5.5.@.K W @.Q W W W W 7.Z Z %.&.%.X X &.G I Q G G H H H w p p p v w H H w v q 6 h./ / | / (     7 0 0 0 0 0 0 0 0 0 0 0 0 0 0 0 0 0 0 0 0 0 0 0 0 0 0 0 0 0 0 0 0 0 0 0 0 0 0 0 0 0 0 0 0 0 0 0 0 0 0 0 0 0 0 0 0 0 0 0 0 0 0 0 0 0 0 0 0 0 0 0 0 0 0 0 0 0 0 0 0 0 0 0 0 0 0 0 0 0 0 0 0 0 0 0 0 0 0 0 0 0 0 0 0 0 0 0 0 0 0 0 0 0 0 0 0 0 0 0 0 0 0 0 0 0 0 0 0 0 0 0 0 0 0 0 0 ",
"0 0 0 0 0 0 0 0 0 0 0 0 0 0 0 0 0 0 0 0 0 0 0 0 0 0 0 0 0 0 0 0 0 0 0 0 0 0 0 0 0 0 0 0 0 0 0 0 0 0 0 0 0 0 0 0 0 0 0 0 0 0 0 0 0 0 0 0 0 0 0 0 0 0 0 0 0 0 0 0 0 0 0 0 0 0 0 0 0 0 0 0 0 0 0 0 0 0 0 0 0 0 0 0 0 0 0 0 0 0 0 0 0 0 0 0 0 0 0 0 0 0 0 0 0 0 0 0 0 0 0 0 0 0 0 0 0 0 0 0 i+n+n+n+p+y+y+v+E+H+E+r+A+H+H+H+H+H+A+v+F+A+s+F+w+E+H+H+H+H+H+s+A+G+A+A+H+H+H+G+H+E+s+w+w+y+u+y+w+w+y+v+y+y+w+w+x+w+y+x+n+y+x+n+n+n+n+!+P.)+'+)+)+)+,+,+)+'+'+)+)+:+Q.Q.Z.Z.Z.Z.Z.%+%+$+%+$+$+$+$+S.$+Y.Q.N.^+'+'+{+]+N.: 7 ++b+]+]+8+8+]+8+8+8+]+b+b+b+_+_+(+_+_+_+(+_+(+(+:+L.L.L.L.N.N.N.N.W.W.W.W.++++++++++++Z.Z.%+3 ! 0.0.D D D D A b b b 2 2 _ : : t 8 7 f d p o +.:.Z W &.W &.5.W W @.@.@.@.@.@.@.5.5.Z Z Z &.%.Z &.....I H H G H w w w w q w v w w H w p d 6 8 / ^ / i ] ~     7 0 0 0 0 0 0 0 0 0 0 0 0 0 0 0 0 0 0 0 0 0 0 0 0 0 0 0 0 0 0 0 0 0 0 0 0 0 0 0 0 0 0 0 0 0 0 0 0 0 0 0 0 0 0 0 0 0 0 0 0 0 0 0 0 0 0 0 0 0 0 0 0 0 0 0 0 0 0 0 0 0 0 0 0 0 0 0 0 0 0 0 0 0 0 0 0 0 0 0 0 0 0 0 0 0 0 0 0 0 0 0 0 0 0 0 0 0 0 0 0 0 0 0 0 0 0 0 0 0 0 0 0 0 0 0 ",
"0 0 0 0 0 0 0 0 0 0 0 0 0 0 0 0 0 0 0 0 0 0 0 0 0 0 0 0 0 0 0 0 0 0 0 0 0 0 0 0 0 0 0 0 0 0 0 0 0 0 0 0 0 0 0 0 0 0 0 0 0 0 0 0 0 0 0 0 0 0 0 0 0 0 0 0 0 0 0 0 0 0 0 0 0 0 0 0 0 0 0 0 0 0 0 0 0 0 0 0 0 0 0 0 0 0 0 0 0 0 0 0 0 0 0 0 0 0 0 0 0 0 0 0 0 0 0 0 0 0 0 0 0 0 0 0 0 0 0 6 n+n+n+y+x+x+s+F+H+A+r+E+H+H+F+H+F+s+o+F+A+y+s+F+r+E+H+H+H+H+F+y+E+H+F+G+F+o+u+s+F+H+F+E+v+w+u+y+w+u+y+w+y+y+w+w+y+y+y+w+u+x+w+w+q+n+l+N.{+8+{+)+)+{+{+'+'+)+'+'+{+:+Q.Q.Z.Z.%+%+%+Z.%+$+%+%+$+$+$+$+$+Y.Y.W.M.)+)+)+]+L.( t $+_+]+8+8+8+]+]+]+]+]+b+]+b+_+(+_+_+(+(+(+(+:+:+:+L.L.N.N.N.N.N.W.W.++++W.++Z.%+Z.Z.++~ %+! ! ! ! 0.0.D D b b b b ( 2 2 _ : } t m 6 e q p w *.:.%.%.Q I Q @.W I Q @.@.I W @.@.7.%.Z Z Z %.Z %.Z V G I F F S S w H H G w p w w w w H w q -.h./ / / 5 @+~   9.  0 0 0 0 0 0 0 0 0 0 0 0 0 0 0 0 0 0 0 0 0 0 0 0 0 0 0 0 0 0 0 0 0 0 0 0 0 0 0 0 0 0 0 0 0 0 0 0 0 0 0 0 0 0 0 0 0 0 0 0 0 0 0 0 0 0 0 0 0 0 0 0 0 0 0 0 0 0 0 0 0 0 0 0 0 0 0 0 0 0 0 0 0 0 0 0 0 0 0 0 0 0 0 0 0 0 0 0 0 0 0 0 0 0 0 0 0 0 0 0 0 0 0 0 0 0 0 0 0 0 0 0 0 0 0 ",
"0 0 0 0 0 0 0 0 0 0 0 0 0 0 0 0 0 0 0 0 0 0 0 0 0 0 0 0 0 0 0 0 0 0 0 0 0 0 0 0 0 0 0 0 0 0 0 0 0 0 0 0 0 0 0 0 0 0 0 0 0 0 0 0 0 0 0 0 0 0 0 0 0 0 0 0 0 0 0 0 0 0 0 0 0 0 0 0 0 0 0 0 0 0 0 0 0 0 0 0 0 0 0 0 0 0 0 0 0 0 0 0 0 0 0 0 0 0 0 0 0 0 0 0 0 0 0 0 0 0 0 0 0 0 0 0 0 0 0 !+n+n+n+y+y+A+H+F+v+o+F+G+H+H+H+F+v+A+F+s+y+s+F+A+v+F+H+H+H+H+E+r+F+H+H+A+w+s+A+u+n+A+F+H+F+s+w+x+w+y+y+y+u+y+w+w+w+y+w+w+x+x+n+q+p+m+e.8+8+]+8+)+)+)+{+{+{+)+'+)+8+:+Y.Z.Z.Z.Y.$+%+%+$+Y.%+%+%+$+$+$+%+Y.Z.Q. +'+,+)+8+:+$+] Y.(+]+8+8+8+]+]+b+b+b+b+b+_+_+_+_+_+(+(+ +:+:+L.L.L.N.|+N.W.W.W.W.++++++++Z.Z.Z.%+%+%+%+! ! 0.0.0.D D D A A b b b ( 2 _ k : t 8 7 f d q o C+ .Z %.5.5.V Q 9.I I K W @.@.9.@.a.9.&.%.&.%.Z Z %.%.X W Q Q S H F H w v S v p w v q q e 0 0 !.5 | e./ 5 e.~ 3   e -.0 0 0 0 0 0 0 0 0 0 0 0 0 0 0 0 0 0 0 0 0 0 0 0 0 0 0 0 0 0 0 0 0 0 0 0 0 0 0 0 0 0 0 0 0 0 0 0 0 0 0 0 0 0 0 0 0 0 0 0 0 0 0 0 0 0 0 0 0 0 0 0 0 0 0 0 0 0 0 0 0 0 0 0 0 0 0 0 0 0 0 0 0 0 0 0 0 0 0 0 0 0 0 0 0 0 0 0 0 0 0 0 0 0 0 0 0 0 0 0 0 0 0 0 0 0 0 0 0 0 0 0 0 0 ",
"0 0 0 0 0 0 0 0 0 0 0 0 0 0 0 0 0 0 0 0 0 0 0 0 0 0 0 0 0 0 0 0 0 0 0 0 0 0 0 0 0 0 0 0 0 0 0 0 0 0 0 0 0 0 0 0 0 0 0 0 0 0 0 0 0 0 0 0 0 0 0 0 0 0 0 0 0 0 0 0 0 0 0 0 0 0 0 0 0 0 0 0 0 0 0 0 0 0 0 0 0 0 0 0 0 0 0 0 0 0 0 0 0 0 0 0 0 0 0 0 0 0 0 0 0 0 0 0 0 0 0 0 0 0 0 0 0 0 d i+n+n+n+w+E+H+E+w+A+H+H+H+H+H+H+A+v+H+E+A+E+F+A+r+F+H+F+H+H+F+w+E+G+E+u+u+E+H+H+F+A+n+r+E+H+E+v+y+w+x+w+u+w+u+w+w+w+w+y+y+p+q+n+n+n+i+M.]+]+]+8+8+{+{+{+8+8+8+{+8+8+:+Q.Z.Z.Z.Z.%+%+$+%+$+$+%+%+$+$+%+$+$+Z.Q.L.)+'+{+{+_+|+Z.|+_+b+]+8+]+]+]+b+_+_+_+_+_+(+(+(+(+(+(+:+L.L.L.L.L.N.|+N.W.W.W.W.++++Z.Z.Z.%+%+%+%+%+! ! ! 0.0.D D ' ' A b A ( b 2 2 _ : } 8 m 6 0 d ~.o T $.Z %.5.&.7.Q @.Q I K @.W 9.9.9.@.a.&.%.%.Z Z %.X &.Q ..V G H H v B B q v p d q w p d d e f f n | 1 1 | &+S.*   J 0 0 0 0 0 0 0 0 0 0 0 0 0 0 0 0 0 0 0 0 0 0 0 0 0 0 0 0 0 0 0 0 0 0 0 0 0 0 0 0 0 0 0 0 0 0 0 0 0 0 0 0 0 0 0 0 0 0 0 0 0 0 0 0 0 0 0 0 0 0 0 0 0 0 0 0 0 0 0 0 0 0 0 0 0 0 0 0 0 0 0 0 0 0 0 0 0 0 0 0 0 0 0 0 0 0 0 0 0 0 0 0 0 0 0 0 0 0 0 0 0 0 0 0 0 0 0 0 0 0 0 0 0 0 0 ",
"0 0 0 0 0 0 0 0 0 0 0 0 0 0 0 0 0 0 0 0 0 0 0 0 0 0 0 0 0 0 0 0 0 0 0 0 0 0 0 0 0 0 0 0 0 0 0 0 0 0 0 0 0 0 0 0 0 0 0 0 0 0 0 0 0 0 0 0 0 0 0 0 0 0 0 0 0 0 0 0 0 0 0 0 0 0 0 0 0 0 0 0 0 0 0 0 0 0 0 0 0 0 0 0 0 0 0 0 0 0 0 0 0 0 0 0 0 0 0 0 0 0 0 0 0 0 0 0 0 0 0 0 0 0 0 0 0 0 c n+n+y+y+s+F+A+v+E+G+H+H+H+H+H+H+F+o+o+A+E+A+u+o+F+H+H+H+H+H+s+o+F+A+n+A+F+H+H+H+H+H+E+w+r+H+F+E+A+A+v+u+w+x+y+w+y+y+y+x+w+n+n+r+q+m+W.8+]+b+]+]+]+8+8+8+]+]+8+{+{+]+:+Q.Z.Y.%+%+%+%+$+$+%+%+%+$+$+$+$+$+Y.Z.Q.N.P.'+)+)+8+(+:+:+b+b+b+]+]+]+_+_+_+_+(+(+(+(+(+(+ +:+ +:+L.N.N.N.N.N.W.W.W.W.W.++Z.Z.%+%+%+$+%+$+$+$+! 0.! 0.0.D ' ' ' b b b b ( 2 _ : : t 8 7 f 0 d p o ` <.%.V W Q &.&.V F @.I 4.K W Q 9.@.6.@.&.&.X X V W V Q G H F F w B v v p d e e d d q q q d d ~.-.| e.@+&+=+S.++  t 0 0 0 0 0 0 0 0 0 0 0 0 0 0 0 0 0 0 0 0 0 0 0 0 0 0 0 0 0 0 0 0 0 0 0 0 0 0 0 0 0 0 0 0 0 0 0 0 0 0 0 0 0 0 0 0 0 0 0 0 0 0 0 0 0 0 0 0 0 0 0 0 0 0 0 0 0 0 0 0 0 0 0 0 0 0 0 0 0 0 0 0 0 0 0 0 0 0 0 0 0 0 0 0 0 0 0 0 0 0 0 0 0 0 0 0 0 0 0 0 0 0 0 0 0 0 0 0 0 0 0 0 0 0 0 ",
"0 0 0 0 0 0 0 0 0 0 0 0 0 0 0 0 0 0 0 0 0 0 0 0 0 0 0 0 0 0 0 0 0 0 0 0 0 0 0 0 0 0 0 0 0 0 0 0 0 0 0 0 0 0 0 0 0 0 0 0 0 0 0 0 0 0 0 0 0 0 0 0 0 0 0 0 0 0 0 0 0 0 0 0 0 0 0 0 0 0 0 0 0 0 0 0 0 0 0 0 0 0 0 0 0 0 0 0 0 0 0 0 0 0 0 0 0 0 0 0 0 0 0 0 0 0 0 0 0 0 0 0 0 0 0 0 0 0 i+n+r+u+x+A+F+u+E+G+H+H+H+H+H+H+H+H+H+F+E+A+E+F+H+H+H+H+H+H+A+r+A+u+o+E+H+H+H+H+H+H+H+E+r+A+H+H+H+G+H+E+u+y+y+y+y+y+w+y+n+w+n+r+n+q+>+]+]+]+]+]+]+8+]+]+8+8+]+]+8+{+]+:+Q.Z.$+$+%+Z.%+$+$+$+%+$+%+$+%+$+$+$+Z.Z.N.V.'+'+,+'+8+]+b+8+]+]+]+b+b+_+(+(+(+(+(+(+:+ + +:+:+:+:+L.L.N.W.N.N.W.W.W.++Z.Z.Z.%+%+$+%+$+! $+#+! 0.! D 0.0.D D ' b b ( b 2 2 2 _ : } t m 6 -.d q p j.%.8.&.X V W Q @.@.K @.@.I 4.K 5.6.6.@.@.Q &.%.X V ....G H H w S w w v q q e f e f f d d (.p q d k.6 e.*+e.*+.+[.  t 0 0 0 0 0 0 0 0 0 0 0 0 0 0 0 0 0 0 0 0 0 0 0 0 0 0 0 0 0 0 0 0 0 0 0 0 0 0 0 0 0 0 0 0 0 0 0 0 0 0 0 0 0 0 0 0 0 0 0 0 0 0 0 0 0 0 0 0 0 0 0 0 0 0 0 0 0 0 0 0 0 0 0 0 0 0 0 0 0 0 0 0 0 0 0 0 0 0 0 0 0 0 0 0 0 0 0 0 0 0 0 0 0 0 0 0 0 0 0 0 0 0 0 0 0 0 0 0 0 0 0 0 0 0 0 ",
"0 0 0 0 0 0 0 0 0 0 0 0 0 0 0 0 0 0 0 0 0 0 0 0 0 0 0 0 0 0 0 0 0 0 0 0 0 0 0 0 0 0 0 0 0 0 0 0 0 0 0 0 0 0 0 0 0 0 0 0 0 0 0 0 0 0 0 0 0 0 0 0 0 0 0 0 0 0 0 0 0 0 0 0 0 0 0 0 0 0 0 0 0 0 0 0 0 0 0 0 0 0 0 0 0 0 0 0 0 0 0 0 0 0 0 0 0 0 0 0 0 0 0 0 0 0 0 0 0 0 0 0 0 0 0 0 0 d i+n+w+w+y+v+F+E+u+E+G+H+H+H+H+H+H+H+H+H+H+G+H+H+H+H+H+H+F+A+p+q+r+A+H+H+H+F+H+H+H+F+s+r+A+H+E+A+v+E+H+H+A+y+y+w+w+y+y+w+u+w+q+q+n+i+M.]+]+]+]+b+b+]+b+]+8+8+]+8+]+8+8+:+Q.Y.Y.$+%+%+%+%+$+$+%+%+%+$+$+%+$+$+Y.Z.W.M.'+;+;+,+)+{+8+8+8+P.]+]+_+(+_+(+(+(+:+:+:+:+:+:+L.L.L.L.N.N.W.W.W.W.++W.++Z.%+%+$+$+$+! $+$+#+#+! 0.' 0.D D D D b b ( ( ( 2 2 _ : } t 8 7 7 0 d ~.o B+Z Z W V V &.W Q Q I K 6.9.5.4.E F =.@.Q 5.V &.V V &.Q S H H S H w v w v q q q d 0 f 6 e e 0 6 0 k.n / @+@+d.%+< *   s 0 0 0 0 0 0 0 0 0 0 0 0 0 0 0 0 0 0 0 0 0 0 0 0 0 0 0 0 0 0 0 0 0 0 0 0 0 0 0 0 0 0 0 0 0 0 0 0 0 0 0 0 0 0 0 0 0 0 0 0 0 0 0 0 0 0 0 0 0 0 0 0 0 0 0 0 0 0 0 0 0 0 0 0 0 0 0 0 0 0 0 0 0 0 0 0 0 0 0 0 0 0 0 0 0 0 0 0 0 0 0 0 0 0 0 0 0 0 0 0 0 0 0 0 0 0 0 0 0 0 0 0 0 0 ",
"0 0 0 0 0 0 0 0 0 0 0 0 0 0 0 0 0 0 0 0 0 0 0 0 0 0 0 0 0 0 0 0 0 0 0 0 0 0 0 0 0 0 0 0 0 0 0 0 0 0 0 0 0 0 0 0 0 0 0 0 0 0 0 0 0 0 0 0 0 0 0 0 0 0 0 0 0 0 0 0 0 0 0 0 0 0 0 0 0 0 0 0 0 0 0 0 0 0 0 0 0 0 0 0 0 0 0 0 0 0 0 0 0 0 0 0 0 0 0 0 0 0 0 0 0 0 0 0 0 0 0 0 0 0 0 0 0 c n+n+y+w+y+y+o+F+F+v+A+H+G+H+H+H+H+G+H+G+H+H+H+H+H+H+H+A+n+p+n+A+F+H+H+H+H+H+H+H+A+r+!+A+A+r+r+s+r+n+E+H+E+u+x+u+y+x+w+n+n+n+n+n+m+W.]+b+]+b+b+b+b+b+b+]+]+]+]+8+]+]+]+(+Q.Y.$+$+$+$+%+%+$+%+$+$+$+$+#+%+$+%+Y.Z.W. +o.;+J.;+,+)+{+P.8+P.]+^+(+(+(+:+:+:+:+:+:+L.L.L.L.N.N.N.N.N.W.Q.W.Q.Z.Z.++Z.%+$+$+$+$+$+! #+#+' D D D D D D D b b b ( ( 2 2 2 _ : } t 8 7 f d q p o %.%.&.V W Q W @.I @.Q 6.@.9.5.@.4.E =.=.4.K @.Q V Q G Q S T T ..w w w w w p d d 0 6 6 6 6 7 !.8 0 -.6 | e.e.*+-     u d 0 0 0 0 0 0 0 0 0 0 0 0 0 0 0 0 0 0 0 0 0 0 0 0 0 0 0 0 0 0 0 0 0 0 0 0 0 0 0 0 0 0 0 0 0 0 0 0 0 0 0 0 0 0 0 0 0 0 0 0 0 0 0 0 0 0 0 0 0 0 0 0 0 0 0 0 0 0 0 0 0 0 0 0 0 0 0 0 0 0 0 0 0 0 0 0 0 0 0 0 0 0 0 0 0 0 0 0 0 0 0 0 0 0 0 0 0 0 0 0 0 0 0 0 0 0 0 0 0 0 0 0 0 0 ",
"0 0 0 0 0 0 0 0 0 0 0 0 0 0 0 0 0 0 0 0 0 0 0 0 0 0 0 0 0 0 0 0 0 0 0 0 0 0 0 0 0 0 0 0 0 0 0 0 0 0 0 0 0 0 0 0 0 0 0 0 0 0 0 0 0 0 0 0 0 0 0 0 0 0 0 0 0 0 0 0 0 0 0 0 0 0 0 0 0 0 0 0 0 0 0 0 0 0 0 0 0 0 0 0 0 0 0 0 0 0 0 0 0 0 0 0 0 0 0 0 0 0 0 0 0 0 0 0 0 0 0 0 0 0 0 0 0 i+n+w+y+w+w+w+w+s+F+F+A+v+E+H+H+G+G+G+H+G+H+H+G+H+F+A+r+p+p+o+E+H+H+H+H+F+H+H+F+o+p+p+r+r+s+E+F+H+E+n+!+H+F+s+w+y+x+y+y+y+r+n+n+n+=+_+_+_+b+b+b+b+b+b+_+b+]+]+b+b+]+b+b+:+Q.Y.$+%+%+$+%+%+%+%+$+$+$+$+$+$+$+$+%+Z.Q.L.V.'+;+J.;+,+)+{+P.P.^+_+M.:+:+:+:+L.N.L.L.L.L.L.L.N.N.N.N.W.W.Q.++Z.Z.Z.Z.%+$+$+$+#+$+$+#+$+! D D D D D D D b b ( ( ( 2 2 _ _ : } t 8 r 6 0 d ~.p C+8.<.V V Q W V @.@.I K I @.@.6.a.4.=.=.=.=.E E F E F ..Q G T T v p w j.}.~.q d 0 d (.0 0 6 !.5 } } h.9 &+*+.+.+-       0 0 0 0 0 0 0 0 0 0 0 0 0 0 0 0 0 0 0 0 0 0 0 0 0 0 0 0 0 0 0 0 0 0 0 0 0 0 0 0 0 0 0 0 0 0 0 0 0 0 0 0 0 0 0 0 0 0 0 0 0 0 0 0 0 0 0 0 0 0 0 0 0 0 0 0 0 0 0 0 0 0 0 0 0 0 0 0 0 0 0 0 0 0 0 0 0 0 0 0 0 0 0 0 0 0 0 0 0 0 0 0 0 0 0 0 0 0 0 0 0 0 0 0 0 0 0 0 0 0 0 0 0 0 0 ",
"0 0 0 0 0 0 0 0 0 0 0 0 0 0 0 0 0 0 0 0 0 0 0 0 0 0 0 0 0 0 0 0 0 0 0 0 0 0 0 0 0 0 0 0 0 0 0 0 0 0 0 0 0 0 0 0 0 0 0 0 0 0 0 0 0 0 0 0 0 0 0 0 0 0 0 0 0 0 0 0 0 0 0 0 0 0 0 0 0 0 0 0 0 0 0 0 0 0 0 0 0 0 0 0 0 0 0 0 0 0 0 0 0 0 0 0 0 0 0 0 0 0 0 0 0 0 0 0 0 0 0 0 0 0 0 0 d n+r+w+x+w+u+u+u+u+o+E+H+F+s+v+A+E+F+H+H+H+F+E+E+o+y+p+p+o+E+H+H+F+H+H+H+H+E+A+n+p+r+s+E+F+H+H+F+H+H+!+n+E+H+A+y+w+y+y+u+n+n+q+n+!+(+_+(+(+_+b+b+_+_+_+_+_+b+b+b+b+b+b+_+:+Q.Y.Y.%+$+%+%+%+%+%+$+$+$+$+$+$+$+$+$+%+Z.N.^+P.'+,+,+'+)+P.P.]+^+(+(+:+:+L.L.L.L.L.L.L.N.N.N.N.W.W.W.W.W.++Z.Z.Z.Z.%+$+$+$+$+#+#+$+#+! D D D D D D D b b b ( ( 2 2 2 _ : : } 8 m 7 f d d p o ..g.l.W W Q Q Q Q Q X I F F K I K 4.=.4.=.L z z C C E K H Q G q d d d q 0 d q q ~.o o ~.a k.0 n 9 '.i ) / *+.+$+,.  8 7 0 0 0 0 0 0 0 0 0 0 0 0 0 0 0 0 0 0 0 0 0 0 0 0 0 0 0 0 0 0 0 0 0 0 0 0 0 0 0 0 0 0 0 0 0 0 0 0 0 0 0 0 0 0 0 0 0 0 0 0 0 0 0 0 0 0 0 0 0 0 0 0 0 0 0 0 0 0 0 0 0 0 0 0 0 0 0 0 0 0 0 0 0 0 0 0 0 0 0 0 0 0 0 0 0 0 0 0 0 0 0 0 0 0 0 0 0 0 0 0 0 0 0 0 0 0 0 0 0 0 0 0 0 0 0 ",
"0 0 0 0 0 0 0 0 0 0 0 0 0 0 0 0 0 0 0 0 0 0 0 0 0 0 0 0 0 0 0 0 0 0 0 0 0 0 0 0 0 0 0 0 0 0 0 0 0 0 0 0 0 0 0 0 0 0 0 0 0 0 0 0 0 0 0 0 0 0 0 0 0 0 0 0 0 0 0 0 0 0 0 0 0 0 0 0 0 0 0 0 0 0 0 0 0 0 0 0 0 0 0 0 0 0 0 0 0 0 0 0 0 0 0 0 0 0 0 0 0 0 0 0 0 0 0 0 0 0 0 0 0 0 0 0 f.r+n+w+u+w+w+v+w+u+o+o+s+F+H+F+A+A+o+v+u+u+o+A+s+v+p+v+E+H+H+H+H+H+H+H+F+F+A+r+A+E+F+H+F+F+H+H+H+F+F+E+p+s+H+F+v+u+y+y+n+p+n+q+i+|+_+(+_+_+_+b+_+_+(+_+(+_+(+(+_+_+_+b+_+ +Q.Y.$+$+$+$+$+$+%+$+$+#+#+$+$+$+$+$+%+$+Z.W. +P.P.o.'+)+P.P.V.^+M.M.:+L.L.L.L.L.L.L.L.L.N.N.N.N.W.Q.W.++Z.Z.Z.Z.%+%+$+$+#+$+$+$+#+' ' ' ' ' D D D D b b b b b ( _ _ _ : : } t 8 7 6 0 (.q p w Z 8.&.W ..W X %.7.V @.V F E E F K K K B z z y y y C B H F S w d f s f f d d ~.o C+C+U j.o ~.k.k.k.6 9 ^ 1 @+.+$+,     6 0 0 0 0 0 0 0 0 0 0 0 0 0 0 0 0 0 0 0 0 0 0 0 0 0 0 0 0 0 0 0 0 0 0 0 0 0 0 0 0 0 0 0 0 0 0 0 0 0 0 0 0 0 0 0 0 0 0 0 0 0 0 0 0 0 0 0 0 0 0 0 0 0 0 0 0 0 0 0 0 0 0 0 0 0 0 0 0 0 0 0 0 0 0 0 0 0 0 0 0 0 0 0 0 0 0 0 0 0 0 0 0 0 0 0 0 0 0 0 0 0 0 0 0 0 0 0 0 0 0 0 0 0 0 0 ",
"0 0 0 0 0 0 0 0 0 0 0 0 0 0 0 0 0 0 0 0 0 0 0 0 0 0 0 0 0 0 0 0 0 0 0 0 0 0 0 0 0 0 0 0 0 0 0 0 0 0 0 0 0 0 0 0 0 0 0 0 0 0 0 0 0 0 0 0 0 0 0 0 0 0 0 0 0 0 0 0 0 0 0 0 0 0 0 0 0 0 0 0 0 0 0 0 0 0 0 0 0 0 0 0 0 0 0 0 0 0 0 0 0 0 0 0 0 0 0 0 0 0 0 0 0 0 0 0 0 0 0 0 0 0 0 0 r+n+n+y+w+y+w+u+s+w+u+o+v+v+s+E+F+H+H+H+H+H+F+E+o+u+A+H+H+H+H+H+F+H+H+H+H+H+H+F+H+H+H+H+H+H+H+H+H+H+F+H+!+r+F+H+A+u+y+n+n+n+q+m+#+ +(+(+(+(+(+_+(+:+:+(+(+(+(+(+_+(+_+_+(+ +W.Y.$+$+$+$+$+$+$+$+$+#+#+$+#+$+$+$+$+#+$+Z.L.V.P.P.P.P.V.^+^+M.M.:+:+L.L.L.N.N.N.N.N.N.W.W.W.N.W.W.++Z.Z.Z.%+%+%+$+$+$+#+#+$+$+#+' ' ' ' ' ' ' D b b b ( b ( 2 _ _ : : : t t 8 7 -.0 d q p B+c.8.&.W V &.Q X &.&.W K I B B F E 4.B B y s y B C e B H w v d r r f e r d v w C+S v q p C+}.o _.0 n 9 ) @+Y.Z.Z.,       t 7 0 0 0 0 0 0 0 0 0 0 0 0 0 0 0 0 0 0 0 0 0 0 0 0 0 0 0 0 0 0 0 0 0 0 0 0 0 0 0 0 0 0 0 0 0 0 0 0 0 0 0 0 0 0 0 0 0 0 0 0 0 0 0 0 0 0 0 0 0 0 0 0 0 0 0 0 0 0 0 0 0 0 0 0 0 0 0 0 0 0 0 0 0 0 0 0 0 0 0 0 0 0 0 0 0 0 0 0 0 0 0 0 0 0 0 0 0 0 0 0 0 0 0 0 0 0 0 0 0 0 0 0 0 ",
"0 0 0 0 0 0 0 0 0 0 0 0 0 0 0 0 0 0 0 0 0 0 0 0 0 0 0 0 0 0 0 0 0 0 0 0 0 0 0 0 0 0 0 0 0 0 0 0 0 0 0 0 0 0 0 0 0 0 0 0 0 0 0 0 0 0 0 0 0 0 0 0 0 0 0 0 0 0 0 0 0 0 0 0 0 0 0 0 0 0 0 0 0 0 0 0 0 0 0 0 0 0 0 0 0 0 0 0 0 0 0 0 0 0 0 0 0 0 0 0 0 0 0 0 0 0 0 0 0 0 0 0 0 0 0 0 n+n+w+y+u+v+w+w+v+u+u+v+o+v+o+v+u+o+F+H+F+A+w+s+E+H+H+H+H+H+H+H+H+H+F+H+H+H+H+H+H+F+F+H+H+H+H+H+F+F+F+H+E+p+s+H+E+u+y+n+n+n+r+&+L.L.:+:+:+(+:+(+(+:+:+:+:+(+:+(+(+(+(+_+M. +W.Z.$+$+$+$+$+$+$+$+#+$+#+#+#+#+$+$+#+$+$+Z.N.M.^+V.V.^+^+M.(+ +:+:+L.L.N.N.N.N.N.N.W.W.W.W.W.W.Z.++Z.Z.%+%+%+$+$+$+#+#+$+#+#+' ' ' ' ' ' ' ' A A b b b ( ( 2 2 _ _ : } } t 8 7 6 0 (.d p v Z c.8.8.Q W Q W @.&.&.W Q K F B C E F E z C x z E r s C z B s u t r f 7 e E w B e t : J s s r t r 6 t '.1 A d.Y.W., <     8 J r 0 0 0 0 0 0 0 0 0 0 0 0 0 0 0 0 0 0 0 0 0 0 0 0 0 0 0 0 0 0 0 0 0 0 0 0 0 0 0 0 0 0 0 0 0 0 0 0 0 0 0 0 0 0 0 0 0 0 0 0 0 0 0 0 0 0 0 0 0 0 0 0 0 0 0 0 0 0 0 0 0 0 0 0 0 0 0 0 0 0 0 0 0 0 0 0 0 0 0 0 0 0 0 0 0 0 0 0 0 0 0 0 0 0 0 0 0 0 0 0 0 0 0 0 0 0 0 0 0 0 0 0 ",
"0 0 0 0 0 0 0 0 0 0 0 0 0 0 0 0 0 0 0 0 0 0 0 0 0 0 0 0 0 0 0 0 0 0 0 0 0 0 0 0 0 0 0 0 0 0 0 0 0 0 0 0 0 0 0 0 0 0 0 0 0 0 0 0 0 0 0 0 0 0 0 0 0 0 0 0 0 0 0 0 0 0 0 0 0 0 0 0 0 0 0 0 0 0 0 0 0 0 0 0 0 0 0 0 0 0 0 0 0 0 0 0 0 0 0 0 0 0 0 0 0 0 0 0 0 0 0 0 0 0 0 0 0 0 0 !+n+n+w+w+u+v+w+w+v+u+v+v+o+o+u+o+u+E+H+A+y+A+E+H+H+H+H+H+H+H+H+H+H+F+F+H+H+H+H+H+F+F+H+H+F+H+H+H+H+F+H+H+H+v+r+F+E+o+n+n+n+r+f.N.L.L.U.:+:+:+:+:+(+:+:+:+:+:+:+:+(+(+(+(+M. +W.Y.$+$+$+$+#+$+$+$+#+#+$+$+#+#+#+#+d.$+$+%+W.U.M.M.M.M.M. +:+:+U.L.L.L.L.N.N.N.N.W.Q.W.W.W.++Z.Z.Z.Z.Z.%+$+$+$+$+#+#+#+#+#+#+#+' d.' ' ' ' A A b b b ( 2 2 2 _ _ : : } t 8 8 6 -.0 d q p C+8.l.5.8.&.Q I @.Q V W Q I Q E B B C z C s y z E C x s e y C u t f 7 x x C v y x } t s J 8 t j : k 2 _ 1 @+@+%+Z.W.< *         7 6 0 0 0 0 0 0 0 0 0 0 0 0 0 0 0 0 0 0 0 0 0 0 0 0 0 0 0 0 0 0 0 0 0 0 0 0 0 0 0 0 0 0 0 0 0 0 0 0 0 0 0 0 0 0 0 0 0 0 0 0 0 0 0 0 0 0 0 0 0 0 0 0 0 0 0 0 0 0 0 0 0 0 0 0 0 0 0 0 0 0 0 0 0 0 0 0 0 0 0 0 0 0 0 0 0 0 0 0 0 0 0 0 0 0 0 0 0 0 0 0 0 0 0 0 0 0 0 0 0 0 0 ",
"0 0 0 0 0 0 0 0 0 0 0 0 0 0 0 0 0 0 0 0 0 0 0 0 0 0 0 0 0 0 0 0 0 0 0 0 0 0 0 0 0 0 0 0 0 0 0 0 0 0 0 0 0 0 0 0 0 0 0 0 0 0 0 0 0 0 0 0 0 0 0 0 0 0 0 0 0 0 0 0 0 0 0 0 0 0 0 0 0 0 0 0 0 0 0 0 0 0 0 0 0 0 0 0 0 0 0 0 0 0 0 0 0 0 0 0 0 0 0 0 0 0 0 0 0 0 0 0 0 0 0 0 0 0 0 r+r+n+w+w+w+u+v+w+w+v+u+o+o+v+u+v+s+F+F+y+E+G+H+H+H+H+H+H+H+H+H+F+H+H+H+H+H+H+H+H+F+F+H+F+F+F+F+E+E+E+E+A+A+r+r+F+E+v+n+r+m+i+Y.N.N.L.L.L.L.:+:+:+:+L.[+L.[+L.:+:+:+:+:+ + +:+N.Z.$+$+$+#+#+#+#+$+#+$+$+$+#+#+#+#+#+#+$+%+Z.N. + + + + +U.U.L.L.L.L.N.N.N.W.W.W.W.W.W.Z.Z.Z.Z.Z.Z.%+%+$+$+#+#+#+#+#+#+' #+d.' ' ' ' A A A b b b b b ( 2 2 _ _ : } } t t 8 7 6 0 d d ~.o X g.l.5.7.7.@.K K W 5.Q K G I E B C y C y y C E F s x O O x u : s x J x u u j _ _ j r 7 u j j j k j k : 2 ( #+$+Z.W.N.$ #.I.  t 7 d 0 0 0 0 0 0 0 0 0 0 0 0 0 0 0 0 0 0 0 0 0 0 0 0 0 0 0 0 0 0 0 0 0 0 0 0 0 0 0 0 0 0 0 0 0 0 0 0 0 0 0 0 0 0 0 0 0 0 0 0 0 0 0 0 0 0 0 0 0 0 0 0 0 0 0 0 0 0 0 0 0 0 0 0 0 0 0 0 0 0 0 0 0 0 0 0 0 0 0 0 0 0 0 0 0 0 0 0 0 0 0 0 0 0 0 0 0 0 0 0 0 0 0 0 0 0 0 0 0 0 0 ",
"0 0 0 0 0 0 0 0 0 0 0 0 0 0 0 0 0 0 0 0 0 0 0 0 0 0 0 0 0 0 0 0 0 0 0 0 0 0 0 0 0 0 0 0 0 0 0 0 0 0 0 0 0 0 0 0 0 0 0 0 0 0 0 0 0 0 0 0 0 0 0 0 0 0 0 0 0 0 0 0 0 0 0 0 0 0 0 0 0 0 0 0 0 0 0 0 0 0 0 0 0 0 0 0 0 0 0 0 0 0 0 0 0 0 0 0 0 0 0 0 0 0 0 0 0 0 0 0 0 0 0 0 0 0 (.n+w+u+y+w+v+y+v+w+w+u+v+o+o+s+v+u+o+E+F+o+o+H+H+H+H+H+H+H+E+o+A+H+H+H+H+H+F+E+A+o+v+v+r+r+n+n+p+q+q+n+r+!+!+A+E+F+h+r+r+q+i+#+[.W.W.N.N.L.L.N.L.L.L.L.[+L.[+[+[+L.:+:+:+:+:+:+N.Z.%+$+%+%+$+#+#+#+#+#+#+#+#+#+$+#+d.d.$+$+$+W.U.U.U.U.L.N.L.L.N.N.N.N.W.W.W.W.W.++W.++Z.Z.Z.Z.Z.%+%+$+$+#+#+#+#+d.' d.' d.d.' ' A A A ] ] ( ( ( ( 2 2 2 _ _ : : } } t 8 r 7 -.0 d q p C+9+l.l.9.g.&.5.@.4.@.Q @.4.F F =.B z B y C y y C E x s x s j _ t x u u u u t 9 _ ( _ _ _ ^ ^ 1 ] A ( ( { A 1 1 A #+Y.Q.W.N.T.$     0 -.7 -.0 0 0 0 0 0 0 0 0 0 0 0 0 0 0 0 0 0 0 0 0 0 0 0 0 0 0 0 0 0 0 0 0 0 0 0 0 0 0 0 0 0 0 0 0 0 0 0 0 0 0 0 0 0 0 0 0 0 0 0 0 0 0 0 0 0 0 0 0 0 0 0 0 0 0 0 0 0 0 0 0 0 0 0 0 0 0 0 0 0 0 0 0 0 0 0 0 0 0 0 0 0 0 0 0 0 0 0 0 0 0 0 0 0 0 0 0 0 0 0 0 0 0 0 0 0 0 0 ",
"0 0 0 0 0 0 0 0 0 0 0 0 0 0 0 0 0 0 0 0 0 0 0 0 0 0 0 0 0 0 0 0 0 0 0 0 0 0 0 0 0 0 0 0 0 0 0 0 0 0 0 0 0 0 0 0 0 0 0 0 0 0 0 0 0 0 0 0 0 0 0 0 0 0 0 0 0 0 0 0 0 0 0 0 0 0 0 0 0 0 0 0 0 0 0 0 0 0 0 0 0 0 0 0 0 0 0 0 0 0 0 0 0 0 0 0 0 0 0 0 0 0 0 0 0 0 0 0 0 0 0 0 0 0 !+n+n+w+y+u+u+u+y+v+o+v+v+v+w+o+o+s+o+s+F+F+u+A+H+H+H+H+E+o+p+r+E+H+H+H+H+H+F+n+o+A+E+E+E+E+F+F+F+F+H+H+H+H+H+H+F+A+r+n+n+m+^ < ++++++W.N.N.N.N.N.L.L.L.L.N.L.L.[+L.L.L.L.L.L.U.N.W.$+$+%+$+#+#+#+#+#+#+$+#+#+#+$+d.#+#+#+$+$+Z.N.N.L.L.N.W.N.N.N.N.W.N.N.W.W.W.W.Z.Z.Z.Z.Z.%+%+$+#+$+#+#+#+#+#+#+' d.d.A ' A A A A ] ] ( ( ( ( ( 2 2 _ _ ) : : : } t t 8 7 6 0 d d p p X 9+8.7.7.l.l.7.W @.F K K K =.E E F L =.C s y r x s d u u : : } 7 8 r e e 8 } !.7 8 8 t ) i ( j : : ] d.#+! ' d.] $+$+d.$+S.Q.[.T.T.3       t 8 -.0 d 0 0 0 0 0 0 0 0 0 0 0 0 0 0 0 0 0 0 0 0 0 0 0 0 0 0 0 0 0 0 0 0 0 0 0 0 0 0 0 0 0 0 0 0 0 0 0 0 0 0 0 0 0 0 0 0 0 0 0 0 0 0 0 0 0 0 0 0 0 0 0 0 0 0 0 0 0 0 0 0 0 0 0 0 0 0 0 0 0 0 0 0 0 0 0 0 0 0 0 0 0 0 0 0 0 0 0 0 0 0 0 0 0 0 0 0 0 0 0 0 0 0 0 ",
"0 0 0 0 0 0 0 0 0 0 0 0 0 0 0 0 0 0 0 0 0 0 0 0 0 0 0 0 0 0 0 0 0 0 0 0 0 0 0 0 0 0 0 0 0 0 0 0 0 0 0 0 0 0 0 0 0 0 0 0 0 0 0 0 0 0 0 0 0 0 0 0 0 0 0 0 0 0 0 0 0 0 0 0 0 0 0 0 0 0 0 0 0 0 0 0 0 0 0 0 0 0 0 0 0 0 0 0 0 0 0 0 0 0 0 0 0 0 0 0 0 0 0 0 0 0 0 0 0 0 0 0 0 -.r+u+y+u+u+w+v+u+u+w+o+v+u+v+u+v+v+u+u+u+s+H+E+n+A+F+A+v+p+p+r+E+F+H+H+H+H+F+v+s+H+H+F+E+E+E+E+E+E+E+A+h+s+s+s+s+v+n+n+q+n+k+E 3 ++++++++W.W.N.N.N.N.N.L.L.L.N.N.N.N.L.L.L.L.L.L.L.W.$+$+$+$+$+#+#+#+#+#+#+#+#+#+#+#+d.#+#+#+$+%+++N.N.N.N.W.N.W.W.W.W.W.Q.++Z.Z.Z.Z.Z.%+%+%+$+$+$+#+#+#+#+#+#+#+d.d.d.A A A A A ] ] ( ( ( ( ( ( 2 2 _ _ _ : : : } t t 8 ).6 f 0 d q ~.S 8.g.7.l.5.l.8.5.Q K @.E E F @.G F z P P y y z s s C C x x r k } j f y d ).).: : 8 : : J f f h.} '.A ! A A ! $+$+$+$+#+d.$+$+$+Q.N.U.M.U.#.  j t t   0 0 0 0 0 0 0 0 0 0 0 0 0 0 0 0 0 0 0 0 0 0 0 0 0 0 0 0 0 0 0 0 0 0 0 0 0 0 0 0 0 0 0 0 0 0 0 0 0 0 0 0 0 0 0 0 0 0 0 0 0 0 0 0 0 0 0 0 0 0 0 0 0 0 0 0 0 0 0 0 0 0 0 0 0 0 0 0 0 0 0 0 0 0 0 0 0 0 0 0 0 0 0 0 0 0 0 0 0 0 0 0 0 0 0 0 0 0 0 0 0 0 0 0 ",
"0 0 0 0 0 0 0 0 0 0 0 0 0 0 0 0 0 0 0 0 0 0 0 0 0 0 0 0 0 0 0 0 0 0 0 0 0 0 0 0 0 0 0 0 0 0 0 0 0 0 0 0 0 0 0 0 0 0 0 0 0 0 0 0 0 0 0 0 0 0 0 0 0 0 0 0 0 0 0 0 0 0 0 0 0 0 0 0 0 0 0 0 0 0 0 0 0 0 0 0 0 0 0 0 0 0 0 0 0 0 0 0 0 0 0 0 0 0 0 0 0 0 0 0 0 0 0 0 0 0 0 0 0 f.n+y+v+y+u+w+v+u+u+y+v+v+u+u+v+o+o+o+w+v+s+E+H+E+w+y+A+A+r+r+E+H+H+H+H+H+H+E+p+F+F+o+w+u+x+x+w+w+x+w+z+y+w+u+w+n+n+q+n+n+k+` ` J [.++++Z.++++W.W.W.N.N.L.N.N.N.N.N.|+N.L.N.L.L.L.L.W.%+$+$+$+#+#+d.d.d.#+#+#+#+$+$+#+#+#+#+#+#+$+Z.W.N.W.W.W.W.W.W.W.++++++++++Z.Z.%+$+%+$+$+#+$+#+d.d.#+d.d.#+#+d.d.A A A A A ] ( ( ( ( ( ( 2 2 _ _ _ _ : : : } t t 8 m 7 f 0 d q p w Z l.7.9.7.5.5.8.5.W Q I F E I E 4.L M y y R C B x s B z C J x e t 8 d 7 x f !.8 5 ) 1 ^ _ i _ ) ^ 1 ) e.*+*+1 @+S.Y.#+@+@+@+#+#+#+S.Y.Q.N.U. +I.#.    m d 0 0 0 0 0 0 0 0 0 0 0 0 0 0 0 0 0 0 0 0 0 0 0 0 0 0 0 0 0 0 0 0 0 0 0 0 0 0 0 0 0 0 0 0 0 0 0 0 0 0 0 0 0 0 0 0 0 0 0 0 0 0 0 0 0 0 0 0 0 0 0 0 0 0 0 0 0 0 0 0 0 0 0 0 0 0 0 0 0 0 0 0 0 0 0 0 0 0 0 0 0 0 0 0 0 0 0 0 0 0 0 0 0 0 0 0 0 0 0 0 0 0 ",
"0 0 0 0 0 0 0 0 0 0 0 0 0 0 0 0 0 0 0 0 0 0 0 0 0 0 0 0 0 0 0 0 0 0 0 0 0 0 0 0 0 0 0 0 0 0 0 0 0 0 0 0 0 0 0 0 0 0 0 0 0 0 0 0 0 0 0 0 0 0 0 0 0 0 0 0 0 0 0 0 0 0 0 0 0 0 0 0 0 0 0 0 0 0 0 0 0 0 0 0 0 0 0 0 0 0 0 0 0 0 0 0 0 0 0 0 0 0 0 0 0 0 0 0 0 0 0 0 0 0 0 0 d r+n+w+u+w+w+u+y+u+u+v+w+w+v+w+v+u+v+u+v+v+v+u+E+H+H+F+F+o+r+F+H+H+H+H+H+H+F+r+A+H+A+w+y+y+u+y+w+w+y+y+y+v+w+y+w+n+r+r+n+l+].Z %.&.b ++++Z.Z.++++W.W.W.W.N.N.W.W.N.W.W.N.N.N.N.N.N.N.W.Z.%+$+$+$+#+d..+.+#+#+#+#+#+#+#+$+#+#+#+#+$+%+++W.W.W.W.W.++++W.++Z.Z.Z.Z.%+%+$+$+$+#+#+#+#+#+d.d.d.d.d.' d.' A A A A A A ] ( ( ( 1 ( 2 _ _ _ _ _ : : : } } t 8 8 7 6 f (.d p p T 8.7.9.9.9.9.9.8.5.Q @.K F L a.@.6.B y s O C s C J z P y s x z y 9 x _ j j : g k u x d f 7 7 8 } : ^ ( ^ ^ ^ ^ ^ i 9 } '.1 d.Y.Q.Y.#+#+S.Y.Q.W.T.$           d 0 0 0 0 0 0 0 0 0 0 0 0 0 0 0 0 0 0 0 0 0 0 0 0 0 0 0 0 0 0 0 0 0 0 0 0 0 0 0 0 0 0 0 0 0 0 0 0 0 0 0 0 0 0 0 0 0 0 0 0 0 0 0 0 0 0 0 0 0 0 0 0 0 0 0 0 0 0 0 0 0 0 0 0 0 0 0 0 0 0 0 0 0 0 0 0 0 0 0 0 0 0 0 0 0 0 0 0 0 0 0 0 0 0 0 0 0 0 0 0 ",
"0 0 0 0 0 0 0 0 0 0 0 0 0 0 0 0 0 0 0 0 0 0 0 0 0 0 0 0 0 0 0 0 0 0 0 0 0 0 0 0 0 0 0 0 0 0 0 0 0 0 0 0 0 0 0 0 0 0 0 0 0 0 0 0 0 0 0 0 0 0 0 0 0 0 0 0 0 0 0 0 0 0 0 0 0 0 0 0 0 0 0 0 0 0 0 0 0 0 0 0 0 0 0 0 0 0 0 0 0 0 0 0 0 0 0 0 0 0 0 0 0 0 0 0 0 0 0 0 0 0 0 0 f.r+n+u+w+u+y+u+w+w+u+v+w+v+v+w+u+v+w+u+u+u+u+u+w+s+F+H+s+v+F+H+H+H+H+H+H+H+A+r+F+F+w+y+w+w+w+x+w+w+y+u+y+u+w+n+u+n+r+m+l+].<.^.^. .E ++++%+Z.%+Z.Z.Z.Z.Q.Q.W.W.W.W.Q.W.W.W.W.W.W.W.N.W.%+$+$+#+#+#+d..+d.d.#+#+#+#+#+#+#+#+#+#+#+#+$+++++++++++++++Z.Z.Z.Z.%+%+%+%+$+$+$+#+#+d.d.d.d.d.d.d.d.A A A A A A A ] A ] ( ( ( ( 1 2 2 _ _ _ : : : : } } t 8 8 7 7 f 0 d q p w 8.7.9.9.l.5.@.9.W V W Q @.K 4.a.L M L B s E E C y u O u j R j : 8 7 8 t } t } 2 2 2 g u 8 j J r s f 7 r 8 8 '.9 ) '.i 1 d.A .+#+.+e.^ &+.+.+S.Q.[.N.$         -.0 0 0 0 0 0 0 0 0 0 0 0 0 0 0 0 0 0 0 0 0 0 0 0 0 0 0 0 0 0 0 0 0 0 0 0 0 0 0 0 0 0 0 0 0 0 0 0 0 0 0 0 0 0 0 0 0 0 0 0 0 0 0 0 0 0 0 0 0 0 0 0 0 0 0 0 0 0 0 0 0 0 0 0 0 0 0 0 0 0 0 0 0 0 0 0 0 0 0 0 0 0 0 0 0 0 0 0 0 0 0 0 0 0 0 0 0 0 0 0 ",
"0 0 0 0 0 0 0 0 0 0 0 0 0 0 0 0 0 0 0 0 0 0 0 0 0 0 0 0 0 0 0 0 0 0 0 0 0 0 0 0 0 0 0 0 0 0 0 0 0 0 0 0 0 0 0 0 0 0 0 0 0 0 0 0 0 0 0 0 0 0 0 0 0 0 0 0 0 0 0 0 0 0 0 0 0 0 0 0 0 0 0 0 0 0 0 0 0 0 0 0 0 0 0 0 0 0 0 0 0 0 0 0 0 0 0 0 0 0 0 0 0 0 0 0 0 0 0 0 0 0 0 0 !+w+u+w+y+w+v+w+w+o+y+u+u+w+v+u+o+o+w+u+w+u+w+u+u+o+F+E+n+E+H+H+H+H+H+H+H+E+p+A+H+s+y+w+y+y+y+y+y+y+w+u+y+y+w+n+r+q+n+m+{.$.^.^.:.<. .x - %+%+%+%+%+%+Z.Z.Z.Z.Z.Q.Q.Q.Q.Q.Q.Q.Q.Q.W.W.++Z.#+$+$+#+#+#+#+d.#+#+#+#+#+#+#+d.d.#+#+#+#+$+$+Z.Z.Z.Z.Z.%+%+%+%+$+$+$+$+$+$+#+#+#+d.d.d.d.d.d.d.A A A A A A ] ] ] ] ( ( ( ( 1 1 _ _ _ _ _ : : : : } } t t 8 ).7 f f d d q p V l.5.@.@.l.5.@.9.7.W V Q I Q K =.B =.F E E F z P u u J u t J J t t 8 8 } J s d r _ D 3 b _ : _ ( ( A d.] 1 ) _ 1 i ^ 1 #+#+@+d.*+@+.+.+#+@+.+.+.+S.Y.++U.      6 0 0 0 0 0 0 0 0 0 0 0 0 0 0 0 0 0 0 0 0 0 0 0 0 0 0 0 0 0 0 0 0 0 0 0 0 0 0 0 0 0 0 0 0 0 0 0 0 0 0 0 0 0 0 0 0 0 0 0 0 0 0 0 0 0 0 0 0 0 0 0 0 0 0 0 0 0 0 0 0 0 0 0 0 0 0 0 0 0 0 0 0 0 0 0 0 0 0 0 0 0 0 0 0 0 0 0 0 0 0 0 0 0 0 0 0 0 0 0 0 ",
"0 0 0 0 0 0 0 0 0 0 0 0 0 0 0 0 0 0 0 0 0 0 0 0 0 0 0 0 0 0 0 0 0 0 0 0 0 0 0 0 0 0 0 0 0 0 0 0 0 0 0 0 0 0 0 0 0 0 0 0 0 0 0 0 0 0 0 0 0 0 0 0 0 0 0 0 0 0 0 0 0 0 0 0 0 0 0 0 0 0 0 0 0 0 0 0 0 0 0 0 0 0 0 0 0 0 0 0 0 0 0 0 0 0 0 0 0 0 0 0 0 0 0 0 0 0 0 0 0 0 0 0 !+u+w+y+u+w+y+w+w+u+y+u+o+w+w+v+y+w+v+w+u+w+w+w+v+v+F+E+r+o+F+F+H+F+H+H+F+v+o+H+E+w+y+y+x+y+u+x+y+y+x+w+w+n+w+n+n+q+m+{.:.$.^.:.:.^.:.8.2 ~ %+! ! $+$+%+%+Y.Y.Y.Z.Y.Z.Z.Z.Z.Q.Q.Q.Q.Z.++Z.$+$+#+#+#+#+#+d.#+d.#+#+$+#+#+#+d.#+#+#+$+#+$+%+%+%+Z.Z.$+$+$+$+$+$+$+#+#+#+d.d.d.#+d.d.A A d.A A A A A A ] ] ] ( 1 ( ( 1 4 _ _ _ _ _ : : : : : } t t t 8 r 7 6 f 0 d q p G 7.W 5.@.@.l.5.9.W 8.W V V W @.@.=.B E =.L C C E s s r 8 f f y x x t u x x x /.t t 8 _ ' 1 A ] 1 ] ( : [ _ _ _ _ : i ] #+d.1 e.e.@+) ^ / ^ i e.@+Y.Q.T.T.#.I.I.    t 0 0 0 0 0 0 0 0 0 0 0 0 0 0 0 0 0 0 0 0 0 0 0 0 0 0 0 0 0 0 0 0 0 0 0 0 0 0 0 0 0 0 0 0 0 0 0 0 0 0 0 0 0 0 0 0 0 0 0 0 0 0 0 0 0 0 0 0 0 0 0 0 0 0 0 0 0 0 0 0 0 0 0 0 0 0 0 0 0 0 0 0 0 0 0 0 0 0 0 0 0 0 0 0 0 0 0 0 0 0 0 0 0 0 0 0 0 0 0 ",
"0 0 0 0 0 0 0 0 0 0 0 0 0 0 0 0 0 0 0 0 0 0 0 0 0 0 0 0 0 0 0 0 0 0 0 0 0 0 0 0 0 0 0 0 0 0 0 0 0 0 0 0 0 0 0 0 0 0 0 0 0 0 0 0 0 0 0 0 0 0 0 0 0 0 0 0 0 0 0 0 0 0 0 0 0 0 0 0 0 0 0 0 0 0 0 0 0 0 0 0 0 0 0 0 0 0 0 0 0 0 0 0 0 0 0 0 0 0 0 0 0 0 0 0 0 0 0 0 0 0 0 0 f.r+u+w+y+y+u+v+y+y+v+w+v+u+v+u+w+w+u+y+w+v+u+x+u+v+A+H+F+u+!+F+H+H+H+H+A+n+E+F+o+y+x+y+w+x+w+y+n+y+x+u+u+r+n+q+n+m+b.<.c.^.^.:.:.:.:.:.@.D ! ! ! ! $+$+$+$+$+$+%+Z.Z.Y.Z.Z.Y.Z.Z.Z.Z.Z.Z.$+$+#+#+#+#+#+#+#+#+#+#+#+d.#+#+#+#+#+#+$+$+$+$+$+%+%+%+$+$+$+#+$+#+#+#+#+d.d.d.d.d.d.d.A A A A A A A A ] ] ( ( 1 1 1 1 _ _ _ _ _ : : : : : } } } } t 8 8 7 6 f 0 d q p w 8.7.6.5.@.@.@.5.W 9.9.X W I @.4.K F L E O s B I y s q x s f y s j u J t l k k l g J ).: k k f 7 R f j j } : _ _ } _ 1 ] ] A 1 ' d.] ] ^ } '.^ d.#+d.Q.W.N.U.#.I.      0 0 0 0 0 0 0 0 0 0 0 0 0 0 0 0 0 0 0 0 0 0 0 0 0 0 0 0 0 0 0 0 0 0 0 0 0 0 0 0 0 0 0 0 0 0 0 0 0 0 0 0 0 0 0 0 0 0 0 0 0 0 0 0 0 0 0 0 0 0 0 0 0 0 0 0 0 0 0 0 0 0 0 0 0 0 0 0 0 0 0 0 0 0 0 0 0 0 0 0 0 0 0 0 0 0 0 0 0 0 0 0 0 0 0 0 0 0 0 ",
"0 0 0 0 0 0 0 0 0 0 0 0 0 0 0 0 0 0 0 0 0 0 0 0 0 0 0 0 0 0 0 0 0 0 0 0 0 0 0 0 0 0 0 0 0 0 0 0 0 0 0 0 0 0 0 0 0 0 0 0 0 0 0 0 0 0 0 0 0 0 0 0 0 0 0 0 0 0 0 0 0 0 0 0 0 0 0 0 0 0 0 0 0 0 0 0 0 0 0 0 0 0 0 0 0 0 0 0 0 0 0 0 0 0 0 0 0 0 0 0 0 0 0 0 0 0 0 0 0 0 0 0 0 0 f.n+u+w+w+w+w+u+v+y+u+v+w+w+o+u+w+u+w+w+y+w+w+u+y+A+F+F+v+r+E+H+F+E+n+A+H+A+x+y+w+w+y+y+u+y+x+w+w+u+n+n+r+q+m+j+` ` ^.:.^.$.^.:.c.:.c.F 0.0.! ! ! $+$+$+$+$+$+#+$+$+%+%+%+$+Y.%+Z.%+%+$+#+#+#+#+d.#+#+#+#+#+#+d.d.d.#+#+#+#+#+#+$+$+#+$+$+$+$+$+$+#+#+d.d.d.d.d.d.d.A d.d.d.d.A A A ] A A ] ( ( ( ( ( 1 1 _ _ _ _ _ ^ : : : : : } } } t t t 8 7 7 f f d d p v &.8.7.K @.@.K @.5.9.a.a.@.@.K F @.4.y y z C B L B s s 8 u u x s t s C f f s x x k l g u s k k 1.C u y y s u u t _ 1 1 1 1 A A @+d.1 i ^ e.^ d.#+A Y.Q.Q.Y.W.,.#.#.H.  g 7 0 0 0 0 0 0 0 0 0 0 0 0 0 0 0 0 0 0 0 0 0 0 0 0 0 0 0 0 0 0 0 0 0 0 0 0 0 0 0 0 0 0 0 0 0 0 0 0 0 0 0 0 0 0 0 0 0 0 0 0 0 0 0 0 0 0 0 0 0 0 0 0 0 0 0 0 0 0 0 0 0 0 0 0 0 0 0 0 0 0 0 0 0 0 0 0 0 0 0 0 0 0 0 0 0 0 0 0 0 0 0 0 0 0 0 0 0 0 ",
"0 0 0 0 0 0 0 0 0 0 0 0 0 0 0 0 0 0 0 0 0 0 0 0 0 0 0 0 0 0 0 0 0 0 0 0 0 0 0 0 0 0 0 0 0 0 0 0 0 0 0 0 0 0 0 0 0 0 0 0 0 0 0 0 0 0 0 0 0 0 0 0 0 0 0 0 0 0 0 0 0 0 0 0 0 0 0 0 0 0 0 0 0 0 0 0 0 0 0 0 0 0 0 0 0 0 0 0 0 0 0 0 0 0 0 0 0 0 0 0 0 0 0 0 0 0 0 0 0 0 0 0 0 0 0 0 c n+r+u+v+y+u+w+y+w+v+w+u+w+u+v+w+y+w+y+y+u+y+v+A+F+F+s+n+A+F+u+!+F+E+u+y+x+y+w+w+x+y+w+w+u+n+n+r+q+r+m+k+ . .Z ` ` $. . .$.^.:.c.c.y 0.D D D $+#+#+#+#+#+#+$+$+$+$+$+$+$+$+$+$+$+$+#+d.#+#+#+d.d.#+#+#+d.d.d.d.d.d.#+#+#+#+$+$+#+#+$+#+#+#+#+#+d.d.d.d.d.d.A d.A A A A A A A ] ] ] ( ] ( ( 1 1 1 _ _ _ _ _ _ : : : : : } } } t t t t 8 r 7 f f e d q p T %.l.5.W I @.K K 5.@.@.E =.6.@.=.=.P s C z z F L C x y O y P C y y B C B B B z -.J u k /.u f l N u y j j s y j : 2 ] d.A 1 1 A $+d.d.] i i d.d.Z.%+$+Y.Y.Q.|+:+ +#.I.2.    r 0 0 0 0 0 0 0 0 0 0 0 0 0 0 0 0 0 0 0 0 0 0 0 0 0 0 0 0 0 0 0 0 0 0 0 0 0 0 0 0 0 0 0 0 0 0 0 0 0 0 0 0 0 0 0 0 0 0 0 0 0 0 0 0 0 0 0 0 0 0 0 0 0 0 0 0 0 0 0 0 0 0 0 0 0 0 0 0 0 0 0 0 0 0 0 0 0 0 0 0 0 0 0 0 0 0 0 0 0 0 0 0 0 0 0 0 0 ",
"0 0 0 0 0 0 0 0 0 0 0 0 0 0 0 0 0 0 0 0 0 0 0 0 0 0 0 0 0 0 0 0 0 0 0 0 0 0 0 0 0 0 0 0 0 0 0 0 0 0 0 0 0 0 0 0 0 0 0 0 0 0 0 0 0 0 0 0 0 0 0 0 0 0 0 0 0 0 0 0 0 0 0 0 0 0 0 0 0 0 0 0 0 0 0 0 0 0 0 0 0 0 0 0 0 0 0 0 0 0 0 0 0 0 0 0 0 0 0 0 0 0 0 0 0 0 0 0 0 0 0 0 0 0 0 0 0 0 c i+r+y+u+x+w+u+v+w+w+u+w+u+y+w+u+w+y+u+v+u+w+s+F+F+A+n+y+r+E+F+o+y+x+w+w+x+w+w+w+u+y+n+n+q+r+n+m+j+<. .<.<.Z Z ` $.$.$.^.:.:.c.:.J ! D ' D ' ' #+#+#+#+#+#+#+#+#+#+$+#+#+$+$+$+#+#+#+#+#+#+d.d.d.#+d.d.d.d.d.d.d.#+#+#+#+#+#+#+#+#+d.d.d.d.d.d.d.d.d.d.A d.A A ] @+] ] ] ( ] ( 1 ( 1 1 1 _ _ _ _ _ _ ) : : : : : } } } t t t 8 8 r 7 7 f e d q p H <.7.@.7.@.@.4.@.W @.@.6.4.=.L 4.E z d z C z z z F y x C P C C C P C B y z s s y y y C C O O R s l 3.8 u x J k t _ A i m 9 i @+@+) r ) i 1 _ ( _ d.#+Y.Y.Y.Q.|+N.N., #.#.        7 0 0 0 0 0 0 0 0 0 0 0 0 0 0 0 0 0 0 0 0 0 0 0 0 0 0 0 0 0 0 0 0 0 0 0 0 0 0 0 0 0 0 0 0 0 0 0 0 0 0 0 0 0 0 0 0 0 0 0 0 0 0 0 0 0 0 0 0 0 0 0 0 0 0 0 0 0 0 0 0 0 0 0 0 0 0 0 0 0 0 0 0 0 0 0 0 0 0 0 0 0 0 0 0 0 0 0 0 0 0 0 0 0 0 0 ",
"0 0 0 0 0 0 0 0 0 0 0 0 0 0 0 0 0 0 0 0 0 0 0 0 0 0 0 0 0 0 0 0 0 0 0 0 0 0 0 0 0 0 0 0 0 0 0 0 0 0 0 0 0 0 0 0 0 0 0 0 0 0 0 0 0 0 0 0 0 0 0 0 0 0 0 0 0 0 0 0 0 0 0 0 0 0 0 0 0 0 0 0 0 0 0 0 0 0 0 0 0 0 0 0 0 0 0 0 0 0 0 0 0 0 0 0 0 0 0 0 0 0 0 0 0 0 0 0 0 0 0 0 0 0 0 0 0 0 0 0 _.i+r+w+o+x+x+u+w+u+w+y+v+w+x+w+y+w+o+y+o+u+o+E+H+E+A+F+F+A+y+y+w+w+w+y+y+w+w+w+n+r+n+n+n+m+j+$.^.:.<.:.:.<.^.$.$. .$.:.:.:.9+g.u D A A A ' ' ' d.d.d.d.#+#+#+#+#+#+#+#+#+#+#+d.#+d.d.d.#+#+#+d.d.d.d.d.d.d.d.d.#+#+d.d.d.d.d.d.d.d.d.d.d.d.d.A A A A A A A @+] @+] ( ( 1 1 1 1 1 _ [ _ _ : : : : : : : : : } } } t t 8 8 8 r r 7 f e d q p w <.5.9.@.5.K @.@.@.W I @.L =.F B M L z q z v B I B z s C P y B z y x u j k j k 1.R O 1.j s u R j 8 7 : } 2 : j j _ 1 / m / 1 ) / / e.A Y.$+#+' d.d.@+.+S..+.+.+.+S.|+L.M.V.@ 2.      0 0 0 0 0 0 0 0 0 0 0 0 0 0 0 0 0 0 0 0 0 0 0 0 0 0 0 0 0 0 0 0 0 0 0 0 0 0 0 0 0 0 0 0 0 0 0 0 0 0 0 0 0 0 0 0 0 0 0 0 0 0 0 0 0 0 0 0 0 0 0 0 0 0 0 0 0 0 0 0 0 0 0 0 0 0 0 0 0 0 0 0 0 0 0 0 0 0 0 0 0 0 0 0 0 0 0 0 0 0 0 0 0 0 0 ",
"0 0 0 0 0 0 0 0 0 0 0 0 0 0 0 0 0 0 0 0 0 0 0 0 0 0 0 0 0 0 0 0 0 0 0 0 0 0 0 0 0 0 0 0 0 0 0 0 0 0 0 0 0 0 0 0 0 0 0 0 0 0 0 0 0 0 0 0 0 0 0 0 0 0 0 0 0 0 0 0 0 0 0 0 0 0 0 0 0 0 0 0 0 0 0 0 0 0 0 0 0 0 0 0 0 0 0 0 0 0 0 0 0 0 0 0 0 0 0 0 0 0 0 0 0 0 0 0 0 0 0 0 0 0 0 0 0 0 0 0 0 0 6 c i+n+w+u+w+y+v+w+u+y+y+u+u+w+v+u+w+v+y+u+A+F+F+E+s+y+w+u+y+y+y+w+y+w+p+r+n+n+n+q+i+j+^.c.c.0+0+9+c.9+c.:.:.^.<.^.:.c.c.9+8.j b ] ( ] A A A A A d.d.d.d.#+#+#+#+#+#+#+#+d.d.d.d.d.d.#+d.d.d.d.d.d.d.d.d.d.d.d.d.d.d.d.d.d.d.A ] ] A A A A A @+] A A A ] 1 ( 1 ( ( 1 1 1 _ _ ^ [ _ : : : : : } : } } } } t t t 8 8 8 r r 7 f e d q p v X 9+7.W 6.@.K @.@.7.W F I 4.I I F F E E B G F I E P e B F B L O O x s f x x J x J u l 1.R y 1.2+x r d j 8 8 } A A _ t 9 ) t n -.n i ^ '.'.] ' ] A ] ) ] 1 @+d.@+@+.+Q.N.|+ +I.H.      r 0 0 0 0 0 0 0 0 0 0 0 0 0 0 0 0 0 0 0 0 0 0 0 0 0 0 0 0 0 0 0 0 0 0 0 0 0 0 0 0 0 0 0 0 0 0 0 0 0 0 0 0 0 0 0 0 0 0 0 0 0 0 0 0 0 0 0 0 0 0 0 0 0 0 0 0 0 0 0 0 0 0 0 0 0 0 0 0 0 0 0 0 0 0 0 0 0 0 0 0 0 0 0 0 0 0 0 0 0 0 0 0 0 0 ",
"0 0 0 0 0 0 0 0 0 0 0 0 0 0 0 0 0 0 0 0 0 0 0 0 0 0 0 0 0 0 0 0 0 0 0 0 0 0 0 0 0 0 0 0 0 0 0 0 0 0 0 0 0 0 0 0 0 0 0 0 0 0 0 0 0 0 0 0 0 0 0 0 0 0 0 0 0 0 0 0 0 0 0 0 0 0 0 0 0 0 0 0 0 0 0 0 0 0 0 0 0 0 0 0 0 0 0 0 0 0 0 0 0 0 0 0 0 0 0 0 0 0 0 0 0 0 0 0 0 0 0 0 0 0 0 0 0 0 0 0 0 0 0       !+r+v+y+u+y+y+u+w+x+y+x+x+w+y+w+o+w+w+w+u+u+w+v+y+w+y+w+w+y+y+w+n+n+r+n+r+m+j+<.:.9+9+0+0+9+c.^.<.^.<.^.^.:.:.:.:.c.:.%.j ( ( ( ( ] ( ] ] ] A A ' d.A d.d.d.d.d.d.d.d.d.d.d.d.d.d.d.d.d.d.d.d.d.@+d.d.d.d.d.d.A A A A A A A ] ] A A A ] ( ] ( ] ( ( 1 1 1 1 _ i _ ^ ^ ) : : : : } } } } } t t t t t t t 8 8 r r 7 f e d q p v ..<.7.l.K K @.@.K I Q W I @.K F =.E F =.K E z E F B z z p B z v C d 0 v q C C C y x u u R /.R L M u 1.x p f 8 _ ^ ) i ) 8 d 7 6 8 n 6 8 } j : ] d.' A A ] ' #+#+Y.Y.Z.Q.Y.Q.:+ +#.#.  k -.6 0 0 0 0 0 0 0 0 0 0 0 0 0 0 0 0 0 0 0 0 0 0 0 0 0 0 0 0 0 0 0 0 0 0 0 0 0 0 0 0 0 0 0 0 0 0 0 0 0 0 0 0 0 0 0 0 0 0 0 0 0 0 0 0 0 0 0 0 0 0 0 0 0 0 0 0 0 0 0 0 0 0 0 0 0 0 0 0 0 0 0 0 0 0 0 0 0 0 0 0 0 0 0 0 0 0 0 0 0 0 0 0 0 ",
"0 0 0 0 0 0 0 0 0 0 0 0 0 0 0 0 0 0 0 0 0 0 0 0 0 0 0 0 0 0 0 0 0 0 0 0 0 0 0 0 0 0 0 0 0 0 0 0 0 0 0 0 0 0 0 0 0 0 0 0 0 0 0 0 0 0 0 0 0 0 0 0 0 0 0 0 0 0 0 0 0 0 0 0 0 0 0 0 0 0 0 0 0 0 0 0 0 0 0 0 0 0 0 0 0 0 0 0 0 0 0 0 0 0 0 0 0 0 0 0 0 0 0 0 0 0 0 0 0 0 0 0 0 0 0 0 0 0 0 0 0 0 7       3 A @+!+r+r+x+x+y+x+y+w+x+y+w+v+u+x+w+y+u+u+y+y+y+w+v+x+y+y+y+y+w+n+q+n+m+j+Z :.c.:.9+:.^.<.Z <.^.:.^.:.:.:.9+c.^.^.:.:.7.j _ _ _ _ ( 1 ( ( ] ] A A A A A A A A d.A d.d.d.d.d.A A A @+A d.A A A A A A d.d.A A d.A A A ] ] ] ] ] ] ] ] ] ( ( 1 1 1 1 1 1 _ _ _ ^ ) ) : : : : : } } } } } t t t t 8 t 8 8 J r r 7 f e e q p v G c.5.l.7.K @.@.@.@.Q I K &.@.K K B E B E H E B K F L E B E z E w v C C z z z C P z z s x 1.1./.u u 1.x R J u J 7 f 7 } } t : : u r J J 8 t : _ ( : } ) ] 1 ] $+Q.W.N.Q.Q.S.S.Y.Q.|+I.2.h     J 0 0 0 0 0 0 0 0 0 0 0 0 0 0 0 0 0 0 0 0 0 0 0 0 0 0 0 0 0 0 0 0 0 0 0 0 0 0 0 0 0 0 0 0 0 0 0 0 0 0 0 0 0 0 0 0 0 0 0 0 0 0 0 0 0 0 0 0 0 0 0 0 0 0 0 0 0 0 0 0 0 0 0 0 0 0 0 0 0 0 0 0 0 0 0 0 0 0 0 0 0 0 0 0 0 0 0 0 0 0 0 0 ",
"0 0 0 0 0 0 0 0 0 0 0 0 0 0 0 0 0 0 0 0 0 0 0 0 0 0 0 0 0 0 0 0 0 0 0 0 0 0 0 0 0 0 0 0 0 0 0 0 0 0 0 0 0 0 0 0 0 0 0 0 0 0 0 0 0 0 0 0 0 0 0 0 0 0 0 0 0 0 0 0 0 0 0 0 0 0 0 0 0 0 0 0 0 0 0 0 0 0 0 0 0 0 0 0 0 0 0 0 0 0 0 0 0 0 0 0 0 0 0 0 0 0 0 0 0 0 0 0 0 0 0 0 0 0 0 0 0 0 0 (.7 t J 9.      ( ] _ ) } !+i+r+n+p+w+y+u+u+x+y+x+w+w+y+y+x+y+o+w+y+y+w+w+y+n+n+r+r+m+}.W Z $.^.^.$. . .<.:.c.^.^.^.:.:.:. .^. .^.:.c.c.7.t : : _ _ 1 1 1 1 ( ( ( ] ] ] A A A A A A A A A A A A @+A ] A @+] A ] @+A ] ] A A ] ] ] ] ] @+] ] ( ( ( ( 1 1 1 1 1 1 i _ _ ^ ) ) : : : : : : } } } } } t t t t 8 8 8 8 8 8 r 7 7 f e d d p v S g.g.5.5.6.@.Q K K K Q Q E Q I K K K F E F E E 4.K Q G =.F E E z F z C y r r C y y s s u r j u J C y x z C R O L s x s J : j j k k u O e s t : t x J 7 e 8 : 1 ) '.] $+Q.W.N.W.Y.Y.Q.W. +I.  f 0 0 0 0 0 0 0 0 0 0 0 0 0 0 0 0 0 0 0 0 0 0 0 0 0 0 0 0 0 0 0 0 0 0 0 0 0 0 0 0 0 0 0 0 0 0 0 0 0 0 0 0 0 0 0 0 0 0 0 0 0 0 0 0 0 0 0 0 0 0 0 0 0 0 0 0 0 0 0 0 0 0 0 0 0 0 0 0 0 0 0 0 0 0 0 0 0 0 0 0 0 0 0 0 0 0 0 0 0 0 0 0 0 ",
"0 0 0 0 0 0 0 0 0 0 0 0 0 0 0 0 0 0 0 0 0 0 0 0 0 0 0 0 0 0 0 0 0 0 0 0 0 0 0 0 0 0 0 0 0 0 0 0 0 0 0 0 0 0 0 0 0 0 0 0 0 0 0 0 0 0 0 0 0 0 0 0 0 0 0 0 0 0 0 0 0 0 0 0 0 0 0 0 0 0 0 0 0 0 0 0 0 0 0 0 0 0 0 0 0 0 0 0 0 0 0 0 0 0 0 0 0 0 0 0 0 0 0 0 0 0 0 0 0 0 0 0 0 0 0 0 0 0 0 p     < - ' A D ( ) ) } m d q v c a i+m+q+u+y+u+x+y+x+x+w+w+y+y+x+y+y+u+r+n+n+r+n+l+~.E E K ` $.$.^.^.:.:.c.9+9+0+0+0+9+<.^.:.:.c.c.c.:.c.5.J : } : : : ) ^ _ 1 1 1 1 ( 1 1 ] ] ] ] ( ] ] ] ] ] @+@+] ] @+] ] @+] ] ] ] ( ] ] ] ( 1 1 ( 1 1 1 1 1 1 1 1 1 _ _ [ [ _ ) : : : : } } } } } } t t t t t 8 t 8 8 8 8 r r r 7 s f e e d q v H g.<.8.5.W 9.Q @.Q Q Q Q W I K @.E F E z F E B L F I I E F L C z B C B y y C y 7 f y f 7 r u x J x y F B P M O R /.u j u x J s u x J j j u s s t : _ : ) i i } t : } ( 8 } ^ ' Q.N.L.N.L.#.I.    k 0 0 0 0 0 0 0 0 0 0 0 0 0 0 0 0 0 0 0 0 0 0 0 0 0 0 0 0 0 0 0 0 0 0 0 0 0 0 0 0 0 0 0 0 0 0 0 0 0 0 0 0 0 0 0 0 0 0 0 0 0 0 0 0 0 0 0 0 0 0 0 0 0 0 0 0 0 0 0 0 0 0 0 0 0 0 0 0 0 0 0 0 0 0 0 0 0 0 0 0 0 0 0 0 0 0 0 0 0 0 0 0 ",
"0 0 0 0 0 0 0 0 0 0 0 0 0 0 0 0 0 0 0 0 0 0 0 0 0 0 0 0 0 0 0 0 0 0 0 0 0 0 0 0 0 0 0 0 0 0 0 0 0 0 0 0 0 0 0 0 0 0 0 0 0 0 0 0 0 0 0 0 0 0 0 0 0 0 0 0 0 0 0 0 0 0 0 0 0 0 0 0 0 0 0 0 0 0 0 0 0 0 0 0 0 0 0 0 0 0 0 0 0 0 0 0 0 0 0 0 0 0 0 0 0 0 0 0 0 0 0 0 0 0 0 0 0 0 0 0 0 0 f s       - { A 1 i ) 9 7 d v H v v v I S B+o a l+l+m+r+n+n+n+x+w+x+y+x+p+r+r+r+q+l+v E F I Q X  .$.^.9+9+c.9+9+0+0+9+<. .^.^.:.:.:.:.c.c.<.c.&.s t t } } } : : ^ _ _ _ _ 1 1 1 1 1 ( 1 1 1 ( ( 1 ( ( ( ( 1 ( 1 1 ( 1 1 ( 1 1 ( 1 ( 1 1 1 1 1 1 1 _ _ i [ _ [ ) ) : : : : : } } } } } t t t t t t t 8 8 8 8 8 8 r r 7 7 f f e e d p v w Z 9+<.%.W 9.9.W @.W I @.V I F @.4.Q K F E Q 6.I K K E I F L C y y z C y z B F P L z C y B f 7 8 C C y B E F L I E z C y u s C J B C C 1.j k R u t k j _ ( 1 ' ( ] 1 : } ) : } t _ A W.W.N.L.I.H.      -.0 0 0 0 0 0 0 0 0 0 0 0 0 0 0 0 0 0 0 0 0 0 0 0 0 0 0 0 0 0 0 0 0 0 0 0 0 0 0 0 0 0 0 0 0 0 0 0 0 0 0 0 0 0 0 0 0 0 0 0 0 0 0 0 0 0 0 0 0 0 0 0 0 0 0 0 0 0 0 0 0 0 0 0 0 0 0 0 0 0 0 0 0 0 0 0 0 0 0 0 0 0 0 0 0 0 0 0 0 0 ",
"0 0 0 0 0 0 0 0 0 0 0 0 0 0 0 0 0 0 0 0 0 0 0 0 0 0 0 0 0 0 0 0 0 0 0 0 0 0 0 0 0 0 0 0 0 0 0 0 0 0 0 0 0 0 0 0 0 0 0 0 0 0 0 0 0 0 0 0 0 0 0 0 0 0 0 0 0 0 0 0 0 0 0 0 0 0 0 0 0 0 0 0 0 0 0 0 0 0 0 0 0 0 0 0 0 0 0 0 0 0 0 0 0 0 0 0 0 0 0 0 0 0 0 0 0 0 0 0 0 0 0 0 0 0 0 0 r           ! D 1 i i [ 8 -.d p G H z v w B+D+U S w H H H H H C+}.o a c i+i+i+i+k+k+o E B E I F I W ^.c.c.:.^.c.c.9+9+9+ . .:.^.:.^.^.^.:.9+9+c.g. .X C J 8 8 t t t } } : : _ ^ ^ _ 1 1 1 1 1 i 1 1 1 1 1 1 1 1 1 1 1 1 1 1 1 1 1 1 1 i _ i ^ [ [ _ _ ^ ^ ) ) ) : : : : } } } } t t t t t t t t t t 8 8 8 8 r r r r r 7 7 f f e d q p v w %.0+:.<.Z &.@.W W F Q W Q V I Q 6.I @.K =.E B B =.F I E F B B z B C B B G F F F F M C L C 7 s s G E E F F K L M x s x s s s y r x C y s P P 1.R e u x y 8 8 7 6 m ) t } _ _ } t : ( ^ ( $+Q.N.:+I.h 2.    -.0 0 0 0 0 0 0 0 0 0 0 0 0 0 0 0 0 0 0 0 0 0 0 0 0 0 0 0 0 0 0 0 0 0 0 0 0 0 0 0 0 0 0 0 0 0 0 0 0 0 0 0 0 0 0 0 0 0 0 0 0 0 0 0 0 0 0 0 0 0 0 0 0 0 0 0 0 0 0 0 0 0 0 0 0 0 0 0 0 0 0 0 0 0 0 0 0 0 0 0 0 0 0 0 0 0 0 0 0 ",
"0 0 0 0 0 0 0 0 0 0 0 0 0 0 0 0 0 0 0 0 0 0 0 0 0 0 0 0 0 0 0 0 0 0 0 0 0 0 0 0 0 0 0 0 0 0 0 0 0 0 0 0 0 0 0 0 0 0 0 0 0 0 0 0 0 0 0 0 0 0 0 0 0 0 0 0 0 0 0 0 0 0 0 0 0 0 0 0 0 0 0 0 0 0 0 0 0 0 0 0 0 0 0 0 0 0 0 0 0 0 0 0 0 0 0 0 0 0 0 0 0 0 0 0 0 0 0 0 0 0 0 0 0 0 0 -.8           A 1 1 / 5 6 e q w H H p p H S T T ..*.T S S H B+S H H H w E E L B B B E p B F I I K @.W `  .$.^.^.:.:.c.c.^.<.c.:.:.^.$.^.:.c.c.9+c.c.Z Y ` B r r r 8 8 t t t } } : : : : : [ ^ ^ ^ [ [ i _ _ _ i i i ^ i ^ ^ i _ i ^ _ _ ^ ^ ) ) ) ) : : : : : : : } } } } } } t t t t t t 8 8 8 t 8 8 8 8 J r r r r r s f f e e d q p v w &.9+:.<.%.V W V &.Q F &.Q V W F I K 6.K K F E z E B F E L F I I F F Q I @.V F P O y B y J r s s E Q I F E E C s x s s x J u } t : t y B O x L O u O 1./.u x r 8 m t j _ t J 7 } : _ _ : ' #+S.Q.L.V.I.2.      -.0 0 0 0 0 0 0 0 0 0 0 0 0 0 0 0 0 0 0 0 0 0 0 0 0 0 0 0 0 0 0 0 0 0 0 0 0 0 0 0 0 0 0 0 0 0 0 0 0 0 0 0 0 0 0 0 0 0 0 0 0 0 0 0 0 0 0 0 0 0 0 0 0 0 0 0 0 0 0 0 0 0 0 0 0 0 0 0 0 0 0 0 0 0 0 0 0 0 0 0 0 0 0 0 0 0 0 0 ",
"0 0 0 0 0 0 0 0 0 0 0 0 0 0 0 0 0 0 0 0 0 0 0 0 0 0 0 0 0 0 0 0 0 0 0 0 0 0 0 0 0 0 0 0 0 0 0 0 0 0 0 0 0 0 0 0 0 0 0 0 0 0 0 0 0 0 0 0 0 0 0 0 0 0 0 0 0 0 0 0 0 0 0 0 0 0 0 0 0 0 0 0 0 0 0 0 0 0 0 0 0 0 0 0 0 0 0 0 0 0 0 0 0 0 0 0 0 0 0 0 0 0 0 0 0 0 0 0 0 0 0 0 0 0 e           ~ ' ( '.h.m 0 q w w H G I v F ........Y Z ` ..T T T T T +...T C+H H E v v F F @.I I I F E @.Z :.:.^.^.^.:.:.^. .$.$.^.<. .^.:.:.:.c.c.9+:.%.Y ` ` I s f s 7 r 8 8 8 t t } } } } : : : : ) : : ) ) ^ ^ ^ ^ ) ) _ ) ) ) ) : : ) : : : } : : : } : } } } } } t t t t t t 8 t 8 t 8 8 8 8 8 r r r r r r r r r f f f e e d q p v w V c.c.c.%.&.V W &.V T I Q V Q K G 4.K L B K Q I K E B B C K @.F E I Q &...I v y C P y s x s s s f s P E E P P C B v C y x s r f f B O P y M R M O M y O x s 4.B B I E C s : t x J r } _ _ [ ^ *+S.|+U.M.I.2.2.        7 0 0 0 0 0 0 0 0 0 0 0 0 0 0 0 0 0 0 0 0 0 0 0 0 0 0 0 0 0 0 0 0 0 0 0 0 0 0 0 0 0 0 0 0 0 0 0 0 0 0 0 0 0 0 0 0 0 0 0 0 0 0 0 0 0 0 0 0 0 0 0 0 0 0 0 0 0 0 0 0 0 0 0 0 0 0 0 0 0 0 0 0 0 0 0 0 0 0 0 0 0 0 0 0 0 ",
"0 0 0 0 0 0 0 0 0 0 0 0 0 0 0 0 0 0 0 0 0 0 0 0 0 0 0 0 0 0 0 0 0 0 0 0 0 0 0 0 0 0 0 0 0 0 0 0 0 0 0 0 0 0 0 0 0 0 0 0 0 0 0 0 0 0 0 0 0 0 0 0 0 0 0 0 0 0 0 0 0 0 0 0 0 0 0 0 0 0 0 0 0 0 0 0 0 0 0 0 0 0 0 0 0 0 0 0 0 0 0 0 0 0 0 0 0 0 0 0 0 0 0 0 0 0 0 0 0 0 0 f               0.A i / 9 ).e p w S ..V T w v S ..*.Y ..Y V Q I G ....*.*.Y ` X X &.H F I F F I F F F E E F F Q ` ;.;.$. . . .^.:.^.^.$.$.^.^.^.^.^.^.:.^.^.Z Y Y  .^.W z e e f f r r 8 8 8 t t t t } } } } } } } } } : } : : } : } } } } } } } } } } } } } } t t } t t t t t 8 t t 8 t 8 8 8 J J 8 r r r r r r r r r 7 s f f f e e d q p v H V c.9+c.:.8.W W V &.Q ` W V W I G I K F F =.F @.K K L B F E L K I B q z z z y B B B P P B B C s s y C y P E E I I F @.F L P z y f e y O O P y C y 1.R R C x C O u R M =.4.E C x y y u s r : } j A Z.$+Y.Q.U.#.@           J 0 0 0 0 0 0 0 0 0 0 0 0 0 0 0 0 0 0 0 0 0 0 0 0 0 0 0 0 0 0 0 0 0 0 0 0 0 0 0 0 0 0 0 0 0 0 0 0 0 0 0 0 0 0 0 0 0 0 0 0 0 0 0 0 0 0 0 0 0 0 0 0 0 0 0 0 0 0 0 0 0 0 0 0 0 0 0 0 0 0 0 0 0 0 0 0 0 0 0 0 0 0 0 0 ",
"0 0 0 0 0 0 0 0 0 0 0 0 0 0 0 0 0 0 0 0 0 0 0 0 0 0 0 0 0 0 0 0 0 0 0 0 0 0 0 0 0 0 0 0 0 0 0 0 0 0 0 0 0 0 0 0 0 0 0 0 0 0 0 0 0 0 0 0 0 0 0 0 0 0 0 0 0 0 0 0 0 0 0 0 0 0 0 0 0 0 0 0 0 0 0 0 0 0 0 0 0 0 0 0 0 0 0 0 0 0 0 0 0 0 0 0 0 0 0 0 0 0 0 0 0 0 0 0 0 0 0 (.r         = 3 ] ^ | h.!.q w H G V %.V S q w H H T Q T X Y V W Q Q ......*.X &.&.I K K E E K K E B E E F F F G Y ;.$.$.$. .^.^.^.^.^.^.^.$.^.^.^.:.^.^.^.$.$.X ` `  .$.Z E e e e f f 7 r r r 8 8 8 8 t t t t t t t t } } } } t } t t t } t t t t t t t t t t t t t 8 t 8 8 8 8 8 8 8 r J r r r r r r r 7 7 r r r s s f f f e e d d q p v H X 9+c.c.:.<.Z 5.7.Q &.X %.%.&.W @.@.E F 4.V ..Q =.F F F B L z B B w I E E B E K K =.L L =.=.K K F C B @.=.=.L =.E F 4.L P z y s x y P B B y y s y P z s j 1.u C O u x L P C S w B y B F C q v q J } ! %+Y.Y.W.M.@ I.h       7 0 0 0 0 0 0 0 0 0 0 0 0 0 0 0 0 0 0 0 0 0 0 0 0 0 0 0 0 0 0 0 0 0 0 0 0 0 0 0 0 0 0 0 0 0 0 0 0 0 0 0 0 0 0 0 0 0 0 0 0 0 0 0 0 0 0 0 0 0 0 0 0 0 0 0 0 0 0 0 0 0 0 0 0 0 0 0 0 0 0 0 0 0 0 0 0 0 0 0 0 0 0 0 0 ",
"0 0 0 0 0 0 0 0 0 0 0 0 0 0 0 0 0 0 0 0 0 0 0 0 0 0 0 0 0 0 0 0 0 0 0 0 0 0 0 0 0 0 0 0 0 0 0 0 0 0 0 0 0 0 0 0 0 0 0 0 0 0 0 0 0 0 0 0 0 0 0 0 0 0 0 0 0 0 0 0 0 0 0 0 0 0 0 0 0 0 0 0 0 0 0 0 0 0 0 0 0 0 0 0 0 0 0 0 0 0 0 0 0 0 0 0 0 0 0 0 0 0 0 0 0 0 0 0 0 0 0 8         < ! ( ] '.9 m p w q G ..Y ..w v v w H S B+..Y  .V V %.%.&.G ..T ........Q I E F I F E B B z F I I @.Q X $.:.:.^.:.:.:.^.^.^.$. .^.^.^.:.:.^.$.$.:.$.` ` `  .^.:.<.G q z d e e f f s 7 7 r 7 r 8 8 8 8 8 8 8 8 8 8 t 8 8 8 8 8 8 8 8 8 8 8 8 8 8 8 8 8 8 8 8 8 8 r 8 r r r r r r r r r r 7 7 r s s f f f f f f e e e d q p v w H X 9+9+c.c.<.Z &.%.l.V &.%.<.%.&.G E E @.I I Q W W K I I F 4.K C q H w v G H E I I G K 4.K 4.L K &.W E E 4.4.L 4.=.P O y y s J s y e d s x s s s s s y B z y y j x z R /.y E C s y C s B C y z C y f r _ ! Z.Q.N.N.#.H.2.      -.0 0 0 0 0 0 0 0 0 0 0 0 0 0 0 0 0 0 0 0 0 0 0 0 0 0 0 0 0 0 0 0 0 0 0 0 0 0 0 0 0 0 0 0 0 0 0 0 0 0 0 0 0 0 0 0 0 0 0 0 0 0 0 0 0 0 0 0 0 0 0 0 0 0 0 0 0 0 0 0 0 0 0 0 0 0 0 0 0 0 0 0 0 0 0 0 0 0 0 0 0 0 0 0 ",
"0 0 0 0 0 0 0 0 0 0 0 0 0 0 0 0 0 0 0 0 0 0 0 0 0 0 0 0 0 0 0 0 0 0 0 0 0 0 0 0 0 0 0 0 0 0 0 0 0 0 0 0 0 0 0 0 0 0 0 0 0 0 0 0 0 0 0 0 0 0 0 0 0 0 0 0 0 0 0 0 0 0 0 0 0 0 0 0 0 0 0 0 0 0 0 0 0 0 0 0 0 0 0 0 0 0 0 0 0 0 0 0 0 0 0 0 0 0 0 0 0 0 0 0 0 0 0 0 0 0 0 -.      ! ~ 0.] ^ n d q w ..V I Q T S v p v H G T ..X X X V V W V V V ..V Y X X V @.B F I F E B B F H I K K @.W &.<.^.^.$.:.:.<. .^.^.^.$. .^.^.:.:. .$.$.$. .Y `  . . .<.$.^.%.w q q z d d e f f f 7 7 7 r r r r r r r 8 r 8 r r r 8 8 r r 8 r r r r r r r r 7 r r r r 7 7 7 r r r 7 r 7 r 7 r s f s s f f f f f e e e d d q q p v w H &.c.9+9+c.:.Z Y %.Z &.V V 8.<.Z Q I I Q G G K W W W W 9.@.4.I F w B w Q Q Q Q W @.W @.L z y y =.P @.6.W E L 6.W K F z B y C z C z d q z y z y B P y s P E B y s f k y s j M F G B s O w z y R O y u s r J _ ) d.Q.|+N.$ I.      7 0 0 0 0 0 0 0 0 0 0 0 0 0 0 0 0 0 0 0 0 0 0 0 0 0 0 0 0 0 0 0 0 0 0 0 0 0 0 0 0 0 0 0 0 0 0 0 0 0 0 0 0 0 0 0 0 0 0 0 0 0 0 0 0 0 0 0 0 0 0 0 0 0 0 0 0 0 0 0 0 0 0 0 0 0 0 0 0 0 0 0 0 0 0 0 0 0 0 0 0 0 0 0 0 ",
"0 0 0 0 0 0 0 0 0 0 0 0 0 0 0 0 0 0 0 0 0 0 0 0 0 0 0 0 0 0 0 0 0 0 0 0 0 0 0 0 0 0 0 0 0 0 0 0 0 0 0 0 0 0 0 0 0 0 0 0 0 0 0 0 0 0 0 0 0 0 0 0 0 0 0 0 0 0 0 0 0 0 0 0 0 0 0 0 0 0 0 0 0 0 0 0 0 0 0 0 0 0 0 0 0 0 0 0 0 0 0 0 0 0 0 0 0 0 0 0 0 0 0 0 0 0 0 f 7 0 0 0 e       ! A ) 5 d w v S G H H G S v p v S S T ..V *.V X %.&.&.&.&.8.%.Z <.<.8.%.K @.W F E B p w I Q W W @.F F G X <.$.$.^. . .$.^.^.<.^.$. .$. . . .^.<. .` ;. .$.$.$.$. .:.:.:...v p B q d d d e e f f f f 7 7 f 7 7 7 7 7 7 7 7 7 r r 7 7 r r 7 7 7 7 7 7 7 7 7 r r 7 7 f 7 r 7 r f f f f f f f f f e e f e e e d d q q p v w w H &.9+c.:.c.:.:.%.V ..&.&.&.%.5.Z 9.I Q I W W V 5.7.5.9.@.@.I F F =.z F v K W Q I I Q @.K @.9.K =.y =.M @.4.E y =.@.9.8.7.I E C C B z z w F F C e s z u s s u R y s J t j R j y 6+B =.F M C B C s x x z f t d s 8 t @+$+W.U.V.          0 0 0 0 0 0 0 0 0 0 0 0 0 0 0 0 0 0 0 0 0 0 0 0 0 0 0 0 0 0 0 0 0 0 0 0 0 0 0 0 0 0 0 0 0 0 0 0 0 0 0 0 0 0 0 0 0 0 0 0 0 0 0 0 0 0 0 0 0 0 0 0 0 0 0 0 0 0 0 0 0 0 0 0 0 0 0 0 0 0 0 0 0 0 0 0 0 0 0 0 0 0 0 ",
"0 0 0 0 0 0 0 0 0 0 0 0 0 0 0 0 0 0 0 0 0 0 0 0 0 0 0 0 0 0 0 0 0 0 0 0 0 0 0 0 0 0 0 0 0 0 0 0 0 0 0 0 0 0 0 0 0 0 0 0 0 0 0 0 0 0 0 0 0 0 0 0 0 0 0 0 0 0 0 0 0 0 0 0 0 0 0 0 0 0 0 0 0 0 0 0 0 0 0 0 0 0 0 0 0 0 0 0 0 0 0 0 0 0 0 0 0 0 0 0 0 0 0 0 0 0 0 0 r m t }   3 %+~ ] 1 9 d v G S &.H X V ..H H v G S ....Q V X %.%.Z V V X %.X <.<.<.<.%.W W Q K F K I G Q G F F E I I 9.W &.<.<.$. . . .$.$.^.^.^.:.c.c.:.:.^.:.^.^.$.^.$. . . .$.^.^.^.<. .%.S v v p q q d d e e e e e e f f f f f f f f f f f f f f f s f f f f f f s f f f f f f f f f f f f f e e e e e e e e e e e d d q q p p v w H S X 0+9+:.:.:.c.^.Z ....X V V  .<.Z 5.&.7.7.I W 5.%.8.@.5.6.W W V F H I F I F E @.Z Z W W @.m.4.K I w z P P 4.P M M =.=.L L y C B z e C z F K E z y s C s r y C y s x R s } x t u P C E =.M s Q F B O t t r u : r 8 t : #+Z.L.#.#.H.        7 0 0 0 0 0 0 0 0 0 0 0 0 0 0 0 0 0 0 0 0 0 0 0 0 0 0 0 0 0 0 0 0 0 0 0 0 0 0 0 0 0 0 0 0 0 0 0 0 0 0 0 0 0 0 0 0 0 0 0 0 0 0 0 0 0 0 0 0 0 0 0 0 0 0 0 0 0 0 0 0 0 0 0 0 0 0 0 0 0 0 0 0 0 0 0 0 0 0 0 0 0 ",
"0 0 0 0 0 0 0 0 0 0 0 0 0 0 0 0 0 0 0 0 0 0 0 0 0 0 0 0 0 0 0 0 0 0 0 0 0 0 0 0 0 0 0 0 0 0 0 0 0 0 0 0 0 0 0 0 0 0 0 0 0 0 0 0 0 0 0 0 0 0 0 0 0 0 0 0 0 0 0 0 0 0 0 0 0 0 0 0 0 0 0 0 0 0 0 0 0 0 0 0 0 0 0 0 0 0 0 0 0 0 0 0 0 0 0 0 0 0 0 0 0 0 0 0 0 0 0 0 -.      < < ~ d.i / e v T &.X ..G ..I H w H H S T G S V V Z &.%.%.%.V &.X Z Z  .<.%.X W I F E E E F I G I K H I G W I F @.&.`  .$. . .<.^.^.<.^. .$.^.^.$.<.^.^.^.$. . . . . .$.$.$.^. .$.<.<.&.H v v p p q q d d d e e e d e e e e e e e e e e e e f e e e f e e f f f f f e e e e e e e e e e e e e e e e e d d d q q p p p v w H S T <.0+9+9+:.:.^.c.<.X X T ..V X Z 8.%.%.5.V Q W W Q 5.9.7.a.@.Q 5.5.5.K F F I F I G &.5.9.a.L F =.K B z B B y 9.B y L L =.B B B z z y B w F E E @.y y s x J y z y d s z f f J x s : B L H L O C s L B C f r : ( t e _ _ 1 ( d.#+Q.U.I.H.        f 0 0 0 0 0 0 0 0 0 0 0 0 0 0 0 0 0 0 0 0 0 0 0 0 0 0 0 0 0 0 0 0 0 0 0 0 0 0 0 0 0 0 0 0 0 0 0 0 0 0 0 0 0 0 0 0 0 0 0 0 0 0 0 0 0 0 0 0 0 0 0 0 0 0 0 0 0 0 0 0 0 0 0 0 0 0 0 0 0 0 0 0 0 0 0 0 0 0 0 0 ",
"0 0 0 0 0 0 0 0 0 0 0 0 0 0 0 0 0 0 0 0 0 0 0 0 0 0 0 0 0 0 0 0 0 0 0 0 0 0 0 0 0 0 0 0 0 0 0 0 0 0 0 0 0 0 0 0 0 0 0 0 0 0 0 0 0 0 0 0 0 0 0 0 0 0 0 0 0 0 0 0 0 0 0 0 0 0 0 0 0 0 0 0 0 0 0 0 0 0 0 0 0 0 0 0 0 0 0 0 0 0 0 0 0 0 0 0 0 0 0 0 0 0 0 0 0 0 0 0 -.j       ++A e.9 e p T T ....I I V I G F G H S ..Q &.X X ` %.Z %.X V Z <.8.<. . .Z V I I I @.K I I F E F E F G I F F F K V  . . .<.<.^.^.$.<. . .^.^.^.^.$. .$. . . . .$.$.$.:.:.^. .$.<. .^.^.<.&.H w v v v p q q q q d d d d d d d d e d d d d d d e e e e e e e e e e e e e e e e d e e e d d d d d d d z q q q p p v v w w H S ..c.9+9+c.c.c.^.^.$.%.Z X X ..V V &.&.%.Z &.Q Q &.6.X @.K 4.W 9.9.I G K I I @.Q I W W I K 4.4.K 4.K =.=.C C F B K z y L I F K F B z C v s B E B B F L z s s s J t r y 7 r C j r x P J s E I L P B C E K ..B C F d r t s } ) _ 1 $+W.W.U.2.2.  l 7 t 0 0 0 0 0 0 0 0 0 0 0 0 0 0 0 0 0 0 0 0 0 0 0 0 0 0 0 0 0 0 0 0 0 0 0 0 0 0 0 0 0 0 0 0 0 0 0 0 0 0 0 0 0 0 0 0 0 0 0 0 0 0 0 0 0 0 0 0 0 0 0 0 0 0 0 0 0 0 0 0 0 0 0 0 0 0 0 0 0 0 0 0 0 0 0 0 0 0 0 0 ",
"0 0 0 0 0 0 0 0 0 0 0 0 0 0 0 0 0 0 0 0 0 0 0 0 0 0 0 0 0 0 0 0 0 0 0 0 0 0 0 0 0 0 0 0 0 0 0 0 0 0 0 0 0 0 0 0 0 0 0 0 0 0 0 0 0 0 0 0 0 0 0 0 0 0 0 0 0 0 0 0 0 0 0 0 0 0 0 0 0 0 0 0 0 0 0 0 0 0 0 0 0 0 0 0 0 0 0 0 0 0 0 0 0 0 0 0 0 0 0 0 0 0 0 0 0 0 0 0 8     = - ' 1 ^ 0 d G Q W G w v G I Q G &.V w T T T *.X X X %.Z Z X <.<.<.<.Z <. .Z %.&.Q 5.W @.W ..Q @...Q G G Q W Q I Q .. .^.^.:.^.$. .$.^.<.:.:.^.^.$.$.$.$. .$.$.^. .^.^.:.:.<.^.^. . .^. .^.^.:.&.S w w v v v p q q q q q q q q q d d d d d d d d d d d d d d e d d d d d d d d d d d d d d z q z q q q q p v v w w w H S G X 9+9+9+c.9+:.:.^.^.Y X X X V ....Y X W W V V Q 9.@.5.W @.W @.@.W Q G G @.V W &.&.W W 5.I F V @.6.K B K =.E B v F L y y =...I E F F F H F z r 8 s C P y y x C s x z s x s t C d 8 s E C s E C B B C L H C =.B B v z F B f s : _ _ 1 .+Q.++U.#.E.h j 0 7 0 0 0 0 0 0 0 0 0 0 0 0 0 0 0 0 0 0 0 0 0 0 0 0 0 0 0 0 0 0 0 0 0 0 0 0 0 0 0 0 0 0 0 0 0 0 0 0 0 0 0 0 0 0 0 0 0 0 0 0 0 0 0 0 0 0 0 0 0 0 0 0 0 0 0 0 0 0 0 0 0 0 0 0 0 0 0 0 0 0 0 0 0 0 0 0 0 0 0 ",
"0 0 0 0 0 0 0 0 0 0 0 0 0 0 0 0 0 0 0 0 0 0 0 0 0 0 0 0 0 0 0 0 0 0 0 0 0 0 0 0 0 0 0 0 0 0 0 0 0 0 0 0 0 0 0 0 0 0 0 0 0 0 0 0 0 0 0 0 0 0 0 0 0 0 0 0 0 0 0 0 0 0 0 0 0 0 0 0 0 0 0 0 0 0 0 0 0 0 0 0 0 0 0 0 0 0 0 0 0 0 0 0 0 0 0 0 0 0 0 0 d 0 0 0 0 0 -.8     0.D A e.| f w ..Q W S v v w I %.I K I H S T X Z X &.` X %.<.Z Z X %.%.X X <.Z X V Q I K F Q Q Q Q Q W G Q Q W Q W @.W &.<.$.^.:.:.:. .<.:.^.^.^.$.$. .$.^.^.^.^.^.^.^.:.:.:.^.$.^.^.<.$. .<. .$.^.c.c.X S w w w w v v v v v p p p p p p q q q q q q q q q q z q z q q q q q q q q z q q q q q q q q p p v v v w w H H S S ..g.9+c.9+9+9+9+c.^.:.Z Y ..V V *.X G ..X X Q Q I @.Q @.&.W %.W 5.9.Q ..Q W G I Q I %.8.&.9.a.K K Q K K W E =.K I =.F z y K F 4.L K F E E B B B H B z C C K C y F L B s f e f r f e y z I K F P F E F G E E w e y x z e H v v y e 8 } ) $+W.N.U.,.#.E.h k -.0 0 0 0 0 0 0 0 0 0 0 0 0 0 0 0 0 0 0 0 0 0 0 0 0 0 0 0 0 0 0 0 0 0 0 0 0 0 0 0 0 0 0 0 0 0 0 0 0 0 0 0 0 0 0 0 0 0 0 0 0 0 0 0 0 0 0 0 0 0 0 0 0 0 0 0 0 0 0 0 0 0 0 0 0 0 0 0 0 0 0 0 0 0 0 0 0 0 0 ",
"0 0 0 0 0 0 0 0 0 0 0 0 0 0 0 0 0 0 0 0 0 0 0 0 0 0 0 0 0 0 0 0 0 0 0 0 0 0 0 0 0 0 0 0 0 0 0 0 0 0 0 0 0 0 0 0 0 0 0 0 0 0 0 0 0 0 0 0 0 0 0 0 0 0 0 0 0 0 0 0 0 0 0 0 0 0 0 0 0 0 0 0 0 0 0 0 0 0 0 0 0 0 0 0 0 0 0 0 0 0 0 0 0 0 0 0 0 0 0 0 0 e 7 0 0 0 7       , - ] / ).H H v S v q w v Q ..V H G ..Q &.%.&.V ..*.V V Z <.<.<.<.Z X &.Z Y X X W Q I I I G G I Q Q G F Q W W @.V l.7.8.Z <.<.$.:.:.^.<.^.<.$. .$. . .<.^.^.^.^.:.^.c.c.:.:.:.:.^.:.^. . . .$.$.:.9+:.^.:.Z ..H w H w w w v v v v v v v p v p v p p p p p p p q z q q p q q p p p p q p p p p p v v v v w w w H S S U ..Z c.9+c.c.c.c.9+c.c.:.:.Z *.&...*.*...Y T G Q W W I @.@.W 9.9.Q 9.a.Q W @.@.I Q ..V W 9.6.6.W K =.=.E E K I 9.W 6.I @.I F B W 6.4.6.4.B F E B B E E F I B B y C s O y P P x x r J r C B F 4.F W @.L L E E F w F v E q s C z Q F z y s } _ Y.Q.N.#.#.#.H.h     7 0 0 0 0 0 0 0 0 0 0 0 0 0 0 0 0 0 0 0 0 0 0 0 0 0 0 0 0 0 0 0 0 0 0 0 0 0 0 0 0 0 0 0 0 0 0 0 0 0 0 0 0 0 0 0 0 0 0 0 0 0 0 0 0 0 0 0 0 0 0 0 0 0 0 0 0 0 0 0 0 0 0 0 0 0 0 0 0 0 0 0 0 0 0 0 0 0 0 ",
"0 0 0 0 0 0 0 0 0 0 0 0 0 0 0 0 0 0 0 0 0 0 0 0 0 0 0 0 0 0 0 0 0 0 0 0 0 0 0 0 0 0 0 0 0 0 0 0 0 0 0 0 0 0 0 0 0 0 0 0 0 0 0 0 0 0 0 0 0 0 0 0 0 0 0 0 0 0 0 0 0 0 0 0 0 0 0 0 0 0 0 0 0 0 0 0 0 0 0 0 0 0 0 0 0 0 0 0 0 0 0 0 0 0 0 0 0 0 0 0 0 (.r J B   K       ! D i } C+Q H S p w p v G G W I W X G &.X G W ..T T X %.<.<.8. .%.V V X V Y Z &.W @.K G F I I @.I I K K I F F I @.5.5.l.8.:.^.:.:.:.:.:.<. . . . . .<.^.:.:.:.:.c.:.:.c.c.c.:.:.$.^.^.$.^. . .$.c.c.:.^.^.^.:.<.&.G C+H H w w w w w w w w v v v v v v v v v v v p v p v v v v v v v v v v v w w w w w H H S S S U +.Z c.9+c.c.c.c.c.9+c.9+9+:.<. .V ..` +.*.T Y ` ..I G @.@.G V Q 6.K I @.&.V W V W ..V W W Q I I @.5.K F K K I 4.6.K I @.9.7.Q F I 5.6.4.=.4.E F B B =.@.G @.F E z y O P z y C =.C z C z d v B E 4.4.@.a.@.4.B z B e F G C z s y C B y C r t _ ^ '.1 #+N.#.#.#.H.    r 0 0 0 0 0 0 0 0 0 0 0 0 0 0 0 0 0 0 0 0 0 0 0 0 0 0 0 0 0 0 0 0 0 0 0 0 0 0 0 0 0 0 0 0 0 0 0 0 0 0 0 0 0 0 0 0 0 0 0 0 0 0 0 0 0 0 0 0 0 0 0 0 0 0 0 0 0 0 0 0 0 0 0 0 0 0 0 0 0 0 0 0 0 0 0 0 0 0 ",
"0 0 0 0 0 0 0 0 0 0 0 0 0 0 0 0 0 0 0 0 0 0 0 0 0 0 0 0 0 0 0 0 0 0 0 0 0 0 0 0 0 0 0 0 0 0 0 0 0 0 0 0 0 0 0 0 0 0 0 0 0 0 0 0 0 0 0 0 0 0 0 0 0 0 0 0 0 0 0 0 0 0 0 0 0 0 0 0 0 0 0 0 0 0 0 0 0 0 0 0 0 0 0 0 0 0 0 0 0 0 0 0 0 0 0 0 0 0 0 0 0 0 0 d F l.m.    < A 1 '.e ..w H p e v v S S G &...V Q ..V Z Q ..T T *.X Z Z X %.g.X V V &.Z Z V W G I K I I I I G @.W I V W @.W W Q W 5.5.<.c.9+c.:.c.c.:.<.` Z <.Z ^.:.:.:.:.c.c.c.c.9+c.:.^.^.^.^.:.^. . . . .:.9+c.$.^.^.:.^.:.^.^. .Y G S S H H C+H H H w w w w w w w w w w v v w w w w w w w w w w w w w H C+H H C+S U U U *.Z c.c.9+c.c.c.:.:.:.:.9+9+9+c.X %. .Y X ` Q T T Y &...Q G G G I W 6.K F I I Q Q Q ..Q G W W W I K Q K 6.W @.I Q F F F K @.K Q W W 5.W 5.@.6.K F z B F B 4.F E z B L =.=.P C z P P C y H B F B E F E =.z L K =.I E v E y I F C C s s w B f s 7 m ) ( d.Z.Y.W.$ I.2.A.j 6 6 0 0 0 0 0 0 0 0 0 0 0 0 0 0 0 0 0 0 0 0 0 0 0 0 0 0 0 0 0 0 0 0 0 0 0 0 0 0 0 0 0 0 0 0 0 0 0 0 0 0 0 0 0 0 0 0 0 0 0 0 0 0 0 0 0 0 0 0 0 0 0 0 0 0 0 0 0 0 0 0 0 0 0 0 0 0 0 0 0 0 0 0 0 0 0 0 0 ",
"0 0 0 0 0 0 0 0 0 0 0 0 0 0 0 0 0 0 0 0 0 0 0 0 0 0 0 0 0 0 0 0 0 0 0 0 0 0 0 0 0 0 0 0 0 0 0 0 0 0 0 0 0 0 0 0 0 0 0 0 0 0 0 0 0 0 0 0 0 0 0 0 0 0 0 0 0 0 0 0 0 0 0 0 0 0 0 0 0 0 0 0 0 0 0 0 0 0 0 0 0 0 0 0 0 0 0 0 0 0 0 0 0 0 0 0 0 0 0 0 0 0 0 0 r         ! 1 / -.H G e q p w v S w S &...&.Q W %.&.%.Q G S T V %.%.X Z ^.<.%.&.&.&.&.V X V Q G K F F @.Q K F F I I I I K @.5.9.@.W 7.8. .$. . . .<.%.Z Z  .^.^.^.:.:.c.c.c.c.c.:.^.:.:.:.:.^.:.^.^. .;.<.:.c.^.$.$.^.^.:.$.$. .^.:.^.^.Z +.S C+S S S C+S C+H C+H H H H H H H w H H H H H H H H H C+S S S S S U U B+T Y g.c.^.c.c.c.c.:.:.c.:.c.:.^.c.9+c.$.&.Z ` Y ` ` X ..T W V ....Q I K @.@.K @.V ..W &.&.Q ..G W 7.&.@.E K =.@.W @.@.Q Q W I H I %.&.l.6.W W 6.W &.&.K F B F H E B B F F =.B K C K C B C C y H B W I X V E P 4.W K I I F z v F C B I s y B P B H z r e 7 8 ] ] Y.Y.W.$ 2.h       0 0 0 0 0 0 0 0 0 0 0 0 0 0 0 0 0 0 0 0 0 0 0 0 0 0 0 0 0 0 0 0 0 0 0 0 0 0 0 0 0 0 0 0 0 0 0 0 0 0 0 0 0 0 0 0 0 0 0 0 0 0 0 0 0 0 0 0 0 0 0 0 0 0 0 0 0 0 0 0 0 0 0 0 0 0 0 0 0 0 0 0 0 0 0 0 0 ",
"0 0 0 0 0 0 0 0 0 0 0 0 0 0 0 0 0 0 0 0 0 0 0 0 0 0 0 0 0 0 0 0 0 0 0 0 0 0 0 0 0 0 0 0 0 0 0 0 0 0 0 0 0 0 0 0 0 0 0 0 0 0 0 0 0 0 0 0 0 0 0 0 0 0 0 0 0 0 0 0 0 0 0 0 0 0 0 0 0 0 0 0 0 0 0 0 0 0 0 0 0 0 0 0 0 0 0 0 0 0 0 0 0 0 0 0 0 0 0 0 0 0 0 0 (.f     ' ( / n w S p d p w H v H G T V Q V V 5.&.&.<.G G S Q V Z %.X %.Z Z V %.&.Z Z X &.W 5.W F F @.7.@.@.K F @.@.F F K @.4.4.I K 9.&.<.$.$.^.:.:.^.<. .$.^. . .^.^.:.:.:.:.c.:.^.c.c.^.:.^.:.<.$. . .^.^.^.^.^.^.:.c.^.^. .$.^.:.c.:.c.9+g.Z ..T S S S S S S S S S S S S S S S S S S S S S S U S S U U B+T +.Y <.c.9+c.9+:.^.c.c.c.9+c.c.:.^.:.c.^.<.8.Z V V ` *.Z &.V ` V &.V ..T T F H K @.&.W &.&.&.Q @.5.Q W Q Q @.Q 6.F Q 6.@.7.Q Q &.%.W ..H Q X %.8.8.9.7.5.F F I H B z E F I F B K I F B E =.B C E I z z Q K @.a.F K K 4.K 4.F B F ..p v H z I F B y F y C B z C r -.8 @+d.Q.W.T.$ H.  u 6 0 0 0 0 0 0 0 0 0 0 0 0 0 0 0 0 0 0 0 0 0 0 0 0 0 0 0 0 0 0 0 0 0 0 0 0 0 0 0 0 0 0 0 0 0 0 0 0 0 0 0 0 0 0 0 0 0 0 0 0 0 0 0 0 0 0 0 0 0 0 0 0 0 0 0 0 0 0 0 0 0 0 0 0 0 0 0 0 0 0 0 0 0 0 0 0 0 ",
"0 0 0 0 0 0 0 0 0 0 0 0 0 0 0 0 0 0 0 0 0 0 0 0 0 0 0 0 0 0 0 0 0 0 0 0 0 0 0 0 0 0 0 0 0 0 0 0 0 0 0 0 0 0 0 0 0 0 0 0 0 0 0 0 0 0 0 0 0 0 0 0 0 0 0 0 0 0 0 0 0 0 0 0 0 0 0 0 0 0 0 0 0 0 0 0 0 0 0 0 0 0 0 0 0 0 0 0 0 0 0 0 0 0 0 0 0 0 0 0 0 0 0 0 q       0.^ 9 -.q q e e H S z I ..H T G G V W W W %.7.@.G T V X Y *.Y Z <.%.Z ..V Y &.&.V 5.K I H W W K W %.Q &.I @.G I @.I @.@.@.I K Q &.^.:.^.^.<.:.:.%.` ` Z <.<.^.:.:.c.:.^.^.c.:.c.:.:.^.:.$. . .$. .^.^.$.$.^.:.^.$.$.;. .^.:.:.:.0+9+:.9+:.9+<.Z *.+.T B+B+B+U B+B+B+B+B+B+B+B+B+B+B+B+T T B+B+T *.Z :.c.9+0+c.c.c.:.c.:.:.:.^.c.c.c.c.c.^.^.$.` ....*...&...V Z V W V &.9.Q *.T K I W @.W Q W W 5.Q K Q %.X Q I K @...5.W 5.l.&.W 5.Q &.<.V V @.l.8.8.5.7.W @.W I I F H E B B F 4.I K @.W E F B Q z y B B F K 4.4.4.L E 6.6.5.K F Q w G G G ..E =.5.%.z E K x y y x C e r } @+#+W.L.,.*     t -.0 0 0 0 0 0 0 0 0 0 0 0 0 0 0 0 0 0 0 0 0 0 0 0 0 0 0 0 0 0 0 0 0 0 0 0 0 0 0 0 0 0 0 0 0 0 0 0 0 0 0 0 0 0 0 0 0 0 0 0 0 0 0 0 0 0 0 0 0 0 0 0 0 0 0 0 0 0 0 0 0 0 0 0 0 0 0 0 0 0 0 0 0 0 0 0 ",
"0 0 0 0 0 0 0 0 0 0 0 0 0 0 0 0 0 0 0 0 0 0 0 0 0 0 0 0 0 0 0 0 0 0 0 0 0 0 0 0 0 0 0 0 0 0 0 0 0 0 0 0 0 0 0 0 0 0 0 0 0 0 0 0 0 0 0 0 0 0 0 0 0 0 0 0 0 0 0 0 0 0 0 0 0 0 0 0 0 0 0 0 0 0 0 0 0 0 0 0 0 0 0 0 0 0 0 0 0 0 0 0 0 0 0 0 0 0 0 0 0 0 0 -.      D 1 i 9 0 d e q p I w F Q Q G G F V V I V V X V ..G ..V V ..V Z <.Z Z &.%.Z <.Z W W I I F F Q @.K %.5.W 5.&.&.I Q I F I I I I Q V <.:.:.<.<.<.<.<.Z  .Z :.:.:.:.c.:.c.:.c.9+c.c.:.c.:.^.:. .<. . .^.^.$.^.:.:.^.$.;.;.$.$.$.^.9+0+9+:.c.:.^.c.c.:.:.:.:.<. . .Y *.+.T T T B+T T T B+T +.*.Y ` <.c.c.9+c.c.c.c.9+:.:.:.:.:.:.:.:.^.c.:.:.^.^.:.^.^.` ` Y V ......Y 5.V ..V &.W I G Q I K W V G W I W 5.I I W &.Z %.7.Q ..V V 5.7.&.V &.5.@.W &.X ..l.7.&.I @.@.@.@.K F F F F E E E F @.K E I @.K E E F C E z I Q K 6.@.K K K K I G &.I K v Q &.@.G L K V %.I w E q e E s 8 t } ) ] S.N.U.I.2.    t 6 0 0 0 0 0 0 0 0 0 0 0 0 0 0 0 0 0 0 0 0 0 0 0 0 0 0 0 0 0 0 0 0 0 0 0 0 0 0 0 0 0 0 0 0 0 0 0 0 0 0 0 0 0 0 0 0 0 0 0 0 0 0 0 0 0 0 0 0 0 0 0 0 0 0 0 0 0 0 0 0 0 0 0 0 0 0 0 0 0 0 0 0 0 0 0 ",
"0 0 0 0 0 0 0 0 0 0 0 0 0 0 0 0 0 0 0 0 0 0 0 0 0 0 0 0 0 0 0 0 0 0 0 0 0 0 0 0 0 0 0 0 0 0 0 0 0 0 0 0 0 0 0 0 0 0 0 0 0 0 0 0 0 0 0 0 0 0 0 0 0 0 0 0 0 0 0 0 0 0 0 0 0 0 0 0 0 0 0 0 0 0 0 0 0 0 0 0 0 0 0 0 0 0 0 0 0 0 0 0 0 0 0 0 0 0 0 0 0 0 0 e       ! i '.n p d d v w S I X &.Q G I ........V %.V ..Q ..&.Y T &.`  .X Z Z %.Z Z X X &...@.Q I I I K W 7.5.5.Q W W 8.I K I K K @.Q W 5.%.Z  . .^. .Z Z `  .<.$.^.:.:.^.c.9+c.c.9+c.:.:.c.c.:.$. . .$.^.^.$.^.^.:.^.$.;.;.$. .^.^.c.c.9+:.c.:.^.:.$.$. .$.$.:.^.:.^.:.:.^.^.:.^.<.:.^.^.:.c.:.c.c.c.c.:.:.c.c.c.:.:.9+9+^.^.:.:.^.:.c.:.^.^.:.:.^.^. . . . . .$.;.V V V &.W W X W W ..Q V I Q G 7.Q K I @.W T Q X 7.X l.l.g.l.W %.%.Q W 5.%.%.5.@.l.8.Q W %.V V W Q @.Q Q Q F z K F E B K F @.W K Q K I K K B z B @.@.W W 4.K K =.K W W W &.l.v F W 7.W F z F I @.W v H d y F z r t } 1 .+Q.N.T.I.h N -.0 0 0 0 0 0 0 0 0 0 0 0 0 0 0 0 0 0 0 0 0 0 0 0 0 0 0 0 0 0 0 0 0 0 0 0 0 0 0 0 0 0 0 0 0 0 0 0 0 0 0 0 0 0 0 0 0 0 0 0 0 0 0 0 0 0 0 0 0 0 0 0 0 0 0 0 0 0 0 0 0 0 0 0 0 0 0 0 0 0 0 0 0 0 0 0 ",
"0 0 0 0 0 0 0 0 0 0 0 0 0 0 0 0 0 0 0 0 0 0 0 0 0 0 0 0 0 0 0 0 0 0 0 0 0 0 0 0 0 0 0 0 0 0 0 0 0 0 0 0 0 0 0 0 0 0 0 0 0 0 0 0 0 0 0 0 0 0 0 0 0 0 0 0 0 0 0 0 0 0 0 0 0 0 0 0 0 0 0 0 0 0 0 0 0 0 0 0 0 0 0 0 0 0 0 0 0 0 0 0 0 0 0 0 0 0 0 0 0 0 0 0     - { e.9 0 p d w H G %.%.X H ..G I X G Q &...7.V G G &.V ..V Z <.<.<.<.<.<.Z Z ` Y X &.V Q I K @.K W I I Q W 5.l.W &.7.7.W I @.@.9.W 7.%.%.Z %.Z  . . . .<.:.<. .^.^.:.:.:.:.:.^.^.^.^.:.$. . .$.$. .$.^.^.:.$.;.` ;.$.;. .$.:.c.9+:.^.:.^.^.$.$.;.;.$.^.^.^. .$. .$.$.^.$.^.^.:.^.^.:.c.c.c.c.c.:.$.:.:.9+9+:.:.:.c.c.^.^.c.^.:.^.^.:.c.:.:.:.^.:.$. . . . .;.Y V *. .V ..Q &.*.I W ..G V Q V W Q G ..Q Q T &.X l.8.8.8.X 7.8.g.8.8.7.I Q ....Q 7.%...l.9.Q Q W 8.@.Q G I G G I I @.Q @.6.K 6.K I E L I S B B V @.K K 6.5.K F W @.@.9.Q W Q I @.@.5.%.Q v z B I S H w z f F y r C } *+.+N.L.$       7 -.0 0 0 0 0 0 0 0 0 0 0 0 0 0 0 0 0 0 0 0 0 0 0 0 0 0 0 0 0 0 0 0 0 0 0 0 0 0 0 0 0 0 0 0 0 0 0 0 0 0 0 0 0 0 0 0 0 0 0 0 0 0 0 0 0 0 0 0 0 0 0 0 0 0 0 0 0 0 0 0 0 0 0 0 0 0 0 0 0 0 0 0 0 0 ",
"0 0 0 0 0 0 0 0 0 0 0 0 0 0 0 0 0 0 0 0 0 0 0 0 0 0 0 0 0 0 0 0 0 0 0 0 0 0 0 0 0 0 0 0 0 0 0 0 0 0 0 0 0 0 0 0 0 0 0 0 0 0 0 0 0 0 0 0 0 0 0 0 0 0 0 0 0 0 0 0 0 0 0 0 0 0 0 0 0 0 0 0 0 0 0 0 0 0 0 0 0 0 0 0 0 0 0 0 0 0 0 0 0 0 0 0 0 0 0 0 7 r -.-.-.t { i / 5 7 7 p G %.H V ..W S G %.F X ..&.%.X W V Q &...V V Z Z  .Z %.<.Z :.<.<.:.8.W @.W @.Q K @.K Q @.W W @.W W @.@.W 8.8.%.W V 5.5.7.7.%.Z Z Z  .%.Z  .Z ` $.^.^.^.c.c.:.^.^.:.^.:.c.c.^.$.^.^.^.^.:.:.^.$. .;.;.;.;.].;.^.^.^.$. .$.$.$. .$.;.$.$.$.$.$.;.;.^.;.$.^.$.^.^.^. .$.^.^.^.c.:.c.:.:.:.$.:.:.c.c.c.:.^.^.^.$.^.:.^.$.^.^.^.^.^.$.^.$.<.^.^.Z X  .<.<.*.V Z %...W &.G X X &.Q Q K K G Q G Q %.V &.5.5.7.7.l.l.g.5.5.V W &.V G Q H Q G %.V 5.g.Q W 6.@.&.W I @.&.Q @.F @.W %.W =.4.K I G I F 9.G B @.5.I @.K @.W B Q 5.I %.W 9.W 7.a.@.@.W W &.w q q ..w I C q C F s f m 1 .+Y.N.T.#.      J 0 0 0 0 0 0 0 0 0 0 0 0 0 0 0 0 0 0 0 0 0 0 0 0 0 0 0 0 0 0 0 0 0 0 0 0 0 0 0 0 0 0 0 0 0 0 0 0 0 0 0 0 0 0 0 0 0 0 0 0 0 0 0 0 0 0 0 0 0 0 0 0 0 0 0 0 0 0 0 0 0 0 0 0 0 0 0 0 0 0 0 0 0 0 ",
"0 0 0 0 0 0 0 0 0 0 0 0 0 0 0 0 0 0 0 0 0 0 0 0 0 0 0 0 0 0 0 0 0 0 0 0 0 0 0 0 0 0 0 0 0 0 0 0 0 0 0 0 0 0 0 0 0 0 0 0 0 0 0 0 0 0 0 0 0 0 0 0 0 0 0 0 0 0 0 0 0 0 0 0 0 0 0 0 0 0 0 0 0 0 0 0 0 0 0 0 0 0 0 0 0 0 0 0 0 0 0 0 0 0 0 0 0 0 0 0 0 7       ~ A i | 6 m f w ..&.X G G ..W G ..W &.Q V &.Q ..V V ..X X X X Y Y Z <.<.^.Z Z g.8.V Q Q @.6.Q @.5.W @.@.@.I I @.@.@.V 7.W @.@.W 9.5.9.W 7.8.<.%.` ` X  .Z ` Z :.c.9+c.^.^.^.:.c.c.c.:.c.:.^.:.:.^.^.^.$.$.$.;.Y ;.;. .;. .^.^.^.$.$.$. .;.;. .;.$.;.;. .$.;. .^.$. .$.$.^.$.$.;.$.$.^.^.^.c.c.:.^.c.:.:.$.$.^.^.^.:.c.:.$.$.$.$.^.:.:.:.:.c.:.:.^.$. . .$.^. .Z <.Z %.V &.X Z ..8.V Z <.%.8.Q Q 4.V ..&.V &.Z W %.8.l.5.7.%.8.5.&.&.Z Z 5.5.W W Q &.Q %.5.l.Q I K K I I @.9.K F W Q I I @.5.7.@.F K F K F =.I F K 9.6.9.W K @.W F &.I 7.5.6.I 7.@.K K E F F &.V G H ..F B y C z y y s 7 e.#+++N.U.      j 0 0 0 0 0 0 0 0 0 0 0 0 0 0 0 0 0 0 0 0 0 0 0 0 0 0 0 0 0 0 0 0 0 0 0 0 0 0 0 0 0 0 0 0 0 0 0 0 0 0 0 0 0 0 0 0 0 0 0 0 0 0 0 0 0 0 0 0 0 0 0 0 0 0 0 0 0 0 0 0 0 0 0 0 0 0 0 0 0 0 0 0 0 0 ",
"0 0 0 0 0 0 0 0 0 0 0 0 0 0 0 0 0 0 0 0 0 0 0 0 0 0 0 0 0 0 0 0 0 0 0 0 0 0 0 0 0 0 0 0 0 0 0 0 0 0 0 0 0 0 0 0 0 0 0 0 0 0 0 0 0 0 0 0 0 0 0 0 0 0 0 0 0 0 0 0 0 0 0 0 0 0 0 0 0 0 0 0 0 0 0 0 0 0 0 0 0 0 0 0 0 0 0 0 0 0 0 0 0 0 0 0 0 0 0 0 0 0 0 0     0.( ) 5 m d S W g.Q I &.G Q V I I V G I %.....V V Z &.V ..V Z :.:. .Z Z <.<.%.V V &.5.@.@.@.V F K I I I I @.I Q @.G I @.Q 9.@.9.5.W 5.l.l.8.<.c.:.:.c.c.9+c.<.<.^.^.:.:.:.9+c.c.:.:.:.:.:.:.^.^.^.:.^.^.$.;.;.;.;. .$.^.^.^.$.$.;.$.$.$.$.$.^. . .$.^.;. .$. .;.;. . .;.;.;.;.$.^.^.^.^.^.^.^.^.:.^.^.:.:.$.$.^.$.^.^.^.^.:.:.^.^.^.:.c.:.c.c.9+^.c.<.Y *.Z X Y &.X Z %.&.%.7.8.Z Z 9+%.8.&.Q W <.g.&.X X X &.&.%.%.l.&.&.&.&.W 5...W 7.8.8.8.W G &.W 7.7.W Q W Q K 9.K I @.Q 6.9.@.9.5.6.@.9.W 6.K I @.K K G @.6.@.W W 5.I @.I @.@.9.8.%.Q @.W I W I E v S G &.Q &.Q I E z C z f 7 8 ) @+Y.,.U.#.    -.0 0 0 0 0 0 0 0 0 0 0 0 0 0 0 0 0 0 0 0 0 0 0 0 0 0 0 0 0 0 0 0 0 0 0 0 0 0 0 0 0 0 0 0 0 0 0 0 0 0 0 0 0 0 0 0 0 0 0 0 0 0 0 0 0 0 0 0 0 0 0 0 0 0 0 0 0 0 0 0 0 0 0 0 0 0 0 0 0 0 0 0 0 0 ",
"0 0 0 0 0 0 0 0 0 0 0 0 0 0 0 0 0 0 0 0 0 0 0 0 0 0 0 0 0 0 0 0 0 0 0 0 0 0 0 0 0 0 0 0 0 0 0 0 0 0 0 0 0 0 0 0 0 0 0 0 0 0 0 0 0 0 0 0 0 0 0 0 0 0 0 0 0 0 0 0 0 0 0 0 0 0 0 0 0 0 0 0 0 0 0 0 0 0 0 0 0 0 0 0 0 0 0 0 0 0 0 0 0 0 0 0 0 0 0 0 0 0 0 0     D 1 / 9 6 d G &.G H Q G Q @.&.Q G X I Q *.Q Q V Z c.X V &.X X ` %.Z X Z <.X &.X 5.@.K @.W Q I F K E I I I K K I @.K K F F F F I W 7.9.l.g.g.9+9+9+9+9+9+c.9+c.^.$.^.:.:.^.:.:.:.:.:.:.:.:.:.^.^.^.^.^.$. .$.$.$.^.^.^.^.:.^.$.$.^.^.$.;.$.^. .;.;.$.$.$.^. . .;.;. .;.;.;.;.;.$. .^.^.^. . .$.^.:.c.^.:.^.:.^.^.$.$.:.:.:.^.:.:.:.:.c.c.c.:.:.:.:.<.g.c.g.V V X Y X %.%.l.7.%.Z 8.7.9+g.8.%.Q 5.8.l.<.Z &.` <.<.Q X %.l.g.8.%.X 5.W V W W 7.%.V &.8.7.7.5.5.W &.&.@.K @.Q K @.F K @.W 9.9.@.6.K 6.F I I @.K K K @.K @.Q 7.W I W K Q W 7.7.@.@.K I Q 7.Z &.G Q Q W @.5.W H F B z e 7 f ).e.Y.T.#.I.  k 0 0 0 0 0 0 0 0 0 0 0 0 0 0 0 0 0 0 0 0 0 0 0 0 0 0 0 0 0 0 0 0 0 0 0 0 0 0 0 0 0 0 0 0 0 0 0 0 0 0 0 0 0 0 0 0 0 0 0 0 0 0 0 0 0 0 0 0 0 0 0 0 0 0 0 0 0 0 0 0 0 0 0 0 0 0 0 0 0 0 0 0 0 0 0 ",
"0 0 0 0 0 0 0 0 0 0 0 0 0 0 0 0 0 0 0 0 0 0 0 0 0 0 0 0 0 0 0 0 0 0 0 0 0 0 0 0 0 0 0 0 0 0 0 0 0 0 0 0 0 0 0 0 0 0 0 0 0 0 0 0 0 0 0 0 0 0 0 0 0 0 0 0 0 0 0 0 0 0 0 0 0 0 0 0 0 0 0 0 0 0 0 0 0 0 0 0 0 0 0 0 0 0 0 0 0 0 0 0 0 0 0 0 0 0 0 0 0 0 0 f     D i / h.0 H *.V H ..G @.W G Q Q G V Q Q V V &.%.<.<.V V V X Z <.Z %.Z Z 8.8.%.&.7.W 5.7.5.W F I I Q Q @.K F @.K K K I I I @.W @.@.6.I W 8.c.9+c.c.c.c.c.9+c.c.^.^.^.:.^.^.:.^.^.^.^.^.^.^.:.:.:.^.^.:.^.^.:.c.c.:.c.:.:.^.^.^.^.$.$.$.$.$.$.$.$.$.$.$.$. . . .;. .;.;.;.;. . .$.$.$.$.$.;.^.$.$.^.^.:.^.^.$.$.$.^.$.$.^.$.^.$.^.:.:.:.:.c.:.:.:.:.Z Z %.Z  .&...&.X %.&.V l.g.5.8.g.g.g.7.9.5.5.g.c.8.8.7.%.8.<.Q l.g.c.g.%.7.V W V Q Q &.5.5.W W l.l.W 5.@.@.W @.K Q W Q @.W @.K K F =.E 6.6.K K K @.@.K W K 6.@.Q @.@.6.&.F 5.@.@.&.7.@.5...I G S &.&.X &.V %.5.W X W K E z d z e 8 m / .+W.U.#.    -.0 0 0 0 0 0 0 0 0 0 0 0 0 0 0 0 0 0 0 0 0 0 0 0 0 0 0 0 0 0 0 0 0 0 0 0 0 0 0 0 0 0 0 0 0 0 0 0 0 0 0 0 0 0 0 0 0 0 0 0 0 0 0 0 0 0 0 0 0 0 0 0 0 0 0 0 0 0 0 0 0 0 0 0 0 0 0 0 0 0 0 0 0 0 ",
"0 0 0 0 0 0 0 0 0 0 0 0 0 0 0 0 0 0 0 0 0 0 0 0 0 0 0 0 0 0 0 0 0 0 0 0 0 0 0 0 0 0 0 0 0 0 0 0 0 0 0 0 0 0 0 0 0 0 0 0 0 0 0 0 0 0 0 0 0 0 0 0 0 0 0 0 0 0 0 0 0 0 0 0 0 0 0 0 0 0 0 0 0 0 0 0 0 0 0 0 0 0 0 0 0 0 0 0 0 0 0 0 0 0 0 0 0 0 0 0 0 0 0 (.-.  ( ] ) 9 d T V G G I Q W I G Q W Q &.W Q V X &.%.&.X V &.<.<.Z  .$. .<.<.<.X W W 5.Q I K Q K W W W W @.K @.5.I K W Q I I K I @.W I 9.@.9.5.l.<.:.c.c.:.:. . .$. . . . .^.^.$.$.$.^.^.^.^.:.^.:.:.:.^.^.:.c.c.:.c.:.9+c.9+c.^.^.^.^.^.^.^.$.$.^.$.$.$.$.$.$.$.;.;.$.$. .;.;.;.$.$.$. .$. .$.$.$. .$.^.:.^.$.^.^.^.$.^.;.$.$.^.^.^.:.:.:.^.:.:.:.<.Z Y %.X W Z l.&.V 5.7.5.%.&.8.l.8.8.g.g.g.g.@.9.7.g.g.8.%.5.8.5.%.Z l.g.<.l.W W ..V ..5.5.V V W Q W 5.7.&.I 5.W @.K &.&.V V Q Q @.@.@.G F F K @.@.Q I @.@.W I W 6.I @.@.W W G W @.@.W W l.I Q V *.G Q W W W I @.@.V Q @.@.F H q 0 d 6 !.) e.S.T.#.  j   0 0 0 0 0 0 0 0 0 0 0 0 0 0 0 0 0 0 0 0 0 0 0 0 0 0 0 0 0 0 0 0 0 0 0 0 0 0 0 0 0 0 0 0 0 0 0 0 0 0 0 0 0 0 0 0 0 0 0 0 0 0 0 0 0 0 0 0 0 0 0 0 0 0 0 0 0 0 0 0 0 0 0 0 0 0 0 0 0 0 0 0 0 0 ",
"0 0 0 0 0 0 0 0 0 0 0 0 0 0 0 0 0 0 0 0 0 0 0 0 0 0 0 0 0 0 0 0 0 0 0 0 0 0 0 0 0 0 0 0 0 0 0 0 0 0 0 0 0 0 0 0 0 0 0 0 0 0 0 0 0 0 0 0 0 0 0 0 0 0 0 0 0 0 0 0 0 0 0 0 0 0 0 0 0 0 0 0 0 0 0 0 0 0 0 0 0 0 0 0 0 0 0 0 0 0 0 0 0 0 0 0 0 0 0 0 0 0 0 0 7   A ] ^ n p H w w F @...I w G V %.V V V G ..Z X &.Z Z Z Z <.<.` ` <.<.:.:.:.8.%.%.@.I @.W @.K @.F @.9.@.Q K I K Q @.K K F H @.@.@.@.9.5.W W 5.8.c.:.:.:.^. . . . . . .^. .` ;. .:.:.^.^.:.:.:.^.:.c.:.:.:.:.:.^.c.0+0+9+9+9+c.9+c.^.$.$. .;.;.$.$.$. .;.;.$.;.;. . .;.$.;. . .$. .;.$.$.^.$.$.$.;.;.$.$.^.$. .:.^.^.^.$. .$.$.$.^.^.c.^.:.:.c.:.X %.V &.%.V Q 5.&.&.V %.8.l.&.5.%.7.5.l.g.7.7.7.7.7.8.8.g.%.g.8.7.%.V X g.7.7.&.&.X &.X &.X &...V V ..5.9.&.Q @.5.V @.@.W l.&.I I I @.Q @.W K I F I @.G @.I V W 7.W Q K @.@.I W W @.Q @.5.l.W Q V Q X Q W 7.W W Q Q Q @.V Q K E v e f d ).} e.=+N.U.    r 0 0 0 0 0 0 0 0 0 0 0 0 0 0 0 0 0 0 0 0 0 0 0 0 0 0 0 0 0 0 0 0 0 0 0 0 0 0 0 0 0 0 0 0 0 0 0 0 0 0 0 0 0 0 0 0 0 0 0 0 0 0 0 0 0 0 0 0 0 0 0 0 0 0 0 0 0 0 0 0 0 0 0 0 0 0 0 0 0 0 0 0 0 0 ",
"0 0 0 0 0 0 0 0 0 0 0 0 0 0 0 0 0 0 0 0 0 0 0 0 0 0 0 0 0 0 0 0 0 0 0 0 0 0 0 0 0 0 0 0 0 0 0 0 0 0 0 0 0 0 0 0 0 0 0 0 0 0 0 0 0 0 0 0 0 0 0 0 0 0 0 0 0 0 0 0 0 0 0 0 0 0 0 0 0 0 0 0 0 0 0 0 0 0 0 0 0 0 0 0 0 0 0 0 0 0 0 0 0 0 0 0 0 0 0 0 0 0 0 0     ] 1 ^ n d v q G G ..H I G I Q %.7.&.G Q T Z X X %.Z %.Z ` ` Y Z %.<.<.c.8.l.8.7.V V W 9.@.@.Q I I E I 5.5.@.Q Q @.Q K K 5.5.@.@.W 5.Q 7.l.8.g.c.:.:.:.<.$. . .<. . .` Y ;.$.:.<.$.^.:.^.^.^.:.^.:.^.^.^.:.:.:.9+9+9+c.:.c.:.^.$.$.$.$.$.$.$.;.;. .;.;.;. .$. .;.;.;. .;. .;. . .;.;.$.$.$.$.$. . .;.;. .$.$.;.$.$.$.^.$.$.$.^.$.$.:.$.:.^.^.%.&.W &.V 7.5.@.5.5.W &.V l.5.l.7.7.8.5.9.9.9.@.@.W 5.7.X l.l.c.l.7.7.Z g.l.7.5.%.%.5.V ..&...V &.W @.W 7.W &.Q 7.W &.Q 7.W W W 5.W @.Q Q I Q @.Q W @.@.W ..Q 5.7.V Q W I K F I @.@.W W 7.W V %...l.G W V Q H I I V ..W I I G Q Q H p e f f ).^ .+$+,.@     6 -.0 0 0 0 0 0 0 0 0 0 0 0 0 0 0 0 0 0 0 0 0 0 0 0 0 0 0 0 0 0 0 0 0 0 0 0 0 0 0 0 0 0 0 0 0 0 0 0 0 0 0 0 0 0 0 0 0 0 0 0 0 0 0 0 0 0 0 0 0 0 0 0 0 0 0 0 0 0 0 0 0 0 0 0 0 0 0 0 0 0 0 0 ",
"0 0 0 0 0 0 0 0 0 0 0 0 0 0 0 0 0 0 0 0 0 0 0 0 0 0 0 0 0 0 0 0 0 0 0 0 0 0 0 0 0 0 0 0 0 0 0 0 0 0 0 0 0 0 0 0 0 0 0 0 0 0 0 0 0 0 0 0 0 0 0 0 0 0 0 0 0 0 0 0 0 0 0 0 0 0 0 0 0 0 0 0 0 0 0 0 0 0 0 0 0 0 0 0 0 0 0 0 0 0 0 0 0 0 0 0 0 0 0 0 0 0 0 0 6   A ] / 6 d p q H H H G G ..W ..<.X 5.X T V X Z Z <.%. .Z X V X Y %.<.8.Z %.%.X 5.5.W I W 7.5.@.K I Q &.W Q @.Q 5.l.W I Q 5.@.V V 5.5.9.9.W W %.8.:.:.$. . . .` ` ` Y `  . .<. .`  .$.^.^.$.:.^.^.^.^.:.:.c.:.c.9+9+9+c.c.c.9+c.:.^.^.$.$.;.;.;.;.;.;. .$.$.;. .;. .$.;.;. . .;.$.;.;.;.;.;.$.$. .$.;.;.;.;. . .$.$.^.^.$.$.;.;.$.;.$.$.:.^. .V &...V ..W V Q Q Q V X V V W 7.8.8.7.7.9.@.6.@.@.W W &.&.%.l.%.<.%.l.V W 7.l.%.@.W 5.%.7.W &.&.&.&.Z W W 7.7.&.l.&.%.W 5.7.W W 7.W 7.W W W Q @.@.I @.V @.&.5.5.5.V V &.&.W I G I Q l.W 8.l.W W W 7.&.I G Q &.Q S Q G V W K Q Q Q H I q e 7 6 9 e.Y.T.$     7 6 0 0 0 0 0 0 0 0 0 0 0 0 0 0 0 0 0 0 0 0 0 0 0 0 0 0 0 0 0 0 0 0 0 0 0 0 0 0 0 0 0 0 0 0 0 0 0 0 0 0 0 0 0 0 0 0 0 0 0 0 0 0 0 0 0 0 0 0 0 0 0 0 0 0 0 0 0 0 0 0 0 0 0 0 0 0 0 0 0 0 0 0 ",
"0 0 0 0 0 0 0 0 0 0 0 0 0 0 0 0 0 0 0 0 0 0 0 0 0 0 0 0 0 0 0 0 0 0 0 0 0 0 0 0 0 0 0 0 0 0 0 0 0 0 0 0 0 0 0 0 0 0 0 0 0 0 0 0 0 0 0 0 0 0 0 0 0 0 0 0 0 0 0 0 0 0 0 0 0 0 0 0 0 0 0 0 0 0 0 0 0 0 0 0 0 0 0 0 0 0 0 0 0 0 0 0 0 0 0 0 0 0 0 0 0 0 0 0 d   ] 1 '.6 d p v H S S S G Q %.%.%.Q %.&.G ..W %.Z %.&.Z V %.&.Z %.Z g.Z Z %.7.&.&.&.5.7.W I K @.I 8.%.W K Q Q W l.5.W &.V 5.8.l.7.W 5.@.5.7.7.7.%.$.$. .^. .` ` ` ` ` ` `  .` ` <.^.^.$.$.:.^.$.$.$.:.:.^.c.:.c.9+0+9+c.9+c.9+:.^.:.^.$. .$.^.$.$.^.$.^.;.;.$.;. .;. .$.;.$.;.;.;.;.;.;.;.;.;.;.;.;.;.;.;.;.;.;. .;.$.:.$.$.^.;.;.;.$.^.$. .*.Q ....G G Q V V V &...Q V V Z l.l.7.5.9.9.@.@.W ..V Z g.g.g.g.l.8.8.g.8.g.8.7.l.5.&.W &.Z V &.%.%.%.W 5.5.5.W 7.7.&.7.l.W l.8.Q 5.W 9.W 5.7.&.Y V 5.@.@.6.@.@.W V W W Q &.W W @.Q &.7.%.%.&.7.V W &.X G G G ....G F G Q V W Q V I I H H z d 8 6 e.@+N.,   t 0 0 0 0 0 0 0 0 0 0 0 0 0 0 0 0 0 0 0 0 0 0 0 0 0 0 0 0 0 0 0 0 0 0 0 0 0 0 0 0 0 0 0 0 0 0 0 0 0 0 0 0 0 0 0 0 0 0 0 0 0 0 0 0 0 0 0 0 0 0 0 0 0 0 0 0 0 0 0 0 0 0 0 0 0 0 0 0 0 0 0 0 0 0 ",
"0 0 0 0 0 0 0 0 0 0 0 0 0 0 0 0 0 0 0 0 0 0 0 0 0 0 0 0 0 0 0 0 0 0 0 0 0 0 0 0 0 0 0 0 0 0 0 0 0 0 0 0 0 0 0 0 0 0 0 0 0 0 0 0 0 0 0 0 0 0 0 0 0 0 0 0 0 0 0 0 0 0 0 0 0 0 0 0 0 0 0 0 0 0 0 0 0 0 0 0 0 0 0 0 0 0 0 0 0 0 0 0 0 0 0 0 0 0 0 0 0 0 0 0 r   A i / 6 q v p H w H G V W %.W ..&.X G Q Y ..&.Z X %.Y %.V Z Z Z  .8.<.Z 8.<.7.5.9.W K K @.@.I &.W Q 5.8.8.5.g.l.%.Q &.l.%.W W Q &.Q 5.W W 5.%.8. .^.^. .` ` ` `  .` `  .` ` <.<.^.<.:.<.$.$. .^.^.:.^.:.c.c.9+9+0+0+9+0+c.c.^.c.c.:.c.c.:.^.^.:.^.^.^.:.$.$.$. .^.$.^. .;.;.].;.].;.;.;.;.;.;.;.;.;.;.$.$.$.;.$.;.;.;.$.$.^. .;.;.;.$.` %...&...&...Q ..Q W Q W V ....5.7.5.9.9.9.7.5.W W %. .Y 7.8.g.g.9+g.8.9+c.:.g.8.l.7.7.l.l.Q T V %.%.&.g.8.7.7.5.7.9.@.W 9.8.8.l.5.7.Q @.V 7.7.7.W @.@.5.5.5.@.Q @.@.5.I @.Q 7.&.l.W X 8.W 5.g.&.%.V W W ..V Q G G &.X V Q G @.7.%.Q W E F F C e 7 8 i @+Y.T., 2   8 f 0 0 0 0 0 0 0 0 0 0 0 0 0 0 0 0 0 0 0 0 0 0 0 0 0 0 0 0 0 0 0 0 0 0 0 0 0 0 0 0 0 0 0 0 0 0 0 0 0 0 0 0 0 0 0 0 0 0 0 0 0 0 0 0 0 0 0 0 0 0 0 0 0 0 0 0 0 0 0 0 0 0 0 0 0 0 0 0 0 0 0 ",
"0 0 0 0 0 0 0 0 0 0 0 0 0 0 0 0 0 0 0 0 0 0 0 0 0 0 0 0 0 0 0 0 0 0 0 0 0 0 0 0 0 0 0 0 0 0 0 0 0 0 0 0 0 0 0 0 0 0 0 0 0 0 0 0 0 0 0 0 0 0 0 0 0 0 0 0 0 0 0 0 0 0 0 0 0 0 0 0 0 0 0 0 0 0 0 0 0 0 0 0 0 0 0 0 0 0 0 0 0 0 0 0 0 0 0 0 0 0 0 0 0 0 0 -.    ' 1 9 -.0 d v H v S G V &.&.W V Y V G &.X &.V %.%.X X X X <.Z <.<.:.^.Z Z Z 7.@.I I I I K I @.W W %.5.5.l.9.7.8.7.%.%.l.5.5.%.X W Q @.I Q &.X Z  .^.` ` ` ` `  .` X ` ` <.^.<. .$.^.$.^.^.^.^.^.:.^.^.c.:.c.0+0+0+9+0+9+:.^.^.c.c.c.c.c.^.^.^.^.c.:.:.^.^.^.^.^.^.;.$.;.].;.].;.].].].].].].;.].].;.;.;. .^.^.$.$. . .;.$.^.:.;.;.].` Y %.Y Y V W %...Q W G I I W X &.&.9.5.@.W Q @.%.&.Q W V Z &.%.%.<.g.c.g.g.c.g.c.g.g.l.l.5.8.%.V V &.Z 7.Q 5.7.7.5.5.l.%.9.I @.l.7.5.W 5.5.W &.Z 9.5.9.@.W 5.7.7.@.9.6.6.Q I Q l.7.8.<.%.%.V W 7.7.9+%.Q &.&.%.&.Q G V V %.V G Q &.%.W W G F v w q d m ^ #+%+W.*   8 0 0 0 0 0 0 0 0 0 0 0 0 0 0 0 0 0 0 0 0 0 0 0 0 0 0 0 0 0 0 0 0 0 0 0 0 0 0 0 0 0 0 0 0 0 0 0 0 0 0 0 0 0 0 0 0 0 0 0 0 0 0 0 0 0 0 0 0 0 0 0 0 0 0 0 0 0 0 0 0 0 0 0 0 0 0 0 0 0 0 0 0 0 ",
"0 0 0 0 0 0 0 0 0 0 0 0 0 0 0 0 0 0 0 0 0 0 0 0 0 0 0 0 0 0 0 0 0 0 0 0 0 0 0 0 0 0 0 0 0 0 0 0 0 0 0 0 0 0 0 0 0 0 0 0 0 0 0 0 0 0 0 0 0 0 0 0 0 0 0 0 0 0 0 0 0 0 0 0 0 0 0 0 0 0 0 0 0 0 0 0 0 0 0 0 0 0 0 0 0 0 0 0 0 0 0 0 0 0 0 0 0 0 0 0 0 0 0 -.8 - A A 9 -.(.q w p v T ..%.V Z V V &.G V X &.V &.X &.` %.V <.X Z <.X Y &.X X %.5.Q @.W Q @.W 7.W 7.7.5.5.5.%.&.l.9.5.5.W W @.K Q W K @.W I V V ` `  .` ` Y ` ` Z  . .` <.<. .^. .$.$.^.<.:.:. .^.^.^.^.^.c.:.9+9+9+9+9+9+c.9+c.c.:.c.:.^.^.:.^.c.c.c.9+:.^.:.:.:.$.;.$.;.;.;.;.;.;.].;.].{.;.].].].].].].;.;.$.^.$.^.^.$.$. .^.:. .].` ` ` *.V &.V Q V V G ..V Q S Q X V l.5.9.W W W Q I V &.V ..W 5.W V l.c.<.c.9+c.g.&.8.g.8.8.l.l.8.W W V c.g.7.9.5.l.l.@.W 9.@.W W &.7.g.%.W %.5.@.7.5.7.W 6.K @.9.9.5.@.6.@.Q I 5.5.5.8.c.c.%.%.V 7.c.9+l.X V Q W &.W S G ..Z V X G I &.&.I V E w w z d 0 9 i d.Q.,.#.  -.0 0 0 0 0 0 0 0 0 0 0 0 0 0 0 0 0 0 0 0 0 0 0 0 0 0 0 0 0 0 0 0 0 0 0 0 0 0 0 0 0 0 0 0 0 0 0 0 0 0 0 0 0 0 0 0 0 0 0 0 0 0 0 0 0 0 0 0 0 0 0 0 0 0 0 0 0 0 0 0 0 0 0 0 0 0 0 0 0 0 0 0 ",
"0 0 0 0 0 0 0 0 0 0 0 0 0 0 0 0 0 0 0 0 0 0 0 0 0 0 0 0 0 0 0 0 0 0 0 0 0 0 0 0 0 0 0 0 0 0 0 0 0 0 0 0 0 0 0 0 0 0 0 0 0 0 0 0 0 0 0 0 0 0 0 0 0 0 0 0 0 0 0 0 0 0 0 0 0 0 0 0 0 0 0 0 0 0 0 0 0 0 0 0 0 0 0 0 0 0 0 0 0 0 0 0 0 0 0 0 0 0 0 0 0 0 0 0 ).    ] 5 -.k.d w p v T V &.X &...*...Q *.&.&.X &.V %.Z X Y Y Y ` *.*.V X &.%.W Q V Q @.K @.7.7.7.5.&.&.9.7.Z l.l.l.8.8.%.5.W Q I I I I @.I ..X Z ` Y Y *.` <.<.` Y Y Z ` ` ` Z <. . .:.c.c.^.^.:.$.^.:.:.:.c.0+0+9+9+0+9+c.c.c.c.:.^.c.c.9+c.c.c.:.9+:.^.^.$.^.$.;. . .;.;.;.;.`  .`  .$.;.` ;.].].].].].].;.;.;.;.^.$.^.$.^.^.^.$.;. .` Y V V V X ..Q W &...V V V V W 5.W 7.c.7.V Q V Q G X &.&.G Q &.%.%.%.8.g.8.8.7.%.%.7.7.l.l.8.7.7.&.5.5.9+l.l.%.l.W 5.W W X &.7.%.5.7.g.7.@.%.%.9.9.9.@.W 9.@.@.@.K K K W K I W 9.7.7.7.&.8.l.l.l.8.Z 8.Z W &.Q W V Q G H Q W V &.Q Q W G G Q v w e v f 0 9 @+$+$ $   k 0 0 0 0 0 0 0 0 0 0 0 0 0 0 0 0 0 0 0 0 0 0 0 0 0 0 0 0 0 0 0 0 0 0 0 0 0 0 0 0 0 0 0 0 0 0 0 0 0 0 0 0 0 0 0 0 0 0 0 0 0 0 0 0 0 0 0 0 0 0 0 0 0 0 0 0 0 0 0 0 0 0 0 0 0 0 0 0 0 0 0 0 ",
"0 0 0 0 0 0 0 0 0 0 0 0 0 0 0 0 0 0 0 0 0 0 0 0 0 0 0 0 0 0 0 0 0 0 0 0 0 0 0 0 0 0 0 0 0 0 0 0 0 0 0 0 0 0 0 0 0 0 0 0 0 0 0 0 0 0 0 0 0 0 0 0 0 0 0 0 0 0 0 0 0 0 0 0 0 0 0 0 0 0 0 0 0 0 0 0 0 0 0 0 0 0 0 0 0 0 0 0 0 0 0 0 0 0 0 0 0 0 0 0 0 0 0 0 6   ! ] 9 -.k.q p v v ..*.Y Z ....T X ....V ` &.V &.X %.%.<. .&.X Y X &.X &.V W 7.Q W W W &.@.@.l.g.8.<.l.7.7.7.7.5.7.l.g.l.&.&.Q Q Q Q G T ..V Y Y Y ` <.<.%.Y Y ` ` ` `  . . . .:.c.:.c.:.<.:.:.<.$.^.:.^.c.9+c.c.9+9+9+9+9+9+9+9+9+9+9+c.9+9+c.c.c.c.c.:.^. .$.;.;.;. . . . . .$. .$. . .].].].;.].].].{.{.].;.;. .:.$.$.:.^.$.^.^.` ` ....Q &.....V ..&.Z %.Q V X V V W W 8.g.%.5.Z &.I Q &.@.W X V V Q &.g.8.W l.g.l.%.W Q W 7.l.g.&.W X V g.8.8.l.l.7.l.8.5.X &.Z W 5.l.7.l.W 5.&.5.5.@.9.@.Q W W 5.@.K K W I 9.@.l.8.&.l.&.l.l.Z X %.%.8.&.V %.8.W V V V ..Q %.W &.I Q V Q H I H v B q e 7 6 / d.Z.#.      6 0 0 0 0 0 0 0 0 0 0 0 0 0 0 0 0 0 0 0 0 0 0 0 0 0 0 0 0 0 0 0 0 0 0 0 0 0 0 0 0 0 0 0 0 0 0 0 0 0 0 0 0 0 0 0 0 0 0 0 0 0 0 0 0 0 0 0 0 0 0 0 0 0 0 0 0 0 0 0 0 0 0 0 0 0 0 0 0 0 0 ",
"0 0 0 0 0 0 0 0 0 0 0 0 0 0 0 0 0 0 0 0 0 0 0 0 0 0 0 0 0 0 0 0 0 0 0 0 0 0 0 0 0 0 0 0 0 0 0 0 0 0 0 0 0 0 0 0 0 0 0 0 0 0 0 0 0 0 0 0 0 0 0 0 0 0 0 0 0 0 0 0 0 0 0 0 0 0 0 0 0 0 0 0 0 0 0 0 0 0 0 0 0 0 0 0 0 0 0 0 0 0 0 0 0 0 0 0 0 0 0 0 0 0 0 0 t     1 / 6 0 p p v w T T X ..V T Y &.Q ..V %.X V %.%.V Y Y ` X %.Z Z %.&.%.l.8.W @.9.7.W Q W V g.g.l.&.@.@.@.W W Q @.Q W 7.7.Q Q Q W V X  .Z Y ` %.Z <.<. .<.^.^.` Z  . . .:.:.c.:.<.^.:.^.<.^. .$.^.^.^.c.c.:.c.9+9+c.9+c.c.9+c.c.9+c.c.:.9+c.^.:.c.^.c.^. .;.;. .$.^.^.:.;. . .;.^.$. . .;.]. .;.].].].{.{.].{.].;.$.:.^.^.^.^.:.$.^. .V ..V Q V ..Q ....W 7.8.Q &.V &.V ..X c.%.&.@.&.&.G W Q I Q V &.7.W l.7.%.5.7.&.W %.V W 7.&.8.8.&.&.W l.Z Z l.%.Z X 5.5.&.5.%.%.5.5.W W %.9.9.5.7.W @.@.V F 9.5.5.W I @.W 9.I &.7.V Q 7.5.&.&.%.8.8.%.8.<.5.X W &.X &...F &.%.Y Q I Q W I I H H p E v 7 !.) e.#+T.I.      7 0 0 0 0 0 0 0 0 0 0 0 0 0 0 0 0 0 0 0 0 0 0 0 0 0 0 0 0 0 0 0 0 0 0 0 0 0 0 0 0 0 0 0 0 0 0 0 0 0 0 0 0 0 0 0 0 0 0 0 0 0 0 0 0 0 0 0 0 0 0 0 0 0 0 0 0 0 0 0 0 0 0 0 0 0 0 0 0 0 ",
"0 0 0 0 0 0 0 0 0 0 0 0 0 0 0 0 0 0 0 0 0 0 0 0 0 0 0 0 0 0 0 0 0 0 0 0 0 0 0 0 0 0 0 0 0 0 0 0 0 0 0 0 0 0 0 0 0 0 0 0 0 0 0 0 0 0 0 0 0 0 0 0 0 0 0 0 0 0 0 0 0 0 0 0 0 0 0 0 0 0 0 0 0 0 0 0 0 0 0 0 0 0 0 0 0 0 0 0 0 0 0 0 0 0 0 0 0 0 0 0 0 0 0 0 0     ( '.!.0 v v p w G ..V ....T %.X ..V &.X %.V X V V &.` ` X Z ` X X %.8.7.7.7.l.l.7.7.8.g.%.W W @.@.@.I I ..I I @.5.X W I G F I I Q &.X X Z Z Z <.:.<.:.9+9+:.<.<.<.<. .`  . . .$.^.^.^. . . . .^.$.<.c.:.:.:.c.9+9+:.c.c.:.c.:.9+:.:.:.9+:.^.^.^.^.^.$.;. .$.^.:.c.^.:.^.^. .$.$.$. . .;.].].].].{.+.b.{.{.{.{.{.;.$.^.c.:.<.^.:.:.<.Z X Z Z &.V ..W G @...c.c.Q &.9.W @.8.%.Z l.@.@.@.Q I ....V Q Q I W W 9.W V 7.%.&.Z Z %.&.%.8.8.5.l.%.7.8.8.8.%.7.5.&.@.W V @.@.W 7.9.9.7.9.@.@.7.7.%.@.W I I W 7.7.@.@.W W W Q %.%.&.V V 5.7.&.5.%.7.W %.W W 5.7.&.%.V F G W V *.G T ..W S H G w d H p 8 / @+d.< #.2.  k r 0 -.0 0 0 0 0 0 0 0 0 0 0 0 0 0 0 0 0 0 0 0 0 0 0 0 0 0 0 0 0 0 0 0 0 0 0 0 0 0 0 0 0 0 0 0 0 0 0 0 0 0 0 0 0 0 0 0 0 0 0 0 0 0 0 0 0 0 0 0 0 0 0 0 0 0 0 0 0 0 0 0 0 0 0 0 0 0 0 ",
"0 0 0 0 0 0 0 0 0 0 0 0 0 0 0 0 0 0 0 0 0 0 0 0 0 0 0 0 0 0 0 0 0 0 0 0 0 0 0 0 0 0 0 0 0 0 0 0 0 0 0 0 0 0 0 0 0 0 0 0 0 0 0 0 0 0 0 0 0 0 0 0 0 0 0 0 0 0 0 0 0 0 0 0 0 0 0 0 0 0 0 0 0 0 0 0 0 0 0 0 0 0 0 0 0 0 0 0 0 0 0 0 0 0 0 0 0 0 0 0 0 0 0 0 (.r   ( '.8 -.p v p D+*.....&.G V X X ..V V X Z &.X X %.` Y Z Y Z ` X %.&.l.c.g.g.8.8.X &.5.W W W @.K F I I V I W 5.&.&.@.F F H G ..V &.Q %.Z <.<.Z :.:.:.:.<.<.:.<.Z ` ` ` ` ` ` `  . .$.Z ` `  . .$.$.:.:.^.:.c.9+9+9+9+9+:.9+9+^.^.$.^.:.^.$.^.$. .;.$. .;.^.$.$.:.^.^.^.$.$.;.;.$.$.;.;.].].{.{.{.{.b.b.b.b.b.b.+.U +. .^. .$.:.:.<.Z V Q W V %.c.Q @.Q Q 5.:.9+g.Q &.V W 7.Z %.W 5.5.@.Q Q S Q ..V &.W I F @.Q W ..V 8.7.8.<.g.8.c.9+8.9+8.%.<.7.l.:.8.@.W V @.5.5.Q 5.Q Q 5.@.9.9.@.K 7.7.7.9.W Q @.&.7.I W W W W W 5.V 7.%.7.&.7.%.&.&.7.V 7.V Q W &.5.l.8.7.V I Q S Q H G I Q G v Q z v p 6 9 ] #+++<       0 0 0 0 0 0 0 0 0 0 0 0 0 0 0 0 0 0 0 0 0 0 0 0 0 0 0 0 0 0 0 0 0 0 0 0 0 0 0 0 0 0 0 0 0 0 0 0 0 0 0 0 0 0 0 0 0 0 0 0 0 0 0 0 0 0 0 0 0 0 0 0 0 0 0 0 0 0 0 0 0 0 0 0 0 0 0 0 0 0 ",
"0 0 0 0 0 0 0 0 0 0 0 0 0 0 0 0 0 0 0 0 0 0 0 0 0 0 0 0 0 0 0 0 0 0 0 0 0 0 0 0 0 0 0 0 0 0 0 0 0 0 0 0 0 0 0 0 0 0 0 0 0 0 0 0 0 0 0 0 0 0 0 0 0 0 0 0 0 0 0 0 0 0 0 0 0 0 0 0 0 0 0 0 0 0 0 0 0 0 0 0 0 0 0 0 0 0 0 0 0 0 0 0 0 0 0 0 0 0 0 0 0 0 0 q v %.  ( ) h.0 p v v B+U T ..S G ..V V Q V Y X ` X V &.` Z Z X X X Z Z &.&.8.8.l.l.8.8.7.%.5.8.%.@.K I I Q %.V &.%.7.7.@.F F I Q V V W W l.Z <.<.Z <. .<.^.:.:.<.<.<.<.<.` ` ` Y  .` ` ` ` ` ` ;.`  .$. .^.^.^.c.c.c.0+0+9+^.c.c.^.^.^.:.^.^.:.$.c.$.^.:.^.$.^.c. .$.^.$.^.$.$.;.;.$.;.;.;.].{.{.{.b.b.U b.}.j.j.}.U }.}.}.b.].` ^.$.c.:.g.Z X &.%.V <.V @.@.V V 8.c.8.&.8.W Z 7.5.W W 6.7.&.@.9.8.%.<.<.<.Z &.G G ..7.&.8.X %.X X %.Z %.<.c.0+9+9+<.g.5.5.g.%.@.W W Q W Q I @.Q 5.K @.I @.Q 6.@.I K @.I W V %.&.@.@.W @.W %.&.X 7.X 7.5.&.V V V 7.%.X V &.&.@.&.&.8.<.%.Z X Q I I I I Q v F v z w p 6 9 A ++$ I.    0 0 0 0 0 0 0 0 0 0 0 0 0 0 0 0 0 0 0 0 0 0 0 0 0 0 0 0 0 0 0 0 0 0 0 0 0 0 0 0 0 0 0 0 0 0 0 0 0 0 0 0 0 0 0 0 0 0 0 0 0 0 0 0 0 0 0 0 0 0 0 0 0 0 0 0 0 0 0 0 0 0 0 0 0 0 0 0 0 0 ",
"0 0 0 0 0 0 0 0 0 0 0 0 0 0 0 0 0 0 0 0 0 0 0 0 0 0 0 0 0 0 0 0 0 0 0 0 0 0 0 0 0 0 0 0 0 0 0 0 0 0 0 0 0 0 0 0 0 0 0 0 0 0 0 0 0 0 0 0 0 0 0 0 0 0 0 0 0 0 0 0 0 0 0 0 0 0 0 0 0 0 0 0 0 0 0 0 0 0 0 0 0 0 0 0 0 0 0 0 0 0 0 0 0 0 0 0 0 0 0 0 0 0 0 0 0 p   ! : !.0 q q v S H ..Q ..T Q V ......&.X &.%.X ` ` Y  . .` Y V X &.%.8.5.@.W 5.W &.W W Q @.I I F V V @.K 5.W Q @.F F I ..W Q V V V %.8.X <.Z Z <.<.<.<.Z  . .<.` ` X ` ` Y Y Y Y Y  .` ` ` ` ^. .:.:.^.^.c.<.9+9+9+^.:.c.^.$.c.9+c.:.$. .^.$.$.^.^. .$.^.:.^.^.$.^. .$.$.;.$.;.].;.;.{.{.b.b.D+j.}.o ~._.o     ~.o o }.D+*.].` :.^.<.<.Z Z <.5.5.V &.I I W &.7.8.7.9.W %.l.7.5.5.9.K @.l.5.9.8.5.5.l.8.@.l.Q V W W 7.8.<.l.8.l.8.8.7.c.9+c.l.g.8.g.l.7.l.V W W I @.W @.@.G W @.6.K F K @.Q W I Q 5.@.W 7.5.5.Q W 7.@.7.W W 7.5.&.7.8.&.V V V ..%.<.Z X V Q &.&.X V %.<.Q Q Q H Q Q I v v B B d d 5 ^ ! - I.      0 0 0 0 0 0 0 0 0 0 0 0 0 0 0 0 0 0 0 0 0 0 0 0 0 0 0 0 0 0 0 0 0 0 0 0 0 0 0 0 0 0 0 0 0 0 0 0 0 0 0 0 0 0 0 0 0 0 0 0 0 0 0 0 0 0 0 0 0 0 0 0 0 0 0 0 0 0 0 0 0 0 0 0 0 0 0 0 0 ",
"0 0 0 0 0 0 0 0 0 0 0 0 0 0 0 0 0 0 0 0 0 0 0 0 0 0 0 0 0 0 0 0 0 0 0 0 0 0 0 0 0 0 0 0 0 0 0 0 0 0 0 0 0 0 0 0 0 0 0 0 0 0 0 0 0 0 0 0 0 0 0 0 0 0 0 0 0 0 0 0 0 0 0 0 0 0 0 0 0 0 0 0 0 0 0 0 0 0 0 0 0 0 0 0 0 0 0 0 0 0 0 0 0 0 0 0 0 0 0 0 0 0 0 0 0 8     '.h.0 p p v w T G G ..W ..V V ..Q V V Z ` Y Y `  . .Y *.X ..V W 9.7.W @.W W W W 5.5.5.@.I G Q W W Q W Q I W G I Q V ..V V &.&.Z Z 7.<.Z <.g.Z <.:.:.:.^.:.^.<.<. .` ` ` ` ` ` ` Y Y Y Y <. .:.^.<.^.^.9+c.9+c.^. .^.^.:.c.^.^.c.:.:.:.^.$.$.;. . .$.^. .$.;.^.].$. .;.`  .;.{.].{.{.b.U }.o o o (.k.            q j.}.j.U {.Y  . .<.<.` Z X G @.W @.W I Q W 5.W 9.&.&.@.9.%.l.l.9.9.W &.V 5.&.7.<.8.7.%.7.8.&.W l.Z g.l.&.g.8.l.l.g.g.8.7.5.8.%.W l.Z Y W %.V V W W @.4.Q 5.V W @.K F K @.@.I 4.W 5.W 7.Z @.Q &.W 5.7.V X %.&.W 8.%.&.%.&.V W 5.&.X X @.V ..V &.&...Q X &.G G &...S F E v d e n / d.      j 0 0 0 0 0 0 0 0 0 0 0 0 0 0 0 0 0 0 0 0 0 0 0 0 0 0 0 0 0 0 0 0 0 0 0 0 0 0 0 0 0 0 0 0 0 0 0 0 0 0 0 0 0 0 0 0 0 0 0 0 0 0 0 0 0 0 0 0 0 0 0 0 0 0 0 0 0 0 0 0 0 0 0 0 0 0 0 0 0 0 ",
"0 0 0 0 0 0 0 0 0 0 0 0 0 0 0 0 0 0 0 0 0 0 0 0 0 0 0 0 0 0 0 0 0 0 0 0 0 0 0 0 0 0 0 0 0 0 0 0 0 0 0 0 0 0 0 0 0 0 0 0 0 0 0 0 0 0 0 0 0 0 0 0 0 0 0 0 0 0 0 0 0 0 0 0 0 0 0 0 0 0 0 0 0 0 0 0 0 0 0 0 0 0 0 0 0 0 0 0 0 0 0 0 0 0 0 0 0 0 0 0 0 0 0 0 0 0   2 i t -.q q v H H G G Z Q %.Q ..G G Q ` ` Y Y &.*. .X &.V ..V 5.%.7.7.W W @.W @.Q &.&.Q @.I I W &.7.@.@.5.8.&.X &.X V %.&.X @.Q W &.Z 8.Z <.^.$.<.:.9+c.:.<. .$. . .$. .` `  . .` ` ` `  .Z  .` :.:.<.c.:.9+:.<. .c.9+c.:.^.^.9+^.:.^.^. . . . .;.` ` :.^.^.;.;.;.;.;.;.].{.].{.{.{.b.}.o _.k.k.6           w   d       o o j.B+*.*.`  .&.X %.T E W K G &.Q W 4.W @.V Z 9.l.9.9.5.Q I @.Q Q W &.5.8.l.V 7.7.5.7.Z 7.%.Z 7.8.8.7.l.5.8.5.7.l.7.5.5.W 9.8. .g.V W Q 5.G Q Q 7.%.5.W X V W W W W @.W @.W @.W 7.Q &.V V l.5.W &.Z X &.&.&.X V <.&.X %.Q W 8...G V ..Q &.V V Q Q V G ..Q ..H H F s e 6 9 ] <     0 f 0 0 0 0 0 0 0 0 0 0 0 0 0 0 0 0 0 0 0 0 0 0 0 0 0 0 0 0 0 0 0 0 0 0 0 0 0 0 0 0 0 0 0 0 0 0 0 0 0 0 0 0 0 0 0 0 0 0 0 0 0 0 0 0 0 0 0 0 0 0 0 0 0 0 0 0 0 0 0 0 0 0 0 0 0 0 0 0 0 ",
"0 0 0 0 0 0 0 0 0 0 0 0 0 0 0 0 0 0 0 0 0 0 0 0 0 0 0 0 0 0 0 0 0 0 0 0 0 0 0 0 0 0 0 0 0 0 0 0 0 0 0 0 0 0 0 0 0 0 0 0 0 0 0 0 0 0 0 0 0 0 0 0 0 0 0 0 0 0 0 0 0 0 0 0 0 0 0 0 0 0 0 0 0 0 0 0 0 0 0 0 0 0 0 0 0 0 0 0 0 0 0 0 0 0 0 0 0 0 0 0 0 0 0 0 0 0 d   ( } 0 d q H H G G V X V %.G G S G X ` Y Y *.*.Y Y Y Y ....Z %.8.W @.9.W V l.l.%.X 5.Q @.@.@.&.l.W W 7.7.V W W Q V X X ..I ....&.X ` Y Y ` `  . . .Z `  . . . .` ` ` ` ` ` Y `  . . . .^. . .c.c.c.c.<.:.<.<.<.:.^.^.^.:.^.^.^.^. .$.^.$.`  .;.`  . .^.$. .].;.].` +.{.+.B++.b.D+b.}._._.-.            6 0 v 0 -.0 v     _.~.~.j.B++.+.*.G W W w S F @.I W %.@.W Q @.&.9.a.6.K F F I I G ..&.%.7.W W &.7.7.5.5.8.c.8.W 7.&.W &.5.@.W V %.W 7.8.7.7.Q Q X V Z %.X W V G &.W l.8.5.9.Q V &.%.l.@.W Q 5.W 5.6.V W 5.Q 5.7.Q 7.7.%.V V &.&.7.%.8.V l.%.&.%.X &.Q V ..Q W Q V Q G G G Q Q V w B C y f !.1 0.-       -.0 0 0 0 0 0 0 0 0 0 0 0 0 0 0 0 0 0 0 0 0 0 0 0 0 0 0 0 0 0 0 0 0 0 0 0 0 0 0 0 0 0 0 0 0 0 0 0 0 0 0 0 0 0 0 0 0 0 0 0 0 0 0 0 0 0 0 0 0 0 0 0 0 0 0 0 0 0 0 0 0 0 0 0 0 0 0 0 ",
"0 0 0 0 0 0 0 0 0 0 0 0 0 0 0 0 0 0 0 0 0 0 0 0 0 0 0 0 0 0 0 0 0 0 0 0 0 0 0 0 0 0 0 0 0 0 0 0 0 0 0 0 0 0 0 0 0 0 0 0 0 0 0 0 0 0 0 0 0 0 0 0 0 0 0 0 0 0 0 0 0 0 0 0 0 0 0 0 0 0 0 0 0 0 0 0 0 0 0 0 0 0 0 0 0 0 0 0 0 0 0 0 0 0 0 0 0 0 0 0 0 0 0 0 0 (.q     t 0 q p p H H ..V V Q ..S G T T Y Y *.*.*.Y Y X Z ` V X Y  .X W Q W @.5.W V 7.W Q W Q 6.&.5.@.I %.%.%.&.X W &.W Q W &.X X X X ....*.Y Y Y Y Y Y Y Y Y Y Y Y ` ` Y *.Y ` `  .<. .` <. . .<.:.<.c.^.$.<.<.<.$. . .^.:.^.c.$.$.$.;. . .<. . . .^. .` ;.Y ` Y +.+.+.b.b.U U U D+}.o k.k.    ).-.0 q (.0 0 0 d 0 0 v v d 6   _._.~.o o j.T Y W W w H I E K K W @.@.W @.K a.=.F @.W &.Q W &.8.g.l.g.%.8.%.7.l.7.%.%.7.W Q ..V ......V W V V &.5.W Q 5.5.7.X W Q ..V Z %.&.V 7.%.0+&.7.I Q 9.Q I 5.9.5.@.7.5.6.@.9.Q Q I 7.7.@.7.7.&.Q X X &.8.X X <.g.&.X 8.%.V V V &.....W V V ..Q G I Q H v C e d )./ D     r 0 0 0 0 0 0 0 0 0 0 0 0 0 0 0 0 0 0 0 0 0 0 0 0 0 0 0 0 0 0 0 0 0 0 0 0 0 0 0 0 0 0 0 0 0 0 0 0 0 0 0 0 0 0 0 0 0 0 0 0 0 0 0 0 0 0 0 0 0 0 0 0 0 0 0 0 0 0 0 0 0 0 0 0 0 0 0 0 0 0 ",
"0 0 0 0 0 0 0 0 0 0 0 0 0 0 0 0 0 0 0 0 0 0 0 0 0 0 0 0 0 0 0 0 0 0 0 0 0 0 0 0 0 0 0 0 0 0 0 0 0 0 0 0 0 0 0 0 0 0 0 0 0 0 0 0 0 0 0 0 0 0 0 0 0 0 0 0 0 0 0 0 0 0 0 0 0 0 0 0 0 0 0 0 0 0 0 0 0 0 0 0 0 0 0 0 0 0 0 0 0 0 0 0 0 0 0 0 0 0 0 0 0 0 0 0 0 (.d     t f q q p w G *...X T T H S G ..*.Y *.Y ..Y X Z <.V ..&.&.&.@.I Q I I V 5.&.@.G Q @.K W W 5.5.l.l.8.l.&.Q G Q &.&.&.&.X X ` ` Y Y Y Y Y Y Y Y ` ` Y Y Y Y Y Y Y ` ` Z X Y ` Y `  . .Z  .:. .:.$.<. . . .$.` ;.$. .:.:. . . .` ` ` ;.` ^.` $. .` Y ` *.+.U U b.U D+j.}.j.}.~.~._.      w d 0 0 0 0 0 0 0 0 0 0 d 0 0 -.    _.k.k.~.~.j.+...%.V w E H F I a.5.9.6.7.K =.K W %.&.Z <.8.5.V &.8.g.9+g.<.g.g.l.8.7.5.l.%.&.8.Z &.W &...V X Q ..Q &.Q @.Q ..V ..Q T Q V Z 5.g.8.8.5.W Q I Q @.I @.9.7.7.&.W I W 5.Q @.@.Q &.W Q W V V &...V 8.Z %.l.8.&.l.V %.5.Q &.Q ..Q %.&...T S ..I F G v B s q -.} 1 %+k   -.0 0 0 0 0 0 0 0 0 0 0 0 0 0 0 0 0 0 0 0 0 0 0 0 0 0 0 0 0 0 0 0 0 0 0 0 0 0 0 0 0 0 0 0 0 0 0 0 0 0 0 0 0 0 0 0 0 0 0 0 0 0 0 0 0 0 0 0 0 0 0 0 0 0 0 0 0 0 0 0 0 0 0 0 0 0 0 0 0 ",
"0 0 0 0 0 0 0 0 0 0 0 0 0 0 0 0 0 0 0 0 0 0 0 0 0 0 0 0 0 0 0 0 0 0 0 0 0 0 0 0 0 0 0 0 0 0 0 0 0 0 0 0 0 0 0 0 0 0 0 0 0 0 0 0 0 0 0 0 0 0 0 0 0 0 0 0 0 0 0 0 0 0 0 0 0 0 0 0 0 0 0 0 0 0 0 0 0 0 0 0 0 0 0 0 0 0 0 0 0 0 0 0 0 0 0 0 0 0 0 0 0 0 0 0 0 0 0     9 f q q q w S ......S ..H S T T X T *.Y ..V X ` ` X V ..&.X &.I I Q W @.5.5.Q %.l.K Q &.9.l.5.7.&.&.5.5.V Z Z %.%.Z %.X Q Y *.*.Y ` Y ` Z Z ` Z Z ` X Z <.<. .` ` ` Y *.Y Y Y *.Y `  .^. . . .;.`  . .` ` ` <.<.<. . .` ` ` ` ].` `  . .` *.` {.+.+.b.U D+}.o U j.}.o o o k.~.w     -.0 0 0 0 0 0 0 0 0 0 0 0 0 0 0 0 v           _.~.o U *.Y *.G G w K G 7.5.7.V K K &.&.....Z Z 7.%.7.&.%.V l.8.g.g.g.l.l.&.5.l.%.Z &.5.&.X <.X &.X %.V Q Q X V V &.Z  .%.V Q G Q Q %.l.<.7.@.%.9.@.W W Q @.9.W 7.5.@.G 5.@.@.W I @.@.Q W &.V %.....X %.Z &.V &.%.V &.V S W W ..G X V V ..G G W w w v z s f f } 1 ~ < 8 0 0 0 0 0 0 0 0 0 0 0 0 0 0 0 0 0 0 0 0 0 0 0 0 0 0 0 0 0 0 0 0 0 0 0 0 0 0 0 0 0 0 0 0 0 0 0 0 0 0 0 0 0 0 0 0 0 0 0 0 0 0 0 0 0 0 0 0 0 0 0 0 0 0 0 0 0 0 0 0 0 0 0 0 0 0 0 0 0 0 ",
"0 0 0 0 0 0 0 0 0 0 0 0 0 0 0 0 0 0 0 0 0 0 0 0 0 0 0 0 0 0 0 0 0 0 0 0 0 0 0 0 0 0 0 0 0 0 0 0 0 0 0 0 0 0 0 0 0 0 0 0 0 0 0 0 0 0 0 0 0 0 0 0 0 0 0 0 0 0 0 0 0 0 0 0 0 0 0 0 0 0 0 0 0 0 0 0 0 0 0 0 0 0 0 0 0 0 0 0 0 0 0 0 0 0 0 0 0 0 0 0 0 0 0 0 0 q (.d   '.7 d q q v T ..T S G S S S ..*...T *.*...Q ` %.%.X ..&.W Q Q W W V I &.W W 5.7.5.@.@.7.7.9.V l.7.5.W W 8.%.&. . .8.%.Q ......Y ` ` Z Z :.Z Z <.Z <. .Z <.Z Z Z ` Y %.` X Z Z X  . . .Y ` ` ` ` ` Y ` ` Y Z ^. .` ` `  .Y Y Y Y Y *.Y Y +.+.B+B+D+U U }.o ~.~.d ~.o _.(.0       V   0 0 0 0 0 0 0 0 0 0 0 0 0 0 0 0 0 0 0 d         _._.~.o U *.B+w S Q Q 5.8.W 4.@.V ..G Q Y V &.V V &.W W 5.%.X 8.c.c.c.g.l.g.%.X %.Z %.8.%.X <.7.Z Z 8.%.&.7.<.X Z <.Z %.Z &.V ..G W 7.l.W 7.l.@.W W W @.9.@.@.Q V X G &.K ..W Q &.Q @.Q Q W X Q Q &.X V 8.%.X V V V &.Q I W W S ....X Q S w T Q H v q f s 6 !.i D ,.  8 0 0 0 0 0 0 0 0 0 0 0 0 0 0 0 0 0 0 0 0 0 0 0 0 0 0 0 0 0 0 0 0 0 0 0 0 0 0 0 0 0 0 0 0 0 0 0 0 0 0 0 0 0 0 0 0 0 0 0 0 0 0 0 0 0 0 0 0 0 0 0 0 0 0 0 0 0 0 0 0 0 0 0 0 0 0 0 0 0 ",
"0 0 0 0 0 0 0 0 0 0 0 0 0 0 0 0 0 0 0 0 0 0 0 0 0 0 0 0 0 0 0 0 0 0 0 0 0 0 0 0 0 0 0 0 0 0 0 0 0 0 0 0 0 0 0 0 0 0 0 0 0 0 0 0 0 0 0 0 0 0 0 0 0 0 0 0 0 0 0 0 0 0 0 0 0 0 0 0 0 0 0 0 0 0 0 0 0 0 0 0 0 0 0 0 0 0 0 0 0 0 0 0 0 0 0 0 0 0 0 0 0 0 0 0 0 0 d     [ -.(.d d w S S ..S Q S G T T V G ..........*.<.%.&...V G V &.X ..G W &.X @.W W W V l.%.W V Q 9.&.V 5.%.&.7.%.Z %.Q G ..Q G ..V ` ` Z Z Z <.<.<.c.c.c.<.8.Z :.<.<.:.c. .c.Z Y ` Y ` `  .$.` Y Y Y ` ` ` `  .Z ` ` Z Y Y Y *.Y Y *.+.B+U U D+j.w }.j.}.o   0     0 -.-.      Q q p q 0 0 0 0 0 0 0 0 0 0 0 0 0 0 0 0 0 0 0 0 v   ).      0 ~.o o S G G G V c.<.&.W l.&.*.V ..V &.&.&.&.@.W 5.5.5.%.5.7.7.8.5.5.%.%.%.X V V ..&.Z <.Z X <.8.g.X &.&.&.X Z %.%.7.5.W &.W 9.5.7.l.%.W 7.@.@.&.9.K @.@.W V V I @.K W G W W Q ..G ..Z &.Q Q W &.%.W l.V &.&.....V V G Q G G V X V Q w H S T v v d e f ).9 D <     r -.0 0 0 0 0 0 0 0 0 0 0 0 0 0 0 0 0 0 0 0 0 0 0 0 0 0 0 0 0 0 0 0 0 0 0 0 0 0 0 0 0 0 0 0 0 0 0 0 0 0 0 0 0 0 0 0 0 0 0 0 0 0 0 0 0 0 0 0 0 0 0 0 0 0 0 0 0 0 0 0 0 0 0 0 0 0 0 ",
"0 0 0 0 0 0 0 0 0 0 0 0 0 0 0 0 0 0 0 0 0 0 0 0 0 0 0 0 0 0 0 0 0 0 0 0 0 0 0 0 0 0 0 0 0 0 0 0 0 0 0 0 0 0 0 0 0 0 0 0 0 0 0 0 0 0 0 0 0 0 0 0 0 0 0 0 0 0 0 0 0 0 0 0 0 0 0 0 0 0 0 0 0 0 0 0 0 0 0 0 0 0 0 0 0 0 0 0 0 0 0 0 0 0 0 0 0 0 0 0 0 0 0 0 0 0 q d   ) 6 0 d d w S S T S G H S ..T V G ..T ....&.Y %.&.V ....G Q V V ..V V X @.5.W X V 5.&.V V W W &.X %.&.V @.Q T W G G W T G ..Y ` ` ` `  .Z Z <. . .:.:.:.<.c.:.c.:.<.<.<.` `  .`  . .Z Y ` Y Y X ` ` %.` ` ` Y Y Y *.Y *.+.+.B+U B+D+D+j.}.o ~.o w ~.                  G 0 p d d d d 0 0 0 0 0 0 0 0 0 0 0 0 0 0 0 0 0 0 0 0 0 6 0 (.        _.~.~.p C+w Q Z X X ..X %.Y ` @.G G ..V W W W Q Q F ..%.&.%.7.W 5.&.X &.8.%.&.V Q W %.Z %.8.<.c.c.g.Z %.%.%.&.g.7.W l.7.5.@.@.7.9.5.5.W V %.V W 7.W 5.@.W ..I I I Q I W 7.5.Q Q W V 8.&.V Q &.X W &.V &.Q ..G Q T H S Q I G X 7...H H G S ..v q f f 7 : A ++    0 0 0 0 0 0 0 0 0 0 0 0 0 0 0 0 0 0 0 0 0 0 0 0 0 0 0 0 0 0 0 0 0 0 0 0 0 0 0 0 0 0 0 0 0 0 0 0 0 0 0 0 0 0 0 0 0 0 0 0 0 0 0 0 0 0 0 0 0 0 0 0 0 0 0 0 0 0 0 0 0 0 0 0 0 0 0 0 0 ",
"0 0 0 0 0 0 0 0 0 0 0 0 0 0 0 0 0 0 0 0 0 0 0 0 0 0 0 0 0 0 0 0 0 0 0 0 0 0 0 0 0 0 0 0 0 0 0 0 0 0 0 0 0 0 0 0 0 0 0 0 0 0 0 0 0 0 0 0 0 0 0 0 0 0 0 0 0 0 0 0 0 0 0 0 0 0 0 0 0 0 0 0 0 0 0 0 0 0 0 0 0 0 0 0 0 0 0 0 0 0 0 0 0 0 0 0 0 0 0 0 0 0 0 0 0 0 0 0   : !.0 e d w H S H H w S T G V T T ..G G *.X  .` Y V V `  .` &...Q Q V W @.Q 5.&.8.&.X V W Q Q ..I I I I @.Q &.V &.Q I ..&.V %.%.` X Z <.<.^.<.:.:.:.<.Z <.<. .<.:.:.<.<.X <. .` `  .` Y Y Y *.Y Y Y *.*.*.*.+.T +.T T B+U C+o w }.D+o _.o (.~.            0 v v w   q p 0 0 0 0 q 0 0 0 0 0 0 0 0 0 0 0 0 0 0 0 0 0 0 0 0 0 d p d 0 q         0 _.o o q S +.G S T W %.V X Q G Q V V Q ..Q G I Q W W X %.7.9.5.5.V W X &.%.Z X V V &.%.X <.8.9+c.l.5.g.7.Z Z &.W 7.W 5.5.V 9.@.W 5.l.7.W &.Q 5.&.5.@.@.@.@.W K 5.I F W W &.V W &.7.%.X W V V Z Q ..&.&...V T T S H G Q I W %.X T w H H G w z e q 7 9 ) D       0 0 0 0 0 0 0 0 0 0 0 0 0 0 0 0 0 0 0 0 0 0 0 0 0 0 0 0 0 0 0 0 0 0 0 0 0 0 0 0 0 0 0 0 0 0 0 0 0 0 0 0 0 0 0 0 0 0 0 0 0 0 0 0 0 0 0 0 0 0 0 0 0 0 0 0 0 0 0 0 0 0 0 0 0 0 0 0 ",
"0 0 0 0 0 0 0 0 0 0 0 0 0 0 0 0 0 0 0 0 0 0 0 0 0 0 0 0 0 0 0 0 0 0 0 0 0 0 0 0 0 0 0 0 0 0 0 0 0 0 0 0 0 0 0 0 0 0 0 0 0 0 0 0 0 0 0 0 0 0 0 0 0 0 0 0 0 0 0 0 0 0 0 0 0 0 0 0 0 0 0 0 0 0 0 0 0 0 0 0 0 0 0 0 0 0 0 0 0 0 0 0 0 0 0 0 0 0 0 0 0 0 0 0 0 0 0 -.    h.-.d q w w S H w H T ..G ..G ..V ..S X Z Y X X ` X X Y *.G ......Y Q W W Q &.W W V ....G G F H I I Q V ..V X X W X X ..Y %.Z <. . .^.$. . . .$.` ` ` %.Z ` <.<.<.<.<.<.` `  .Z Y *.*.*.*.*.*.+.*.T +.U B+C+D+C+D+C+o o o _._._.~.            S G     0 0 -.p 0 d 0 0 0 0 0 0 0 0 0 0 0 0 0 0 0 0 0 0 0 0 0 0 0 0 0 0 0 0 0 0 0 0 (.q q       0 (.~.~.~.v U T B+G T T T *.*.+...Q Q Q V ....W W V V &.&.W &.&.W 5.V X &.&.%.Z &.Q V &.8.<.<.<.c.g.g.8.X W W @.@.Q W W 9.6.Q @.9.9.@.l.&.&.W Q @.@.W Q Q @.Q Q I I E I X &.G 5.5.<.&.X W W 8.Y Q Q V ..V ..T S H H G G G &.%.Y S H H H v v e d e 8 ) A       r 0 0 0 0 0 0 0 0 0 0 0 0 0 0 0 0 0 0 0 0 0 0 0 0 0 0 0 0 0 0 0 0 0 0 0 0 0 0 0 0 0 0 0 0 0 0 0 0 0 0 0 0 0 0 0 0 0 0 0 0 0 0 0 0 0 0 0 0 0 0 0 0 0 0 0 0 0 0 0 0 0 0 0 0 0 0 0 ",
"0 0 0 0 0 0 0 0 0 0 0 0 0 0 0 0 0 0 0 0 0 0 0 0 0 0 0 0 0 0 0 0 0 0 0 0 0 0 0 0 0 0 0 0 0 0 0 0 0 0 0 0 0 0 0 0 0 0 0 0 0 0 0 0 0 0 0 0 0 0 0 0 0 0 0 0 0 0 0 0 0 0 0 0 0 0 0 0 0 0 0 0 0 0 0 0 0 0 0 0 0 0 0 0 0 0 0 0 0 0 0 0 0 0 0 0 0 0 0 0 0 0 0 0 0 0 0 0 q : 9 6 (.d v H S w C+S T G ..T T *.Y ..S V Y ` V Y `  .` ` V ..G G V X &.X W &.W &.&.&.&.Y ..V G I Q V Y Q &.%.&.Q Q G G V X ` ` ` `  .` `  .` ` Y Y Y Z <.%.Z Z Z %.<.X Y ` Y *.Y Y +.*.+.+.*.+.U U D+j.w j.v w o ~.~.d         0             q p d   v 0 0 0 0 0 0 0 0 0 0 0 0 0 0 0 0 0 0 0 0 0 0 0 0 0 0 0 0 0 0 0 0 0 0 0 0 0 0 0 0 (.        -.-.(.k.o o o o ..H H T T V V ..G G ..&.Y Y *.V X X Z &.V V X V &.X ` ` &.&.&.&.X %.8.Z l.g.:.<.7.l.g.8.5.W Z 5.l.W @.W 5.Q K 9.9.K @.8.W I &.K @.@.W W Q @.5.G ..G I I V Q Q &.8.&.W G V X X V *...G &.T B+S H w H G G ..V Y T H H w H p p f 0 m } 1 -     t u t -.0 0 0 0 0 0 0 0 0 0 0 0 0 0 0 0 0 0 0 0 0 0 0 0 0 0 0 0 0 0 0 0 0 0 0 0 0 0 0 0 0 0 0 0 0 0 0 0 0 0 0 0 0 0 0 0 0 0 0 0 0 0 0 0 0 0 0 0 0 0 0 0 0 0 0 0 0 0 0 0 0 0 0 0 ",
"0 0 0 0 0 0 0 0 0 0 0 0 0 0 0 0 0 0 0 0 0 0 0 0 0 0 0 0 0 0 0 0 0 0 0 0 0 0 0 0 0 0 0 0 0 0 0 0 0 0 0 0 0 0 0 0 0 0 0 0 0 0 0 0 0 0 0 0 0 0 0 0 0 0 0 0 0 0 0 0 0 0 0 0 0 0 0 0 0 0 0 0 0 0 0 0 0 0 0 0 0 0 0 0 0 0 0 0 0 0 0 0 0 0 0 0 0 0 0 0 0 0 0 0 0 0 0 0 -.  '.h.0 q o H H w H S T G G ....Y T T G *.Y ` Y ` ` Y Y ` T *...Y ..%.V Q V V X X %.X V X V V I &.X %.X X Z V W V Q V Y Y *.*.*.*.Y ` Y Y Y Y *.*.Y Y ` ` %.X Z Z <.X X X X *.*.*.T B++.B+D+S j.j.}.w o ~.~._.q       d             V       -.0 0 0 (.0 0 0 0 0 0 0 0 0 0 0 0 0 0 0 0 0 0 0 0 0 0 0 0 0 0 0 0 0 0 0 0 0 0 0 0 0 0 0 0 0 (.        5.W 0 -.d ~.~._.p H w C+H C+S ....@.W @.&.*.*.Y &.X X Z 8.X %.&.X Z  .<.8.7.&.X &.%.7.%.&.7.l.l.%.%.&.&.%.%.<.l.l.%.&.@.X &.K K I W 6.F @.K 6.I @.9.@.@.W Q &.7.&.W W I ..G I Q V &...V W 7.&.&.Y T ..&.*.T C+T H H Q G G ....V S H w q H w d f m '.]       7 e -.0 0 0 0 0 0 0 0 0 0 0 0 0 0 0 0 0 0 0 0 0 0 0 0 0 0 0 0 0 0 0 0 0 0 0 0 0 0 0 0 0 0 0 0 0 0 0 0 0 0 0 0 0 0 0 0 0 0 0 0 0 0 0 0 0 0 0 0 0 0 0 0 0 0 0 0 0 0 0 0 0 0 0 0 0 ",
"0 0 0 0 0 0 0 0 0 0 0 0 0 0 0 0 0 0 0 0 0 0 0 0 0 0 0 0 0 0 0 0 0 0 0 0 0 0 0 0 0 0 0 0 0 0 0 0 0 0 0 0 0 0 0 0 0 0 0 0 0 0 0 0 0 0 0 0 0 0 0 0 0 0 0 0 0 0 0 0 0 0 0 0 0 0 0 0 0 0 0 0 0 0 0 0 0 0 0 0 0 0 0 0 0 0 0 0 0 0 0 0 0 0 0 0 0 0 0 0 0 0 0 0 0 0 0 0       9 -.q q o v H H S T ..Q G Y G B++.*...Y *.Y ` ` Y ` *.*.*.X ` &.Y V V Q ....V V Q ..V Q G *.` V X Y ` ` W W V V Y V *.*.*.*.*.*.*.+.+.*.*.*.*.*.` *.Y ` Y ` *...` X V *.T T B+B+C+j.C+C+w ~.o ~.d k.-.          0 q V       H 7.    (.q 0 0 0 0 0 0 0 0 0 0 0 0 0 0 0 0 0 0 0 0 0 0 0 0 0 0 0 0 0 0 0 0 0 0 0 0 0 0 0 0 0 0 0 0 0 d H         Q G q     (.k._.k._.~.o w H w G T +.Q ....V V Y %.Z Z Z X 8.%.Z :.8.8.Z X %.5.W V W &.l.%.8.l.7.&.&.l.l.8.8.%.<.7.Z %.&.7.9.W Q F G W Q I W K I 9.@.K W V 9.@.V W X V Q G &.I H Q &.Z &.V V &.&.*.Y T T V +.B+S G G Q V T S ..Q T S w q q B w z 7 } ( 3         0 0 0 0 0 0 0 0 0 0 0 0 0 0 0 0 0 0 0 0 0 0 0 0 0 0 0 0 0 0 0 0 0 0 0 0 0 0 0 0 0 0 0 0 0 0 0 0 0 0 0 0 0 0 0 0 0 0 0 0 0 0 0 0 0 0 0 0 0 0 0 0 0 0 0 0 0 0 0 0 0 0 0 0 0 0 ",
"0 0 0 0 0 0 0 0 0 0 0 0 0 0 0 0 0 0 0 0 0 0 0 0 0 0 0 0 0 0 0 0 0 0 0 0 0 0 0 0 0 0 0 0 0 0 0 0 0 0 0 0 0 0 0 0 0 0 0 0 0 0 0 0 0 0 0 0 0 0 0 0 0 0 0 0 0 0 0 0 0 0 0 0 0 0 0 0 0 0 0 0 0 0 0 0 0 0 0 0 0 0 0 0 0 0 0 0 0 0 0 0 0 0 0 0 0 0 0 0 0 0 0 0 0 0 0 0       9 6 0 d p p S S S T ..Q ..G C++...*.*.*.T *.` *.*.Y Y ..Y Y Y V ..T ......&.&.X &.X Y ..X  .^.&.%.Y X  .7.%.Z %.V V Y ..*.Y Y Y Y Y Y Y Y *...Y *.*.` Y *.*.*.+.T T T D+S S C+H j.}.o o o                   G 9+-.0 5.  0   d v d (.0 0 0 0 0 0 0 0 0 0 0 0 0 0 0 0 0 0 0 0 0 0 0 0 0 0 0 0 0 0 0 0 0 0 0 0 0 0 0 0 0 0 0 0 0 0 0 0 0 0 -.q e 0 -.d ).    0 k._.0 _.~.~.p C+S T T ........V &.&.Z 8.9+<.<.g.8.&.X X &.V Q Q W W V V 5.V V &.X 7.7.%.7.W l.7.:.c.7.%.l.7.W W W W Q I @.I @.I K W @.@.W W 7.5.W I X Q V ..Y V H I V %.&.X ..V *.V V X G ..*.B+S ..H S X ..G S &.X T G w v z B B f 8 1 ' *       0 0 0 0 0 0 0 0 0 0 0 0 0 0 0 0 0 0 0 0 0 0 0 0 0 0 0 0 0 0 0 0 0 0 0 0 0 0 0 0 0 0 0 0 0 0 0 0 0 0 0 0 0 0 0 0 0 0 0 0 0 0 0 0 0 0 0 0 0 0 0 0 0 0 0 0 0 0 0 0 0 0 0 0 0 0 ",
"0 0 0 0 0 0 0 0 0 0 0 0 0 0 0 0 0 0 0 0 0 0 0 0 0 0 0 0 0 0 0 0 0 0 0 0 0 0 0 0 0 0 0 0 0 0 0 0 0 0 0 0 0 0 0 0 0 0 0 0 0 0 0 0 0 0 0 0 0 0 0 0 0 0 0 0 0 0 0 0 0 0 0 0 0 0 0 0 0 0 0 0 0 0 0 0 0 0 0 0 0 0 0 0 0 0 0 0 0 0 0 0 0 0 0 0 0 0 0 0 0 0 0 0 0 0 0 0 5.    '.m -.0 ~.v S C+H U T G S w H G ..*.*.+.B+*.Y +.*.Y Y V V Y ....Q &.Z ` $.` ` ` ` X Y V Y `  .V ` V ` X Y Z ` V Y Y Y Y Y Y *.*.*.*.*.*.*.....*...*.+...T G T U D+B+j.D+D+U o ~.~.  S             v   q     8.8.0 0 d p q w 0 0 0 0 0 0 0 0 0 0 0 0 0 0 0 0 0 0 0 0 0 0 0 0 0 0 0 0 0 0 0 0 0 0 0 0 0 0 0 0 0 0 0 0 0 0 0 0 0 0 0 0 0 0 0 0 7 0 0 0 0         6 6 -.6 _.k.~.w H T T ....X V V &.&.%.Z :.<.<.%.X &.V X %.V W V Q W V &.&.V V &.%.W W 7.W &.Q 5.c.9+7.l.:.<.&.W Q Q W 4.K 6.@.I 5.W @.W W W 5.Q &.Q ..V W V Q I Q W &.&.X V ..*.X Q V Y ....+.H T S H Q V Q S H X X H S w C e y f m '.A [.#.  J 0 0 0 0 0 0 0 0 0 0 0 0 0 0 0 0 0 0 0 0 0 0 0 0 0 0 0 0 0 0 0 0 0 0 0 0 0 0 0 0 0 0 0 0 0 0 0 0 0 0 0 0 0 0 0 0 0 0 0 0 0 0 0 0 0 0 0 0 0 0 0 0 0 0 0 0 0 0 0 0 0 0 0 0 0 0 ",
"0 0 0 0 0 0 0 0 0 0 0 0 0 0 0 0 0 0 0 0 0 0 0 0 0 0 0 0 0 0 0 0 0 0 0 0 0 0 0 0 0 0 0 0 0 0 0 0 0 0 0 0 0 0 0 0 0 0 0 0 0 0 0 0 0 0 0 0 0 0 0 0 0 0 0 0 0 0 0 0 0 0 0 0 0 0 0 0 0 0 0 0 0 0 0 0 0 0 0 0 0 0 0 0 0 0 0 0 0 0 0 0 0 0 0 0 0 0 0 0 0 0 0 0 0 0 0 -.v     i n 6 (.k.o o w C+B+S ..G G ......T +.+.B+T T +.*.Y V Z X X `  .X X %.Z ` X Y Y ` ` Y Y *.` `  .%. .%.Z X ` X %.X Y X *...*.*...*.Y *.*.....T ..T T T G H H j.}.j.C+C+        w &.  W     v     -.d d   0 H v p 0 0 0 0 d v d 0 0 0 0 0 0 0 0 0 0 0 0 0 0 0 0 0 0 0 0 0 0 0 0 0 0 0 0 0 0 0 0 0 0 0 0 0 0 0 0 0 0 0 0 0 0 0 0 0 0 0 0 0 0 0 0 0 0 0 0 (.(.  6               (.p }.C+w H S S G Q V W X <.%.5.Q X V V W Q V V &.V V &.&.%.X W @.6.W 5.W W 7.7.5.l.c.&.8.Z %.Z X W V 9.K @.6.K Q Q @.5.@.@.@.5.@.W Q @.Q &.V X Q W W %.&.X &.V ..V X ....X T S T G T G S ....T S S &.V G V F B C e 8 : / A ,     7 0 0 0 0 0 0 0 0 0 0 0 0 0 0 0 0 0 0 0 0 0 0 0 0 0 0 0 0 0 0 0 0 0 0 0 0 0 0 0 0 0 0 0 0 0 0 0 0 0 0 0 0 0 0 0 0 0 0 0 0 0 0 0 0 0 0 0 0 0 0 0 0 0 0 0 0 0 0 0 0 0 0 0 0 0 ",
"0 0 0 0 0 0 0 0 0 0 0 0 0 0 0 0 0 0 0 0 0 0 0 0 0 0 0 0 0 0 0 0 0 0 0 0 0 0 0 0 0 0 0 0 0 0 0 0 0 0 0 0 0 0 0 0 0 0 0 0 0 0 0 0 0 0 0 0 0 0 0 0 0 0 0 0 0 0 0 0 0 0 0 0 0 0 0 0 0 0 0 0 0 0 0 0 0 0 0 0 0 0 0 0 0 0 0 0 0 0 0 0 0 0 0 0 0 0 0 0 0 0 0 0 0 0 0 0 0 0 f ) h.!.6 k.~.o w C+S H Y ..*.Y *.T T T B+T B++.*.*.Y ` <. . . .`  .&.Y ` Y Y V *.` Y X Y Y X  . . . .Z ` ` X X  .<.%.<.Z X ` Y Y Y &.Y Y *.....T T T G H w w v w           -.d w w 0 d q 0 0 (.0 0 p G d 0 0 0 0 0 0 0 0 0 (.0 0 0 0 0 0 0 0 0 0 0 0 0 0 0 0 0 0 0 0 0 0 0 0 0 0 0 0 0 0 0 0 0 0 0 0 0 0 0 0 0 0 0 0 0 0 0 0 0 0 0 0 0 0 0 0 0 0 0 0 0 0 0 0 0 d               k.~.o o }.o w S G G G &.V ....V &.&.W V V @.W V @.I ....&.8.Z 6.Z W X W &.5.7.%.7.8.5.l.%.X X W V Q @.I @.%.W K 6.@.@.I I W K @.W K @.Q V W X Q G W %.&.W V W ..Q ......X ` G +.T T ..V S ..S ..T F ....Q Q G v C f } 9 ] < #.  r 0 0 0 0 0 0 0 0 0 0 0 0 0 0 0 0 0 0 0 0 0 0 0 0 0 0 0 0 0 0 0 0 0 0 0 0 0 0 0 0 0 0 0 0 0 0 0 0 0 0 0 0 0 0 0 0 0 0 0 0 0 0 0 0 0 0 0 0 0 0 0 0 0 0 0 0 0 0 0 0 0 0 0 0 0 ",
"0 0 0 0 0 0 0 0 0 0 0 0 0 0 0 0 0 0 0 0 0 0 0 0 0 0 0 0 0 0 0 0 0 0 0 0 0 0 0 0 0 0 0 0 0 0 0 0 0 0 0 0 0 0 0 0 0 0 0 0 0 0 0 0 0 0 0 0 0 0 0 0 0 0 0 0 0 0 0 0 0 0 0 0 0 0 0 0 0 0 0 0 0 0 0 0 0 0 0 0 0 0 0 0 0 0 0 0 0 0 0 0 0 0 0 0 0 0 0 0 0 0 0 0 0 0 0 0 0 0 ).  8 9 n -._.~.H C+C+H ..*.T Y T ..T B+B++.B++.*.+...Y X ` X $.%.V  .$.X X &.` `  . . .Z %.Z  .<. .<. . .` `  .` %.Z ` ` `  .` Y X <.<.%.Y V Y ..Y ..G S H v B q 6     -.0 0 0 0 0 0 0 0 0 0 0 0 0 0 0 0 0 0 0 0 0 0 0 0 0 0 0 0 0 0 0 0 0 0 0 0 0 0 0 0 0 0 0 0 0 0 0 0 0 0 0 0 0 0 0 0 0 0 0 0 0 0 0 0 0 0 0 0 0 0 0 0 0 0 0 0 0 0 0 0 0 0 0 0 0 0 0 0 0 0 0 0 0 6         6     0 k.j.~.o w w C+S ..Q V W ..Q W Q I I Q I ..V W &.X X <.X Z Z &.W V %.Z 8.7.7.l.&.5.7.V V W @.@.K K 6.7.W F 6.W @.F I a.5.W K K Q Q I V 8.&.Q V 8.V @.V Q ` Y T T V T Y ..*.T Q ..V T ..H G ....H H Q H S H v d ).'.i ! *   7 0 0 0 0 0 0 0 0 0 0 0 0 0 0 0 0 0 0 0 0 0 0 0 0 0 0 0 0 0 0 0 0 0 0 0 0 0 0 0 0 0 0 0 0 0 0 0 0 0 0 0 0 0 0 0 0 0 0 0 0 0 0 0 0 0 0 0 0 0 0 0 0 0 0 0 0 0 0 0 0 0 0 0 0 0 ",
"0 0 0 0 0 0 0 0 0 0 0 0 0 0 0 0 0 0 0 0 0 0 0 0 0 0 0 0 0 0 0 0 0 0 0 0 0 0 0 0 0 0 0 0 0 0 0 0 0 0 0 0 0 0 0 0 0 0 0 0 0 0 0 0 0 0 0 0 0 0 0 0 0 0 0 0 0 0 0 0 0 0 0 0 0 0 0 0 0 0 0 0 0 0 0 0 0 0 0 0 0 0 0 0 0 0 0 0 0 0 0 0 0 0 0 0 0 0 0 0 0 0 0 0 0 0 0 0 0 (.f     8 !.n (._.o o j.D+H T T ..T B+B+C+..T T *.+.*...Y ..Y ..&.W W W &.%.&.X %.Y ` <.<.Z X  . .Z  .$. . .` `  .$. .Z  .Z `  .` Y %. .Z %.Z <.%.` X Y *.G S H v v q 0   -.0 0 0 0 0 0 0 0 0 0 0 0 0 0 0 0 0 0 0 0 0 0 0 0 0 0 0 0 0 0 0 0 0 0 0 0 0 0 0 0 0 0 0 0 0 0 0 0 0 0 0 0 0 0 0 0 0 0 0 0 0 0 0 0 0 0 0 0 0 0 0 0 0 0 0 0 0 0 0 0 0 0 0 0 0 0 0 0 0 0 0 0 p d q 0 q   (.-.v       ~.~.p o o j.D+C+S S I Q V ....V V K G ....Q &.X g.%.<.^.&.V &.&.X X %.%.7.l.5.W &.V V I Q @.@.F I G @.@.Q F Q K I I Q @.@.W Q Q @.8.8.W W &.X W V Q &.....+.S T ..X V X ..T ..V ..S Q ..%...H H H w w q d 7 9 i d.< $   6 0 0 0 0 0 0 0 0 0 0 0 0 0 0 0 0 0 0 0 0 0 0 0 0 0 0 0 0 0 0 0 0 0 0 0 0 0 0 0 0 0 0 0 0 0 0 0 0 0 0 0 0 0 0 0 0 0 0 0 0 0 0 0 0 0 0 0 0 0 0 0 0 0 0 0 0 0 0 0 0 0 0 0 0 ",
"0 0 0 0 0 0 0 0 0 0 0 0 0 0 0 0 0 0 0 0 0 0 0 0 0 0 0 0 0 0 0 0 0 0 0 0 0 0 0 0 0 0 0 0 0 0 0 0 0 0 0 0 0 0 0 0 0 0 0 0 0 0 0 0 0 0 0 0 0 0 0 0 0 0 0 0 0 0 0 0 0 0 0 0 0 0 0 0 0 0 0 0 0 0 0 0 0 0 0 0 0 0 0 0 0 0 0 0 0 0 0 0 0 0 0 0 0 0 0 0 0 0 0 0 0 0 0 0 0 0 q       m 9 0 d o o o D+D++.....B+S B+......+.+.+.T ..G ..Q T G Q Q I @.Q V V %.%.` Z <.:.8.:.$. .` ` ` `  .Z `  .Z Z  . . . .Z X Z :.:.<.Z ` X X X Y V ..T H w w B q     0 0 0 0 0 0 0 0 0 0 0 0 0 0 0 0 0 0 0 0 0 0 0 0 0 0 0 0 0 0 0 0 0 0 0 0 0 0 0 0 0 0 0 0 0 0 0 0 0 0 0 0 0 0 0 0 0 0 0 0 0 0 0 0 0 0 0 0 0 0 0 0 0 0 0 0 0 0 0 0 0 0 0 0 0 0 0 0 0 0 0 0 0 0 p q p d p 0 0                 k.~.~.w C+H w D+U S B+G Q G Q ......X X %.Z <.X V X &.V ..V W 9.W W @.W &.V Q @.Q &.I @.I G K Q Q I G F K @.Q W Q G W Q 8.7.X ..V X Q ..Q &.Q ....B+T ..V Y Y &.G V ..T T G T ..V H Q E E H q q -.8 ^ A ++#.  t 0 0 0 0 0 0 0 0 0 0 0 0 0 0 0 0 0 0 0 0 0 0 0 0 0 0 0 0 0 0 0 0 0 0 0 0 0 0 0 0 0 0 0 0 0 0 0 0 0 0 0 0 0 0 0 0 0 0 0 0 0 0 0 0 0 0 0 0 0 0 0 0 0 0 0 0 0 0 0 0 0 0 0 0 ",
"0 0 0 0 0 0 0 0 0 0 0 0 0 0 0 0 0 0 0 0 0 0 0 0 0 0 0 0 0 0 0 0 0 0 0 0 0 0 0 0 0 0 0 0 0 0 0 0 0 0 0 0 0 0 0 0 0 0 0 0 0 0 0 0 0 0 0 0 0 0 0 0 0 0 0 0 0 0 0 0 0 0 0 0 0 0 0 0 0 0 0 0 0 0 0 0 0 0 0 0 0 0 0 0 0 0 0 0 0 0 0 0 0 0 0 0 0 0 0 0 0 0 0 0 0 0 0 0 0 0 0 7       9 ).k.~.~.o w C+C+B+..B+B+G *.*.*.T T ....S T H S ..G I Q G I @.@.X &.X X Z  .<.<.<.<.Z Z Z <.Z Z  . . . .Z  .<. .<. .Y X Z Z Z <.<. . .X ` X Y ..T w w v z d   0 0 0 0 0 0 0 0 0 0 0 0 0 0 0 0 0 0 0 0 0 0 0 0 0 0 0 0 0 0 0 0 0 0 0 0 0 0 0 0 0 0 0 0 0 0 0 0 0 0 0 0 0 0 0 0 0 0 0 0 0 0 0 0 0 0 0 0 0 0 0 0 0 0 0 0 0 0 0 0 0 0 0 0 0 0 0 0 0 0 0 0 0 0 0 q v 0 0 0 0 (.0 q p 0 0 d v 6 0 k.w o C+j.}.w w C+C+H S T ......Y V V %.` ` ....@.@.W ..&.&.W W &.V V V &.W Q &.&.I Q Q I Q G K I K H I G Q V G @.W &.&.W W V V ..I Q &.V *.T *.T ..V Y ` V T ......T T Q G ..S H G v v w d -.h.) ] ~ #.    -.0 0 0 0 0 0 0 0 0 0 0 0 0 0 0 0 0 0 0 0 0 0 0 0 0 0 0 0 0 0 0 0 0 0 0 0 0 0 0 0 0 0 0 0 0 0 0 0 0 0 0 0 0 0 0 0 0 0 0 0 0 0 0 0 0 0 0 0 0 0 0 0 0 0 0 0 0 0 0 0 0 0 0 ",
"0 0 0 0 0 0 0 0 0 0 0 0 0 0 0 0 0 0 0 0 0 0 0 0 0 0 0 0 0 0 0 0 0 0 0 0 0 0 0 0 0 0 0 0 0 0 0 0 0 0 0 0 0 0 0 0 0 0 0 0 0 0 0 0 0 0 0 0 0 0 0 0 0 0 0 0 0 0 0 0 0 0 0 0 0 0 0 0 0 0 0 0 0 0 0 0 0 0 0 0 0 0 0 0 0 0 0 0 0 0 0 0 0 0 0 0 0 0 0 0 0 0 0 0 0 0 0 0 0 0 0 7       ^ '.6 a ~.p o D+w H T S S S *.*.*.U H ..G H w w w I Q I G G I F Q 5.%.Z %.` <.Z 8.Z 8.:.<.<.c.c.<.<.<.<.<. . .<. .Z <.` X X  .Z  .Z Z Z Z Y &...*.T S w v v q 0   0 0 0 0 0 0 0 0 0 0 0 0 0 0 0 0 0 0 0 0 0 0 0 0 0 0 0 0 0 0 0 0 0 0 0 0 0 0 0 0 0 0 0 0 0 0 0 0 0 0 0 0 0 0 0 0 0 0 0 0 0 0 0 0 0 0 0 0 0 0 0 0 0 0 0 0 0 0 0 0 0 0 0 0 0 0 0 0 0 0 0 0 0 0 0 (.0 0 0 0 0 0 0 0 0 0 0 (.d 0 0 0     _.o j.~.p o o j.S S F I G I Q ......V T Y &.W I Q @.@.Q ..V &...&.` V G Q G Q F K W I I F G Q F F G Q V G Q V %...W V &.G I V Q V W ..*...G &.&.&.X ....V G T S Q G H Q H G S p w p d 9 _ A ! [.    r 0 0 0 0 0 0 0 0 0 0 0 0 0 0 0 0 0 0 0 0 0 0 0 0 0 0 0 0 0 0 0 0 0 0 0 0 0 0 0 0 0 0 0 0 0 0 0 0 0 0 0 0 0 0 0 0 0 0 0 0 0 0 0 0 0 0 0 0 0 0 0 0 0 0 0 0 0 0 0 0 0 0 0 ",
"0 0 0 0 0 0 0 0 0 0 0 0 0 0 0 0 0 0 0 0 0 0 0 0 0 0 0 0 0 0 0 0 0 0 0 0 0 0 0 0 0 0 0 0 0 0 0 0 0 0 0 0 0 0 0 0 0 0 0 0 0 0 0 0 0 0 0 0 0 0 0 0 0 0 0 0 0 0 0 0 0 0 0 0 0 0 0 0 0 0 0 0 0 0 0 0 0 0 0 0 0 0 0 0 0 0 0 0 0 0 0 0 0 0 0 0 0 0 0 0 0 0 0 0 0 0 0 0 0 0 0 0 7         9 k.k.~.~.o w w B+B+S D++.+...S S ..G S H q w H I Q G G G S F I V %.8.Z  .X 8.<.c.c.c.c.c.9+:.:.<.:.<.:.Z X <.Z Z %.` ` ` <. .Z %.Z <.Z X Y *.T T H v v v q 6 6 0 0 0 0 0 0 0 0 0 0 0 0 0 0 0 0 0 0 0 0 0 0 0 0 0 0 0 0 0 0 0 0 0 0 0 0 0 0 0 0 0 0 0 0 0 0 0 0 0 0 0 0 0 0 0 0 0 0 0 0 0 0 0 0 0 0 0 0 0 0 0 0 0 0 0 0 0 0 0 0 0 0 0 0 0 0 0 0 0 0 0 0 0 0 0 0 0 0 0 0 0 0 0 0 0 0 0 0 0 0 0 0   0 0 0 0 _._._.o w C+w S H H I S I ....Q T *.*.&...V %.....X ..V V V %.&.W Q I I F K Q Q Q G ..H H I @.W Q @.&.Z ....&...Q T Q Q Q V ..G T ......V V ....V Q T G T ..G H Q I H w w p d n '.D ! -       -.0 0 0 0 0 0 0 0 0 0 0 0 0 0 0 0 0 0 0 0 0 0 0 0 0 0 0 0 0 0 0 0 0 0 0 0 0 0 0 0 0 0 0 0 0 0 0 0 0 0 0 0 0 0 0 0 0 0 0 0 0 0 0 0 0 0 0 0 0 0 0 0 0 0 0 0 0 0 0 0 0 0 ",
"0 0 0 0 0 0 0 0 0 0 0 0 0 0 0 0 0 0 0 0 0 0 0 0 0 0 0 0 0 0 0 0 0 0 0 0 0 0 0 0 0 0 0 0 0 0 0 0 0 0 0 0 0 0 0 0 0 0 0 0 0 0 0 0 0 0 0 0 0 0 0 0 0 0 0 0 0 0 0 0 0 0 0 0 0 0 0 0 0 0 0 0 0 0 0 0 0 0 0 0 0 0 0 0 0 0 0 0 0 0 0 0 0 0 0 0 0 0 0 0 0 0 0 0 0 0 0 0 0 0 0 0 0 f e q   n 6 0 _.~._.j.w D+D+T j.B++.T +.H T S G H p q v I I G F I S Q G &.7.7.%.%.X Z :.c.g.g.9+c.c.:.9+c.c.c.:.<.<.Z ` <.%.Z Z ` `  . . .` X X X &.*...T S w p v v e 8 0 (.0 0 0 0 0 0 0 0 0 0 0 0 0 0 0 0 0 0 0 0 0 0 0 0 0 0 0 0 0 0 0 0 0 0 0 0 0 0 0 0 0 0 0 0 0 0 0 0 0 0 0 0 0 0 0 0 0 0 0 0 0 0 0 0 0 0 0 0 0 0 0 0 0 0 0 0 0 0 0 0 0 0 0 0 0 0 0 0 0 0 0 0 0 0 0 0 0 0 0 0 0 0 0 0 0 0 0 0 0 0 d p 0 0 0 q       (.~.o o p v H v C+S B+B+T U T T ..Q ....W V Y Y ....Q ..V Q Q G K Q G I ..G ..F G I I I Q @.5.&.Q ....Q ..Q &.T G V T ..S ..X T ..Y T V &.Q G H S G T G F H F w q v q -.'.] - *     -.0 0 0 0 0 0 0 0 0 0 0 0 0 0 0 0 0 0 0 0 0 0 0 0 0 0 0 0 0 0 0 0 0 0 0 0 0 0 0 0 0 0 0 0 0 0 0 0 0 0 0 0 0 0 0 0 0 0 0 0 0 0 0 0 0 0 0 0 0 0 0 0 0 0 0 0 0 0 0 0 0 0 0 ",
"0 0 0 0 0 0 0 0 0 0 0 0 0 0 0 0 0 0 0 0 0 0 0 0 0 0 0 0 0 0 0 0 0 0 0 0 0 0 0 0 0 0 0 0 0 0 0 0 0 0 0 0 0 0 0 0 0 0 0 0 0 0 0 0 0 0 0 0 0 0 0 0 0 0 0 0 0 0 0 0 0 0 0 0 0 0 0 0 0 0 0 0 0 0 0 0 0 0 0 0 0 0 0 0 0 0 0 0 0 0 0 0 0 0 0 0 0 0 0 0 0 0 0 0 0 0 0 0 0 0 0 0 0 0 0 0     !.0 k.k._.}.o j.o T w C+B+S T S S T S U w v p z I I Q I G G Q @.Q Z &.5.&.%.%.l.<.<.8.c.9+c.c.c.<.<.:.:.<.<.<.%.<.Z <.Z ` ` Z  .`  .Z %.` ` Y *.T S v B p d n     0 0 0 0 0 0 0 0 0 0 0 0 0 0 0 0 0 0 0 0 0 0 0 0 0 0 0 0 0 0 0 0 0 0 0 0 0 0 0 0 0 0 0 0 0 0 0 0 0 0 0 0 0 0 0 0 0 0 0 0 0 0 0 0 0 0 0 0 0 0 0 0 0 0 0 0 0 0 0 0 0 0 0 0 0 0 0 0 0 0 0 0 0 0 0 0 0 0 0 0 0 0 0 0 0 0 0 0 0 0 0 0 0 0 0 (.  H q p q k.(.p         D+H p o D+C+S G S ..Q ..*.*.Y W V G *.Q @.I I 4.Q I Q Q Q Q I F G I @.I Q Q V G Q Q W T Q Q ..G Q G Y T H ..G Q &.T Q G Q T I H H G H G G G w q d p 6 9 ] < #.    0 0 0 0 0 0 0 0 0 0 0 0 0 0 0 0 0 0 0 0 0 0 0 0 0 0 0 0 0 0 0 0 0 0 0 0 0 0 0 0 0 0 0 0 0 0 0 0 0 0 0 0 0 0 0 0 0 0 0 0 0 0 0 0 0 0 0 0 0 0 0 0 0 0 0 0 0 0 0 0 0 0 0 0 ",
"0 0 0 0 0 0 0 0 0 0 0 0 0 0 0 0 0 0 0 0 0 0 0 0 0 0 0 0 0 0 0 0 0 0 0 0 0 0 0 0 0 0 0 0 0 0 0 0 0 0 0 0 0 0 0 0 0 0 0 0 0 0 0 0 0 0 0 0 0 0 0 0 0 0 0 0 0 0 0 0 0 0 0 0 0 0 0 0 0 0 0 0 0 0 0 0 0 0 0 0 0 0 0 0 0 0 0 0 0 0 0 0 0 0 0 0 0 0 0 0 0 0 0 0 0 0 0 0 0 0 0 0 0 0 0 0 -.  9 6 (.0 k.o o o o }.}.j.U S +.T T S B+H T w v B B Q I W K Q G V W I V W W V %.%.%.g.Z c.c.c.<.:.:.:.g.c.<. .<.Z %.<.Z <. .` Z Z ` ` ` X X V V ....G w v q q (.m   0 0 0 0 0 0 0 0 0 0 0 0 0 0 0 0 0 0 0 0 0 0 0 0 0 0 0 0 0 0 0 0 0 0 0 0 0 0 0 0 0 0 0 0 0 0 0 0 0 0 0 0 0 0 0 0 0 0 0 0 0 0 0 0 0 0 0 0 0 0 0 0 0 0 0 0 0 0 0 0 0 0 0 0 0 0 0 0 0 0 0 0 0 0 0 0 0 0 0 0 0 0 0 0 0 0 0 0 0 0 0 0 0 0 0 0 0 e e p (.0 q 0 d   d 0   (.q -.0 0 ~.S S T T G V ..*.V Q Q ..@.@.F F I I I I I H @.G F Q I Q G F W G G Q Q V Q ....T S G S ..*.H T G V V Y T ..G V H S H H G H H S w v e p 7 9 i ' <     s (.(.0 0 0 0 0 0 0 0 0 0 0 0 0 0 0 0 0 0 0 0 0 0 0 0 0 0 0 0 0 0 0 0 0 0 0 0 0 0 0 0 0 0 0 0 0 0 0 0 0 0 0 0 0 0 0 0 0 0 0 0 0 0 0 0 0 0 0 0 0 0 0 0 0 0 0 0 0 0 0 0 0 ",
"0 0 0 0 0 0 0 0 0 0 0 0 0 0 0 0 0 0 0 0 0 0 0 0 0 0 0 0 0 0 0 0 0 0 0 0 0 0 0 0 0 0 0 0 0 0 0 0 0 0 0 0 0 0 0 0 0 0 0 0 0 0 0 0 0 0 0 0 0 0 0 0 0 0 0 0 0 0 0 0 0 0 0 0 0 0 0 0 0 0 0 0 0 0 0 0 0 0 0 0 0 0 0 0 0 0 0 0 0 0 0 0 0 0 0 0 0 0 0 0 0 0 0 0 0 0 0 0 0 0 0 0 0 0 0 0 0     n (.k.(._.~.o o }.C+D+}.C+S +.+.T C+w U C+w S E F Q ..V G G I W &.@.G Q Q Q &.%.5.X %.c.c.<.<.<.Z <.<.:.<.%.%.Z Z Z  .Z <.<.Z <. .Z ` ` Y ......T S w p q d ).  -.0 0 0 0 0 0 0 0 0 0 0 0 0 0 0 0 0 0 0 0 0 0 0 0 0 0 0 0 0 0 0 0 0 0 0 0 0 0 0 0 0 0 0 0 0 0 0 0 0 0 0 0 0 0 0 0 0 0 0 0 0 0 0 0 0 0 0 0 0 0 0 0 0 0 0 0 0 0 0 0 0 0 0 0 0 0 0 0 0 0 0 0 0 0 0 0 0 0 0 0 0 0 0 0 0 0 0 0 0 0 0 0 0 0 0 0 0 (.w p 0 0 0 0 0 0 0 0 0 0 0 0 0 0 0 p U G T V *.*.` ....G @.K F F F K ..Q G F K G I I F I Q I V I G Q &.W ..G ..G S H S ..*.T T G I ..Y S *.S G S H S G w S G H H w e e (.9 A ' <     q 0 0 0 0 0 0 0 0 0 0 0 0 0 0 0 0 0 0 0 0 0 0 0 0 0 0 0 0 0 0 0 0 0 0 0 0 0 0 0 0 0 0 0 0 0 0 0 0 0 0 0 0 0 0 0 0 0 0 0 0 0 0 0 0 0 0 0 0 0 0 0 0 0 0 0 0 0 0 0 0 0 0 0 ",
"0 0 0 0 0 0 0 0 0 0 0 0 0 0 0 0 0 0 0 0 0 0 0 0 0 0 0 0 0 0 0 0 0 0 0 0 0 0 0 0 0 0 0 0 0 0 0 0 0 0 0 0 0 0 0 0 0 0 0 0 0 0 0 0 0 0 0 0 0 0 0 0 0 0 0 0 0 0 0 0 0 0 0 0 0 0 0 0 0 0 0 0 0 0 0 0 0 0 0 0 0 0 0 0 0 0 0 0 0 0 0 0 0 0 0 0 0 0 0 0 0 0 0 0 0 0 0 0 0 0 0 0 0 0 0 0 0 ).  9 0 c k.k.~.o }.}.o j.j.w C+B+T T B+U w b.w H H H Q Q V W V V I W &.G Q W V &.W 5.7.7.Z :.g.%.Z <.^.<.c.<.<.%.Z  .<. .Z Z  .<.%.%.Z %.`  .&...Q G S w v q d f     p (.0 0 0 0 0 0 0 0 0 0 0 0 0 0 0 0 0 0 0 0 0 0 0 0 0 0 0 0 0 0 0 0 0 0 0 0 0 0 0 0 0 0 0 0 0 0 0 0 0 0 0 0 0 0 0 0 0 0 0 0 0 0 0 0 0 0 0 0 0 0 0 0 0 0 0 0 0 0 0 0 0 0 0 0 0 0 0 0 0 0 0 0 0 0 0 0 0 0 0 0 0 0 0 0 0 0 0 0 0 0 0 0 0 0 0 0 0 0 0 0 0 0 0 0 0 0 0 0 0 0 0 0 0 (.S S G ..V V *.Y *.G I F E I I E F I I F I I Q I W F I F G @.G G V Q W G S G B++.S H T S V V I ..&.w S G S H S H w F G H w H v q f f 6 ^ ~ ,     7 0 0 0 0 0 0 0 0 0 0 0 0 0 0 0 0 0 0 0 0 0 0 0 0 0 0 0 0 0 0 0 0 0 0 0 0 0 0 0 0 0 0 0 0 0 0 0 0 0 0 0 0 0 0 0 0 0 0 0 0 0 0 0 0 0 0 0 0 0 0 0 0 0 0 0 0 0 0 0 0 0 0 0 ",
"0 0 0 0 0 0 0 0 0 0 0 0 0 0 0 0 0 0 0 0 0 0 0 0 0 0 0 0 0 0 0 0 0 0 0 0 0 0 0 0 0 0 0 0 0 0 0 0 0 0 0 0 0 0 0 0 0 0 0 0 0 0 0 0 0 0 0 0 0 0 0 0 0 0 0 0 0 0 0 0 0 0 0 0 0 0 0 0 0 0 0 0 0 0 0 0 0 0 0 0 0 0 0 0 0 0 0 0 0 0 0 0 0 0 0 0 0 0 0 0 0 0 0 0 0 0 0 0 0 0 0 0 0 0 0 0 0 d     n -.c -.k._.}.o o o C+v U T T C+S D+j.C+D+p S G H G G Q G Q &.I I Q @.W W Q V V Q 5.&.Z <.<.^.<.Z $. . . .<.<.Z  .<.$. .Z Z <.%.&.&.` %.V ..V ..I F v q q d ).  Q q 0 0 0 0 0 0 0 0 0 0 0 0 0 0 0 0 0 0 0 0 0 0 0 0 0 0 0 0 0 0 0 0 0 0 0 0 0 0 0 0 0 0 0 0 0 0 0 0 0 0 0 0 0 0 0 0 0 0 0 0 0 0 0 0 0 0 0 0 0 0 0 0 0 0 0 0 0 0 0 0 0 0 0 0 0 0 0 0 0 0 0 0 0 0 0 0 0 0 0 0 0 0 0 0 0 0 0 0 0 0 0 0 0 0 0 0 0 0 0 0 0 0 0 0 0 0 0 0 0 0 0 0 0 0 H H G ..*...*.X Q E E I E F Q S F I I @.@.I I Q Q F G F Q G ..G Q G G G S G T G S w T H T T S H V v H G G S E G F w H w v v p p f 7 -.5 1 [.#.    -.0 0 0 0 0 0 0 0 0 0 0 0 0 0 0 0 0 0 0 0 0 0 0 0 0 0 0 0 0 0 0 0 0 0 0 0 0 0 0 0 0 0 0 0 0 0 0 0 0 0 0 0 0 0 0 0 0 0 0 0 0 0 0 0 0 0 0 0 0 0 0 0 0 0 0 0 0 0 0 0 0 0 ",
"0 0 0 0 0 0 0 0 0 0 0 0 0 0 0 0 0 0 0 0 0 0 0 0 0 0 0 0 0 0 0 0 0 0 0 0 0 0 0 0 0 0 0 0 0 0 0 0 0 0 0 0 0 0 0 0 0 0 0 0 0 0 0 0 0 0 0 0 0 0 0 0 0 0 0 0 0 0 0 0 0 0 0 0 0 0 0 0 0 0 0 0 0 0 0 0 0 0 0 0 0 0 0 0 0 0 0 0 0 0 0 0 0 0 0 0 0 0 0 0 0 0 0 0 0 0 0 0 0 0 0 0 0 0 0 0 0 d q   9 5 -.0 6 a o o }.o U S S C+D+S B+U B+D+C+w v v T H I G G I ..W I @.W Q Q W Q @.W W 5.Z %.Z <.<. .Z %.Z ` Z <.$.Z ` Z Z Z Z Z Z Z X V V X X ..Q G H H p d ~._.).F G 0 0 0 0 0 0 0 0 0 0 0 0 0 0 0 0 0 0 0 0 0 0 0 0 0 0 0 0 0 0 0 0 0 0 0 0 0 0 0 0 0 0 0 0 0 0 0 0 0 0 0 0 0 0 0 0 0 0 0 0 0 0 0 0 0 0 0 0 0 0 0 0 0 0 0 0 0 0 0 0 0 0 0 0 0 0 0 0 0 0 0 0 0 0 0 0 0 0 0 0 0 0 0 0 0 0 0 0 0 0 0 0 0 0 0 0 0 0 0 0 0 0 0 0 0 0 0 0 0 0 0 0 0 q C+S S ..V ..Q G E F E E K H I F F F I K F G K I Q Q H H I G Q S Q Q G S H T B+H T w S S H G H G G S w G S G H H H G p H v d v q e ).).8 | 0., N j f 0 0 0 0 0 0 0 0 0 0 0 0 0 0 0 0 0 0 0 0 0 0 0 0 0 0 0 0 0 0 0 0 0 0 0 0 0 0 0 0 0 0 0 0 0 0 0 0 0 0 0 0 0 0 0 0 0 0 0 0 0 0 0 0 0 0 0 0 0 0 0 0 0 0 0 0 0 0 0 0 0 0 ",
"0 0 0 0 0 0 0 0 0 0 0 0 0 0 0 0 0 0 0 0 0 0 0 0 0 0 0 0 0 0 0 0 0 0 0 0 0 0 0 0 0 0 0 0 0 0 0 0 0 0 0 0 0 0 0 0 0 0 0 0 0 0 0 0 0 0 0 0 0 0 0 0 0 0 0 0 0 0 0 0 0 0 0 0 0 0 0 0 0 0 0 0 0 0 0 0 0 0 0 0 0 0 0 0 0 0 0 0 0 0 0 0 0 0 0 0 0 0 0 0 0 0 0 0 0 0 0 0 0 0 0 0 0 0 0 0 0 0 0 q v 9 5 0 n k.a a o _.o B+U U C+U U U Y U j.U U H H G S S G G I Q Q G &.Q V ..V ..Q W Q @.5.%.<.:.<.g.:.<.Z Z Z `  .$.Z  .Z <.<.Z Z %.%.X V X Q G Y G H H p e 0 6 '.K G 0 0 0 0 0 0 0 0 0 0 0 0 0 0 0 0 0 0 0 0 0 0 0 0 0 0 0 0 0 0 0 0 0 0 0 0 0 0 0 0 0 0 0 0 0 0 0 0 0 0 0 0 0 0 0 0 0 0 0 0 0 0 0 0 0 0 0 0 0 0 0 0 0 0 0 0 0 0 0 0 0 0 0 0 0 0 0 0 0 0 0 0 0 0 0 0 0 0 0 0 0 0 0 0 0 0 0 0 0 0 0 0 0 0 0 0 0 0 0 0 0 0 0 0 0 0 0 0 0 0 0 0 q H S G G ..S H H B E B B E F I F K F @.K K F I I I W w F Q K G I W &.G I H ..H w H w H B+H H S S S Q v H H G S B+S w w w v p d q q 0 9 !./ A <   6 0 0 0 0 0 0 0 0 0 0 0 0 0 0 0 0 0 0 0 0 0 0 0 0 0 0 0 0 0 0 0 0 0 0 0 0 0 0 0 0 0 0 0 0 0 0 0 0 0 0 0 0 0 0 0 0 0 0 0 0 0 0 0 0 0 0 0 0 0 0 0 0 0 0 0 0 0 0 0 0 0 0 0 ",
"0 0 0 0 0 0 0 0 0 0 0 0 0 0 0 0 0 0 0 0 0 0 0 0 0 0 0 0 0 0 0 0 0 0 0 0 0 0 0 0 0 0 0 0 0 0 0 0 0 0 0 0 0 0 0 0 0 0 0 0 0 0 0 0 0 0 0 0 0 0 0 0 0 0 0 0 0 0 0 0 0 0 0 0 0 0 0 0 0 0 0 0 0 0 0 0 0 0 0 0 0 0 0 0 0 0 0 0 0 0 0 0 0 0 0 0 0 0 0 0 0 0 0 0 0 0 0 0 0 0 0 0 0 0 0 0 0 0 0 0 0 f 9 5 n c a _.a a o }.D+U j.U +.+.*.*.B+}.j.D+w G T H H H H G V ..@.&.W W ..V V ..Z %.X &.Z 8.<.<.:.<.^.` ` Z %.%.Z Z Z ` ` %.` Z Z %.%.Y V G ..V G H w p 0 ).8 } d (.0 0 0 0 0 0 0 0 0 0 0 0 0 0 0 0 0 0 0 0 0 0 0 0 0 0 0 0 0 0 0 0 0 0 0 0 0 0 0 0 0 0 0 0 0 0 0 0 0 0 0 0 0 0 0 0 0 0 0 0 0 0 0 0 0 0 0 0 0 0 0 0 0 0 0 0 0 0 0 0 0 0 0 0 0 0 0 0 0 0 0 0 0 0 0 0 0 0 0 0 0 0 0 0 0 0 0 0 0 0 0 0 0 0 0 0 0 0 0 0 0 0 0 0 0 0 0 0 0 0 0 v H S T G H H E E v B B B v E B B K K @.K I G E F H I G E I @.I @.5.V Q I H ..T w H S H G S v S G Q I v w S T S H S H w p p p e e d -.-.} | e.-     7 0 0 0 0 0 0 0 0 0 0 0 0 0 0 0 0 0 0 0 0 0 0 0 0 0 0 0 0 0 0 0 0 0 0 0 0 0 0 0 0 0 0 0 0 0 0 0 0 0 0 0 0 0 0 0 0 0 0 0 0 0 0 0 0 0 0 0 0 0 0 0 0 0 0 0 0 0 0 0 0 0 0 ",
"0 0 0 0 0 0 0 0 0 0 0 0 0 0 0 0 0 0 0 0 0 0 0 0 0 0 0 0 0 0 0 0 0 0 0 0 0 0 0 0 0 0 0 0 0 0 0 0 0 0 0 0 0 0 0 0 0 0 0 0 0 0 0 0 0 0 0 0 0 0 0 0 0 0 0 0 0 0 0 0 0 0 0 0 0 0 0 0 0 0 0 0 0 0 0 0 0 0 0 0 0 0 0 0 0 0 0 0 0 0 0 0 0 0 0 0 0 0 0 0 0 0 0 0 0 0 0 0 0 0 0 0 0 0 0 0 0 0 0 0 0 f 8 i 9 f.k.a a c o o }.}.D+D+B+*.*.{.+.U }.j.B+w S H H H H G G ..Q Q W V W Q V V W Z %.Z 8.Z <.<.<.<.<.:.<.Z Z ` Z `  . . .` ` ` Z %.` X ` T G ..V G H v q d n 9   0 0 0 0 0 0 0 0 0 0 0 0 0 0 0 0 0 0 0 0 0 0 0 0 0 0 0 0 0 0 0 0 0 0 0 0 0 0 0 0 0 0 0 0 0 0 0 0 0 0 0 0 0 0 0 0 0 0 0 0 0 0 0 0 0 0 0 0 0 0 0 0 0 0 0 0 0 0 0 0 0 0 0 0 0 0 0 0 0 0 0 0 0 0 0 0 0 0 0 0 0 0 0 0 0 0 0 0 0 0 0 0 0 0 0 0 0 0 0 0 0 0 0 0 0 0 0 0 0 0 0 (.p H H T H H E E B B B w z E E v E E K I K G Q F E F S G I H I G I W Q ..G w S ..v H w S S T p w w T G w w H H S G H C+w q p 0 d d f 0 6 / ^ 1 ~       0 0 0 0 0 0 0 0 0 0 0 0 0 0 0 0 0 0 0 0 0 0 0 0 0 0 0 0 0 0 0 0 0 0 0 0 0 0 0 0 0 0 0 0 0 0 0 0 0 0 0 0 0 0 0 0 0 0 0 0 0 0 0 0 0 0 0 0 0 0 0 0 0 0 0 0 0 0 0 0 0 0 ",
"0 0 0 0 0 0 0 0 0 0 0 0 0 0 0 0 0 0 0 0 0 0 0 0 0 0 0 0 0 0 0 0 0 0 0 0 0 0 0 0 0 0 0 0 0 0 0 0 0 0 0 0 0 0 0 0 0 0 0 0 0 0 0 0 0 0 0 0 0 0 0 0 0 0 0 0 0 0 0 0 0 0 0 0 0 0 0 0 0 0 0 0 0 0 0 0 0 0 0 0 0 0 0 0 0 0 0 0 0 0 0 0 0 0 0 0 0 0 0 0 0 0 0 0 0 0 0 0 0 0 0 0 0 0 0 0 0 0 0 0 0 -.0   i 9 f.c a k.a o }.~.D+B+T +.Y *.+.+.U w o C+v H S G H H T W &.Q Q V V &.V V V Q %.&.l.8.<.<.<.<.<.Z <.<.` ` %.` ` Z <.` ` Y %.Z X Y V ..G V V T S w q 6 n     0 0 0 0 0 0 0 0 0 0 0 0 0 0 0 0 0 0 0 0 0 0 0 0 0 0 0 0 0 0 0 0 0 0 0 0 0 0 0 0 0 0 0 0 0 0 0 0 0 0 0 0 0 0 0 0 0 0 0 0 0 0 0 0 0 0 0 0 0 0 0 0 0 0 0 0 0 0 0 0 0 0 0 0 0 0 0 0 0 0 0 0 0 0 0 0 0 0 0 0 0 0 0 0 0 0 0 0 0 0 0 0 0 0 0 0 0 0 0 0 0 0 0 0 0 0 0 0 0 0 0 ~.v w H T F H F E E B B H E v z v G F Q F I K V I E H H G S I G G I @.G W G H w H w w B+U S T H w w ..G v H w H S w H w H w d q e d d 0 6 5 ^ 1 0.j   7 -.0 0 0 0 0 0 0 0 0 0 0 0 0 0 0 0 0 0 0 0 0 0 0 0 0 0 0 0 0 0 0 0 0 0 0 0 0 0 0 0 0 0 0 0 0 0 0 0 0 0 0 0 0 0 0 0 0 0 0 0 0 0 0 0 0 0 0 0 0 0 0 0 0 0 0 0 0 0 0 0 0 ",
"0 0 0 0 0 0 0 0 0 0 0 0 0 0 0 0 0 0 0 0 0 0 0 0 0 0 0 0 0 0 0 0 0 0 0 0 0 0 0 0 0 0 0 0 0 0 0 0 0 0 0 0 0 0 0 0 0 0 0 0 0 0 0 0 0 0 0 0 0 0 0 0 0 0 0 0 0 0 0 0 0 0 0 0 0 0 0 0 0 0 0 0 0 0 0 0 0 0 0 0 0 0 0 0 0 0 0 0 0 0 0 0 0 0 0 0 0 0 0 0 0 0 0 0 0 0 0 0 0 0 0 0 0 0 0 0 0 0 0 0 0 0 -.    ) 9 -.c c a _.o }.}.D++.B+*.+.+.B++.U w w T H S T ..S I T V Y ..Q V %.&.V V ..W %.&.Z Z <.<.<. .^. .Z  .Z ` X ` Y ` ` X ` Y X ` &.*...T ....*.G H w _.-.h.    p 0 0 0 0 0 0 0 0 0 0 0 0 0 0 0 0 0 0 0 0 0 0 0 0 0 0 0 0 0 0 0 0 0 0 0 0 0 0 0 0 0 0 0 0 0 0 0 0 0 0 0 0 0 0 0 0 0 0 0 0 0 0 0 0 0 0 0 0 0 0 0 0 0 0 0 0 0 0 0 0 0 0 0 0 0 0 0 0 0 0 0 0 0 0 0 0 0 0 0 0 0 0 0 0 0 0 0 0 0 0 0 0 0 0 0 0 0 0 0 0 0 0 0 0 0 0 0 0 0 (.p w S S w F H F B z B F B B v F F I G F G Q G Q w E S W T F G I G G G V I H v B+H H T *.B+S T w w T S v H H S G w H w H v v q d 6 7 f 0 6 ^ 1 !   7 -.0 0 0 0 0 0 0 0 0 0 0 0 0 0 0 0 0 0 0 0 0 0 0 0 0 0 0 0 0 0 0 0 0 0 0 0 0 0 0 0 0 0 0 0 0 0 0 0 0 0 0 0 0 0 0 0 0 0 0 0 0 0 0 0 0 0 0 0 0 0 0 0 0 0 0 0 0 0 0 0 0 0 ",
"0 0 0 0 0 0 0 0 0 0 0 0 0 0 0 0 0 0 0 0 0 0 0 0 0 0 0 0 0 0 0 0 0 0 0 0 0 0 0 0 0 0 0 0 0 0 0 0 0 0 0 0 0 0 0 0 0 0 0 0 0 0 0 0 0 0 0 0 0 0 0 0 0 0 0 0 0 0 0 0 0 0 0 0 0 0 0 0 0 0 0 0 0 0 0 0 0 0 0 0 0 0 0 0 0 0 0 0 0 0 0 0 0 0 0 0 0 0 0 0 0 0 0 0 0 0 0 0 0 0 0 0 0 0 0 0 0 0 0 0 0 0 e 6       5 c 0 c c a _.b.o b.B++.+.*.T U +.U D+w C+S H S S H H G W &.V &.V &.X V V &.&.Z Z 8.8.<.<. .Z <.<.Z ` `  .Z ` ` Z X X V X X X Y ....G ..Q ..S v d -.!.    (.0 0 0 0 0 0 0 0 0 0 0 0 0 0 0 0 0 0 0 0 0 0 0 0 0 0 0 0 0 0 0 0 0 0 0 0 0 0 0 0 0 0 0 0 0 0 0 0 0 0 0 0 0 0 0 0 0 0 0 0 0 0 0 0 0 0 0 0 0 0 0 0 0 0 0 0 0 0 0 0 0 0 0 0 0 0 0 0 0 0 0 0 0 0 0 0 0 0 0 0 0 0 0 0 0 0 0 0 0 0 0 0 0 0 0 0 0 0 0 0 0 0 0 0 0 0 0 0 0   p v S H H H H E B v w E C v F F I F G I G G F Q T w G W S G I I @.G G G H G H C+w G *...+.T T S p w S w H w H C+S S w p w ~.q q d 7 7 -.0 5 ( !     0 0 0 0 0 0 0 0 0 0 0 0 0 0 0 0 0 0 0 0 0 0 0 0 0 0 0 0 0 0 0 0 0 0 0 0 0 0 0 0 0 0 0 0 0 0 0 0 0 0 0 0 0 0 0 0 0 0 0 0 0 0 0 0 0 0 0 0 0 0 0 0 0 0 0 0 0 0 0 0 0 0 0 ",
"0 0 0 0 0 0 0 0 0 0 0 0 0 0 0 0 0 0 0 0 0 0 0 0 0 0 0 0 0 0 0 0 0 0 0 0 0 0 0 0 0 0 0 0 0 0 0 0 0 0 0 0 0 0 0 0 0 0 0 0 0 0 0 0 0 0 0 0 0 0 0 0 0 0 0 0 0 0 0 0 0 0 0 0 0 0 0 0 0 0 0 0 0 0 0 0 0 0 0 0 0 0 0 0 0 0 0 0 0 0 0 0 0 0 0 0 0 0 0 0 0 0 0 0 0 0 0 0 0 0 0 0 0 0 0 0 0 0 0 0 0 d -.0 0     _ 5 f.c c c a o }.}.U +.B++.+.+.U b.B++.U C+T G T T H S Q W ..V %.Y X X V W Z Z %.Z Z Z Z <.<. . .<. . .` X  .` ` Z Y X Y ` X &.Y ..G V G G T H ~.0       0 0 0 0 0 0 0 0 0 0 0 0 0 0 0 0 0 0 0 0 0 0 0 0 0 0 0 0 0 0 0 0 0 0 0 0 0 0 0 0 0 0 0 0 0 0 0 0 0 0 0 0 0 0 0 0 0 0 0 0 0 0 0 0 0 0 0 0 0 0 0 0 0 0 0 0 0 0 0 0 0 0 0 0 0 0 0 0 0 0 0 0 0 0 0 0 0 0 0 0 0 0 0 0 0 0 0 0 0 0 0 0 0 0 0 0 0 0 0 0 0 0 0 0 0 0 0 0 0 0   p v w H H H I F E w H B z w I H F F I G G G G T G S S Q T S I G I @.H ..Q G S S w H ..G T S T G w w H S S S T C+o v w p q q q d q d _.6 !.5 1 0.    0 0 0 0 0 0 0 0 0 0 0 0 0 0 0 0 0 0 0 0 0 0 0 0 0 0 0 0 0 0 0 0 0 0 0 0 0 0 0 0 0 0 0 0 0 0 0 0 0 0 0 0 0 0 0 0 0 0 0 0 0 0 0 0 0 0 0 0 0 0 0 0 0 0 0 0 0 0 0 0 0 0 0 ",
"0 0 0 0 0 0 0 0 0 0 0 0 0 0 0 0 0 0 0 0 0 0 0 0 0 0 0 0 0 0 0 0 0 0 0 0 0 0 0 0 0 0 0 0 0 0 0 0 0 0 0 0 0 0 0 0 0 0 0 0 0 0 0 0 0 0 0 0 0 0 0 0 0 0 0 0 0 0 0 0 0 0 0 0 0 0 0 0 0 0 0 0 0 0 0 0 0 0 0 0 0 0 0 0 0 0 0 0 0 0 0 0 0 0 0 0 0 0 0 0 0 0 0 0 0 0 0 0 0 0 0 0 0 0 0 0 0 0 0 0 0 0 0 0 0 6 H     5 -.a c c a o }.B+b.b.b.B+].b.b.U T *.S B+B++.V ......V Y V V Z `  .8.V &.%.Z X Z Z  . .Z Z  .`  .<. .` Y Y Z ` ` Y *.*. .` Y *.T *.V G H H w d     w 0 0 0 0 0 0 0 0 0 0 0 0 0 0 0 0 0 0 0 0 0 0 0 0 0 0 0 0 0 0 0 0 0 0 0 0 0 0 0 0 0 0 0 0 0 0 0 0 0 0 0 0 0 0 0 0 0 0 0 0 0 0 0 0 0 0 0 0 0 0 0 0 0 0 0 0 0 0 0 0 0 0 0 0 0 0 0 0 0 0 0 0 0 0 0 0 0 0 0 0 0 0 0 0 0 0 0 0 0 0 0 0 0 0 0 0 0 0 0 0 0 0 0 0 0 0 0 0 0 0   ~.v w H w S Q I S E w B E G I G F I I H I I G I G I Q Q &.&.H S ....S ..*.G H G T S G T S B+B+G H H w G G ..S T B+C+o p d q (.e q f q d m !./ A < t 0 0 0 0 0 0 0 0 0 0 0 0 0 0 0 0 0 0 0 0 0 0 0 0 0 0 0 0 0 0 0 0 0 0 0 0 0 0 0 0 0 0 0 0 0 0 0 0 0 0 0 0 0 0 0 0 0 0 0 0 0 0 0 0 0 0 0 0 0 0 0 0 0 0 0 0 0 0 0 0 0 0 0 ",
"0 0 0 0 0 0 0 0 0 0 0 0 0 0 0 0 0 0 0 0 0 0 0 0 0 0 0 0 0 0 0 0 0 0 0 0 0 0 0 0 0 0 0 0 0 0 0 0 0 0 0 0 0 0 0 0 0 0 0 0 0 0 0 0 0 0 0 0 0 0 0 0 0 0 0 0 0 0 0 0 0 0 0 0 0 0 0 0 0 0 0 0 0 0 0 0 0 0 0 0 0 0 0 0 0 0 0 0 0 0 0 0 0 0 0 0 0 0 0 0 0 0 0 0 0 0 0 0 0 0 0 0 0 0 0 0 0 0 0 0 0 0 0 0 0 0 0       n c k.c k._.o }.j.b.b.b.b.b.U +.b.+.*.B++.B+T ..V Y ` Y *.&.&.W V Z Z ..W %.%.Z Z Z  . .Z Z `  .` Z ` Y Y X `  .<.*.*.X X X Y ..T V ..S H v q ).    0 0 0 0 0 0 0 0 0 0 0 0 0 0 0 0 0 0 0 0 0 0 0 0 0 0 0 0 0 0 0 0 0 0 0 0 0 0 0 0 0 0 0 0 0 0 0 0 0 0 0 0 0 0 0 0 0 0 0 0 0 0 0 0 0 0 0 0 0 0 0 0 0 0 0 0 0 0 0 0 0 0 0 0 0 0 0 0 0 0 0 0 0 0 0 0 0 0 0 0 0 0 0 0 0 0 0 0 0 0 0 0 0 0 0 0 0 0 0 0 0 0 0 0 0 0 0 0 0 p   _.p w w w S S I F w H v H S Q H F I I I I F I G H G W W ..<.Q F Q I S ..Y T H ..+.T S +.S B+T ..H S w T ..+.T S D+C+w o S w d 0 d e d p ~.8 ^ ' -   0 0 0 0 0 0 0 0 0 0 0 0 0 0 0 0 0 0 0 0 0 0 0 0 0 0 0 0 0 0 0 0 0 0 0 0 0 0 0 0 0 0 0 0 0 0 0 0 0 0 0 0 0 0 0 0 0 0 0 0 0 0 0 0 0 0 0 0 0 0 0 0 0 0 0 0 0 0 0 0 0 0 0 ",
"0 0 0 0 0 0 0 0 0 0 0 0 0 0 0 0 0 0 0 0 0 0 0 0 0 0 0 0 0 0 0 0 0 0 0 0 0 0 0 0 0 0 0 0 0 0 0 0 0 0 0 0 0 0 0 0 0 0 0 0 0 0 0 0 0 0 0 0 0 0 0 0 0 0 0 0 0 0 0 0 0 0 0 0 0 0 0 0 0 0 0 0 0 0 0 0 0 0 0 0 0 0 0 0 0 0 0 0 0 0 0 0 0 0 0 0 0 0 0 0 0 0 0 0 0 0 0 0 0 0 0 0 0 0 0 0 0 0 0 0 0 0 0 0 0 q d -.0 0   -.c k.c _._.o }.b.b.b.U B+U T {.+.T +.*.*.*.T T ..V Y X X &.V G G V %...&.X Z Z  . . .Z Z `  . . . .Y Y Y ` %.<.` *.*.Z ` Y *.G ....G S w B (.).0 0 0 0 0 0 0 0 0 0 0 0 0 0 0 0 0 0 0 0 0 0 0 0 0 0 0 0 0 0 0 0 0 0 0 0 0 0 0 0 0 0 0 0 0 0 0 0 0 0 0 0 0 0 0 0 0 0 0 0 0 0 0 0 0 0 0 0 0 0 0 0 0 0 0 0 0 0 0 0 0 0 0 0 0 0 0 0 0 0 0 0 0 0 0 0 0 0 0 0 0 0 0 0 0 0 0 0 0 0 0 0 0 0 0 0 0 0 0 0 0 0 0 0 0 0 0 0 0 0 q w d q w H S T G I w w S H H G G I H G F G I F I G H H Q V G l.8.I G I H Q V T S ..+.T S S H T S B+H H v T *.T +.T B+U B+w w S v p d o d 0 ~.(.9 A 3   -.0 0 0 0 0 0 0 0 0 0 0 0 0 0 0 0 0 0 0 0 0 0 0 0 0 0 0 0 0 0 0 0 0 0 0 0 0 0 0 0 0 0 0 0 0 0 0 0 0 0 0 0 0 0 0 0 0 0 0 0 0 0 0 0 0 0 0 0 0 0 0 0 0 0 0 0 0 0 0 0 0 0 ",
"0 0 0 0 0 0 0 0 0 0 0 0 0 0 0 0 0 0 0 0 0 0 0 0 0 0 0 0 0 0 0 0 0 0 0 0 0 0 0 0 0 0 0 0 0 0 0 0 0 0 0 0 0 0 0 0 0 0 0 0 0 0 0 0 0 0 0 0 0 0 0 0 0 0 0 0 0 0 0 0 0 0 0 0 0 0 0 0 0 0 0 0 0 0 0 0 0 0 0 0 0 0 0 0 0 0 0 0 0 0 0 0 0 0 0 0 0 0 0 0 0 0 0 0 0 0 0 0 0 0 0 0 0 0 0 0 0 0 0 0 0 0 0 0 0 0 0 (.d 0 0   -.a c a a a }.U b.U U b.B+U {.].+.*.*.Y *.Y ` *.V ..V &.V W ..G Q V X V ` Z  . .<. .<. . .`  . . .` Y Y X X Z  .Y Y X X Y V ..T T T S w p f !.  (.0 0 0 0 0 0 0 0 0 0 0 0 0 0 0 0 0 0 0 0 0 0 0 0 0 0 0 0 0 0 0 0 0 0 0 0 0 0 0 0 0 0 0 0 0 0 0 0 0 0 0 0 0 0 0 0 0 0 0 0 0 0 0 0 0 0 0 0 0 0 0 0 0 0 0 0 0 0 0 0 0 0 0 0 0 0 0 0 0 0 0 0 0 0 0 0 0 0 0 0 0 0 0 0 0 0 0 0 0 0 0 0 0 0 0 0 0 0 0 0 0 0 0 0 0 0 0 0 0 w 0 q w w S G T G E w S T w G G G H S w I H H I S H H I Q W 5.8.I G G H G *.T B+S T T S w H C+B+T w S w ..+.S T *.T C+H T v S w ~.e p o _.0 0 8 1 3   7 0 0 0 0 0 0 0 0 0 0 0 0 0 0 0 0 0 0 0 0 0 0 0 0 0 0 0 0 0 0 0 0 0 0 0 0 0 0 0 0 0 0 0 0 0 0 0 0 0 0 0 0 0 0 0 0 0 0 0 0 0 0 0 0 0 0 0 0 0 0 0 0 0 0 0 0 0 0 0 0 0 0 ",
"0 0 0 0 0 0 0 0 0 0 0 0 0 0 0 0 0 0 0 0 0 0 0 0 0 0 0 0 0 0 0 0 0 0 0 0 0 0 0 0 0 0 0 0 0 0 0 0 0 0 0 0 0 0 0 0 0 0 0 0 0 0 0 0 0 0 0 0 0 0 0 0 0 0 0 0 0 0 0 0 0 0 0 0 0 0 0 0 0 0 0 0 0 0 0 0 0 0 0 0 0 0 0 0 0 0 0 0 0 0 0 0 0 0 0 0 0 0 0 0 0 0 0 0 0 0 0 0 0 0 0 0 0 0 0 0 0 0 0 0 0 0 0 0 0 0 0 0 (.0 0     (.a _._.a o }.}.b.b.b.D+B++.{.{.*.*.*.Y T ` ` X Z Y G W V ..Q V &.Y Y Y `  . .`  .Z  . .` ` ` Z  .` Y X X  .Z ` Z X Y X Y ....T S H w p C 7   d 0 0 0 0 0 0 0 0 0 0 0 0 0 0 0 0 0 0 0 0 0 0 0 0 0 0 0 0 0 0 0 0 0 0 0 0 0 0 0 0 0 0 0 0 0 0 0 0 0 0 0 0 0 0 0 0 0 0 0 0 0 0 0 0 0 0 0 0 0 0 0 0 0 0 0 0 0 0 0 0 0 0 0 0 0 0 0 0 0 0 0 0 0 0 0 0 0 0 0 0 0 0 0 0 0 0 0 0 0 0 0 0 0 0 0 0 0 0 0 0 0 0 0 0 0 0 0 0 0 0 6 q v H B+G S T w v w G w G Q G w G H w w T S S H S G I K W 8.@.G I S T V T T w S C+H H v H T H G F S S T S *.....C+H B+w w w p d q d o 0 0 !._ D     -.0 0 0 0 0 0 0 0 0 0 0 0 0 0 0 0 0 0 0 0 0 0 0 0 0 0 0 0 0 0 0 0 0 0 0 0 0 0 0 0 0 0 0 0 0 0 0 0 0 0 0 0 0 0 0 0 0 0 0 0 0 0 0 0 0 0 0 0 0 0 0 0 0 0 0 0 0 0 0 0 0 ",
"0 0 0 0 0 0 0 0 0 0 0 0 0 0 0 0 0 0 0 0 0 0 0 0 0 0 0 0 0 0 0 0 0 0 0 0 0 0 0 0 0 0 0 0 0 0 0 0 0 0 0 0 0 0 0 0 0 0 0 0 0 0 0 0 0 0 0 0 0 0 0 0 0 0 0 0 0 0 0 0 0 0 0 0 0 0 0 0 0 0 0 0 0 0 0 0 0 0 0 0 0 0 0 0 0 0 0 0 0 0 0 0 0 0 0 0 0 0 0 0 0 0 0 0 0 0 0 0 0 0 0 0 0 0 0 0 0 0 0 0 0 0 0 0 0 0 0 0 0 0 0 q d   ~.~.o o p o o }.D+U }.b.Y {.+.*.Y Y ` Y *.*.V W ....G G Q V Q Y ` Z ` ` `  . .Z  . . .$. .` ` ` `  .`  .Z Z X Z <.%.X X *.....T G H v q f 9   p 0 0 0 0 0 0 0 0 0 0 0 0 0 0 0 0 0 0 0 0 0 0 0 0 0 0 0 0 0 0 0 0 0 0 0 0 0 0 0 0 0 0 0 0 0 0 0 0 0 0 0 0 0 0 0 0 0 0 0 0 0 0 0 0 0 0 0 0 0 0 0 0 0 0 0 0 0 0 0 0 0 0 0 0 0 0 0 0 0 0 0 0 0 0 0 0 0 0 0 0 0 0 0 0 0 0 0 0 0 0 0 0 0 0 0 0 0 0 0 0 0 0 0 0 0 0 0 0 v p d p w S G H S w p w S w T G T w H G v E ..H H S w T G K K W Q T H H G ..T T T G S v C+p w H S T S T S T H G B+G B+H H U v }.v q q q p k.6 5 ) D <   0 0 0 0 0 0 0 0 0 0 0 0 0 0 0 0 0 0 0 0 0 0 0 0 0 0 0 0 0 0 0 0 0 0 0 0 0 0 0 0 0 0 0 0 0 0 0 0 0 0 0 0 0 0 0 0 0 0 0 0 0 0 0 0 0 0 0 0 0 0 0 0 0 0 0 0 0 0 0 0 0 0 ",
"0 0 0 0 0 0 0 0 0 0 0 0 0 0 0 0 0 0 0 0 0 0 0 0 0 0 0 0 0 0 0 0 0 0 0 0 0 0 0 0 0 0 0 0 0 0 0 0 0 0 0 0 0 0 0 0 0 0 0 0 0 0 0 0 0 0 0 0 0 0 0 0 0 0 0 0 0 0 0 0 0 0 0 0 0 0 0 0 0 0 0 0 0 0 0 0 0 0 0 0 0 0 0 0 0 0 0 0 0 0 0 0 0 0 0 0 0 0 0 0 0 0 0 0 0 0 0 0 0 0 0 0 0 0 0 0 0 0 0 0 0 0 0 0 0 0 0 0 0 0 0 d d 0 6 (.o o o j.o o }.}.U U +.` ].+.].` *.` Y *.G G W G Q T Q ..V V ` Z  . .` Y ` ` ` ` ` ` ` ` ` Z ` ` Y ` X X Y &.%.` X *.Y ..*...S H p d e 8     d 0 0 0 0 0 0 0 0 0 0 0 0 0 0 0 0 0 0 0 0 0 0 0 0 0 0 0 0 0 0 0 0 0 0 0 0 0 0 0 0 0 0 0 0 0 0 0 0 0 0 0 0 0 0 0 0 0 0 0 0 0 0 0 0 0 0 0 0 0 0 0 0 0 0 0 0 0 0 0 0 0 0 0 0 0 0 0 0 0 0 0 0 0 0 0 0 0 0 0 0 0 0 0 0 0 0 0 0 0 0 0 0 0 0 0 0 0 0 0 0 0 0 0 0 0 0 0 d   ~.p B H +.S H w v v S w G T S w H S w v T w H w v H I F G I Q G C+w S ..S G T S *.H C+v v v S T S G W I S H G S S S p C+w p q v p w (.k.-.!.: A 3   7 0 0 0 0 0 0 0 0 0 0 0 0 0 0 0 0 0 0 0 0 0 0 0 0 0 0 0 0 0 0 0 0 0 0 0 0 0 0 0 0 0 0 0 0 0 0 0 0 0 0 0 0 0 0 0 0 0 0 0 0 0 0 0 0 0 0 0 0 0 0 0 0 0 0 0 0 0 0 0 0 0 ",
"0 0 0 0 0 0 0 0 0 0 0 0 0 0 0 0 0 0 0 0 0 0 0 0 0 0 0 0 0 0 0 0 0 0 0 0 0 0 0 0 0 0 0 0 0 0 0 0 0 0 0 0 0 0 0 0 0 0 0 0 0 0 0 0 0 0 0 0 0 0 0 0 0 0 0 0 0 0 0 0 0 0 0 0 0 0 0 0 0 0 0 0 0 0 0 0 0 0 0 0 0 0 0 0 0 0 0 0 0 0 0 0 0 0 0 0 0 0 0 0 0 0 0 0 0 0 0 0 0 0 0 0 0 0 0 0 0 0 0 0 0 0 0 0 0 0 0 0 0 0 0 0 0 0 q   0 o }.b.H +.}.o b.U b.+.*.*.].Y ].Y Y ..V ..Q W V V ....X Z Z ` Z $.` ` `  .<.%. . .` X ` ` ` ` Y Y *.` ` V &.X Y ` V Y Y ..T H w d e m ).0 d 0 0 0 0 0 0 0 0 0 0 0 0 0 0 0 0 0 0 0 0 0 0 0 0 0 0 0 0 0 0 0 0 0 0 0 0 0 0 0 0 0 0 0 0 0 0 0 0 0 0 0 0 0 0 0 0 0 0 0 0 0 0 0 0 0 0 0 0 0 0 0 0 0 0 0 0 0 0 0 0 0 0 0 0 0 0 0 0 0 0 0 0 0 0 0 0 0 0 0 0 0 0 0 0 0 0 0 0 0 0 0 0 0 0 0 0 0 0 0 0 0 0 0 0 0 0 0 d d _.q v S S S S w v v H w H ..H w H S S w H S v H w S H H I W Q S S w S G B+G +.S V G H w v G C+G Q S ..I S w w H w p v w H o d q v v ~.q _.).: b !     7 0 0 0 0 0 0 0 0 0 0 0 0 0 0 0 0 0 0 0 0 0 0 0 0 0 0 0 0 0 0 0 0 0 0 0 0 0 0 0 0 0 0 0 0 0 0 0 0 0 0 0 0 0 0 0 0 0 0 0 0 0 0 0 0 0 0 0 0 0 0 0 0 0 0 0 0 0 0 0 0 ",
"0 0 0 0 0 0 0 0 0 0 0 0 0 0 0 0 0 0 0 0 0 0 0 0 0 0 0 0 0 0 0 0 0 0 0 0 0 0 0 0 0 0 0 0 0 0 0 0 0 0 0 0 0 0 0 0 0 0 0 0 0 0 0 0 0 0 0 0 0 0 0 0 0 0 0 0 0 0 0 0 0 0 0 0 0 0 0 0 0 0 0 0 0 0 0 0 0 0 0 0 0 0 0 0 0 0 0 0 0 0 0 0 0 0 0 0 0 0 0 0 0 0 0 0 0 0 0 0 0 0 0 0 0 0 0 0 0 0 0 0 0 0 0 0 0 0 0 0 0 0 0 0 0 0 0     q }.D+D+{.U }.b.b.b.{.*.*.*.Y Y ` ` V ......V V X V &.` Z <. .`  . .` X Z  .<. . . .` `  .` Y Y Y Y ..*.Y Y ` Y Y &.*.*.Y ..S w q f 6   (.0 0 0 0 0 0 0 0 0 0 0 0 0 0 0 0 0 0 0 0 0 0 0 0 0 0 0 0 0 0 0 0 0 0 0 0 0 0 0 0 0 0 0 0 0 0 0 0 0 0 0 0 0 0 0 0 0 0 0 0 0 0 0 0 0 0 0 0 0 0 0 0 0 0 0 0 0 0 0 0 0 0 0 0 0 0 0 0 0 0 0 0 0 0 0 0 0 0 0 0 0 0 0 0 0 0 0 0 0 0 0 0 0 0 0 0 0 0 0 0 0 0 0 0 0 0 0 0 (.q k.q w H H G S H C+S S S v Q S w B+G S w H H v H H w H w B F &.I T F I G T T T H T Y S S w ....G T H G S T w H S S H p p p v q e v p w d q f 8 i !     7 7 0 0 0 0 0 0 0 0 0 0 0 0 0 0 0 0 0 0 0 0 0 0 0 0 0 0 0 0 0 0 0 0 0 0 0 0 0 0 0 0 0 0 0 0 0 0 0 0 0 0 0 0 0 0 0 0 0 0 0 0 0 0 0 0 0 0 0 0 0 0 0 0 0 0 0 0 0 0 0 ",
"0 0 0 0 0 0 0 0 0 0 0 0 0 0 0 0 0 0 0 0 0 0 0 0 0 0 0 0 0 0 0 0 0 0 0 0 0 0 0 0 0 0 0 0 0 0 0 0 0 0 0 0 0 0 0 0 0 0 0 0 0 0 0 0 0 0 0 0 0 0 0 0 0 0 0 0 0 0 0 0 0 0 0 0 0 0 0 0 0 0 0 0 0 0 0 0 0 0 0 0 0 0 0 0 0 0 0 0 0 0 0 0 0 0 0 0 0 0 0 0 0 0 0 0 0 0 0 0 0 0 0 0 0 0 0 0 0 0 0 0 0 0 0 0 0 0 0 0 0 0 0 0 0 0 0 v W d p }.U +.+.U }.b.U b.{.+.+.*.` ` X Y ..G Q ..V W %.X X ` Z <. .`  .` Y `  . .<. .`  .`  . .` Y *.Y ....*.Y V ` V &.` *.T Y *.H q e s 8 m 0 0 0 0 0 0 0 0 0 0 0 0 0 0 0 0 0 0 0 0 0 0 0 0 0 0 0 0 0 0 0 0 0 0 0 0 0 0 0 0 0 0 0 0 0 0 0 0 0 0 0 0 0 0 0 0 0 0 0 0 0 0 0 0 0 0 0 0 0 0 0 0 0 0 0 0 0 0 0 0 0 0 0 0 0 0 0 0 0 0 0 0 0 0 0 0 0 0 0 0 0 0 0 0 0 0 0 0 0 0 0 0 0 0 0 0 0 0 0 0 0 0 0 0 0 0 0 0 0 p 6 d v H S S S w v H S +.p S S H B+H H w S H S w w F H H F E Q Q Q H I H G T ..T G ..+.S T G *...T G G H H H v G H w v p q q v p q q q q p 0 m )     7 0 -.0 0 0 0 0 0 0 0 0 0 0 0 0 0 0 0 0 0 0 0 0 0 0 0 0 0 0 0 0 0 0 0 0 0 0 0 0 0 0 0 0 0 0 0 0 0 0 0 0 0 0 0 0 0 0 0 0 0 0 0 0 0 0 0 0 0 0 0 0 0 0 0 0 0 0 0 0 0 0 ",
"0 0 0 0 0 0 0 0 0 0 0 0 0 0 0 0 0 0 0 0 0 0 0 0 0 0 0 0 0 0 0 0 0 0 0 0 0 0 0 0 0 0 0 0 0 0 0 0 0 0 0 0 0 0 0 0 0 0 0 0 0 0 0 0 0 0 0 0 0 0 0 0 0 0 0 0 0 0 0 0 0 0 0 0 0 0 0 0 0 0 0 0 0 0 0 0 0 0 0 0 0 0 0 0 0 0 0 0 0 0 0 0 0 0 0 0 0 0 0 0 0 0 0 0 0 0 0 0 0 0 0 0 0 0 0 0 0 0 0 0 0 0 0 0 0 0 0 0 0 0 0 0 0 0 p q I 6 q o j.B+].*.U D+U B+b.+.+...Y V Z Y V ..Q V V X &.Z <.%.Z <.<.Z ` ` ` ` Z Z <.$. .`  .` ` ` ` ` Y Y ..*...Y Y *.V V ` Y ....T w f 7   0 0 0 0 0 0 0 0 0 0 0 0 0 0 0 0 0 0 0 0 0 0 0 0 0 0 0 0 0 0 0 0 0 0 0 0 0 0 0 0 0 0 0 0 0 0 0 0 0 0 0 0 0 0 0 0 0 0 0 0 0 0 0 0 0 0 0 0 0 0 0 0 0 0 0 0 0 0 0 0 0 0 0 0 0 0 0 0 0 0 0 0 0 0 0 0 0 0 0 0 0 0 0 0 0 0 0 0 0 0 0 0 0 0 0 0 0 0 0 0 0 0 0 0 0 0 0 0 0 0 -.-.d v C+B+B+S S v H H U v S S G S H S w S w H G S H E H w F Q G G S G H H T S ....+.+.S S S G G V H G T w }.w H S v v q v C q p p v q e q (.7 } D   0 0 0 0 0 0 0 0 0 0 0 0 0 0 0 0 0 0 0 0 0 0 0 0 0 0 0 0 0 0 0 0 0 0 0 0 0 0 0 0 0 0 0 0 0 0 0 0 0 0 0 0 0 0 0 0 0 0 0 0 0 0 0 0 0 0 0 0 0 0 0 0 0 0 0 0 0 0 0 0 0 0 ",
"0 0 0 0 0 0 0 0 0 0 0 0 0 0 0 0 0 0 0 0 0 0 0 0 0 0 0 0 0 0 0 0 0 0 0 0 0 0 0 0 0 0 0 0 0 0 0 0 0 0 0 0 0 0 0 0 0 0 0 0 0 0 0 0 0 0 0 0 0 0 0 0 0 0 0 0 0 0 0 0 0 0 0 0 0 0 0 0 0 0 0 0 0 0 0 0 0 0 0 0 0 0 0 0 0 0 0 0 0 0 0 0 0 0 0 0 0 0 0 0 0 0 0 0 0 0 0 0 0 0 0 0 0 0 0 0 0 0 0 0 0 0 0 0 0 0 0 0 0 0 0 0 0 0 0 -.    0 }.H T +.Y +.j.+.B+B+B+*.T ..Q &.&.Q ..Q W ..X Z X Z %. .Z ^.<.Z Z  .`  . .$.$. . . . .Y ` ` Y Y ` *.*.....*.*.Y Y V ` *...G S q 6     d 0 0 0 0 0 0 0 0 0 0 0 0 0 0 0 0 0 0 0 0 0 0 0 0 0 0 0 0 0 0 0 0 0 0 0 0 0 0 0 0 0 0 0 0 0 0 0 0 0 0 0 0 0 0 0 0 0 0 0 0 0 0 0 0 0 0 0 0 0 0 0 0 0 0 0 0 0 0 0 0 0 0 0 0 0 0 0 0 0 0 0 0 0 0 0 0 0 0 0 0 0 0 0 0 0 0 0 0 0 0 0 0 0 0 0 0 0 0 0 0 0 0 0 0 0 0 0 (.    q p H T T T T w v H U w G +...H S S S T S H S T H S v p E F V T S I F T T S T Q T +.*.H S w H V G H G S v p q w p v q d q p q d z d ~.6 !.8 } (   q 0 0 0 0 0 0 0 0 0 0 0 0 0 0 0 0 0 0 0 0 0 0 0 0 0 0 0 0 0 0 0 0 0 0 0 0 0 0 0 0 0 0 0 0 0 0 0 0 0 0 0 0 0 0 0 0 0 0 0 0 0 0 0 0 0 0 0 0 0 0 0 0 0 0 0 0 0 0 0 0 0 ",
"0 0 0 0 0 0 0 0 0 0 0 0 0 0 0 0 0 0 0 0 0 0 0 0 0 0 0 0 0 0 0 0 0 0 0 0 0 0 0 0 0 0 0 0 0 0 0 0 0 0 0 0 0 0 0 0 0 0 0 0 0 0 0 0 0 0 0 0 0 0 0 0 0 0 0 0 0 0 0 0 0 0 0 0 0 0 0 0 0 0 0 0 0 0 0 0 0 0 0 0 0 0 0 0 0 0 0 0 0 0 0 0 0 0 0 0 0 0 0 0 0 0 0 0 0 0 0 0 0 0 0 0 0 0 0 0 0 0 0 0 0 0 0 0 0 0 0 0 0 0 0 0 0 (.q     n q v S B+*.` T B+U B+B+B+*...S Q &.V I Q Q &.V V X Z %.Z Z %.$.^.Z `  . . .`  . . . . .` ` ` ;.` Y Y Y *.*.*...*.*.......Y *.T H v -.-.0 v q 0 0 0 0 0 0 0 0 0 0 0 0 0 0 0 0 0 0 0 0 0 0 0 0 0 0 0 0 0 0 0 0 0 0 0 0 0 0 0 0 0 0 0 0 0 0 0 0 0 0 0 0 0 0 0 0 0 0 0 0 0 0 0 0 0 0 0 0 0 0 0 0 0 0 0 0 0 0 0 0 0 0 0 0 0 0 0 0 0 0 0 0 0 0 0 0 0 0 0 0 0 0 0 0 0 0 0 0 0 0 0 0 0 0 0 0 0 0 0 0 0 0 0 0 0 0 0     d p w B++.T B+H v w j.C+B++.T B+G T U ..U B+H S S B+w p q E ..Q H E H ..H S H T *.T *.G S S H H G F S Q T j.p q p p d p v p H v B p p d 8 t : (   s (.0 0 0 0 0 0 0 0 0 0 0 0 0 0 0 0 0 0 0 0 0 0 0 0 0 0 0 0 0 0 0 0 0 0 0 0 0 0 0 0 0 0 0 0 0 0 0 0 0 0 0 0 0 0 0 0 0 0 0 0 0 0 0 0 0 0 0 0 0 0 0 0 0 0 0 0 0 0 0 0 ",
"0 0 0 0 0 0 0 0 0 0 0 0 0 0 0 0 0 0 0 0 0 0 0 0 0 0 0 0 0 0 0 0 0 0 0 0 0 0 0 0 0 0 0 0 0 0 0 0 0 0 0 0 0 0 0 0 0 0 0 0 0 0 0 0 0 0 0 0 0 0 0 0 0 0 0 0 0 0 0 0 0 0 0 0 0 0 0 0 0 0 0 0 0 0 0 0 0 0 0 0 0 0 0 0 0 0 0 0 0 0 0 0 0 0 0 0 0 0 0 0 0 0 0 0 0 0 0 0 0 0 0 0 0 0 0 0 0 0 0 0 0 0 0 0 0 0 0 0 0 0 0 0 d H V W n (.~.}.B+H S S U B+T H S S T G E G Q @.G G V V &.&.X Z Z %.X X  .^.$. .`  .Z  . . . .` ` ` ` Y Y Y Y *.Y *.*.Y *...T ......Y *.+.S w d 6 0 0 0 0 0 0 0 0 0 0 0 0 0 0 0 0 0 0 0 0 0 0 0 0 0 0 0 0 0 0 0 0 0 0 0 0 0 0 0 0 0 0 0 0 0 0 0 0 0 0 0 0 0 0 0 0 0 0 0 0 0 0 0 0 0 0 0 0 0 0 0 0 0 0 0 0 0 0 0 0 0 0 0 0 0 0 0 0 0 0 0 0 0 0 0 0 0 0 0 0 0 0 0 0 0 0 0 0 0 0 0 0 0 0 0 0 0 0 0 0 0 0 0 0 0 0 0 0 0 0 l.B 6 q v S T T T U w w j.C+w T +.T T ..S ..S U C+B+C+B+B+C+v p K V G H F T H w S H Q G T ..S H S H H I S ..G S C+p q v q d p w v w B p d k.0 !.: (   r 0 0 0 0 0 0 0 0 0 0 0 0 0 0 0 0 0 0 0 0 0 0 0 0 0 0 0 0 0 0 0 0 0 0 0 0 0 0 0 0 0 0 0 0 0 0 0 0 0 0 0 0 0 0 0 0 0 0 0 0 0 0 0 0 0 0 0 0 0 0 0 0 0 0 0 0 0 0 0 0 0 ",
"0 0 0 0 0 0 0 0 0 0 0 0 0 0 0 0 0 0 0 0 0 0 0 0 0 0 0 0 0 0 0 0 0 0 0 0 0 0 0 0 0 0 0 0 0 0 0 0 0 0 0 0 0 0 0 0 0 0 0 0 0 0 0 0 0 0 0 0 0 0 0 0 0 0 0 0 0 0 0 0 0 0 0 0 0 0 0 0 0 0 0 0 0 0 0 0 0 0 0 0 0 0 0 0 0 0 0 0 0 0 0 0 0 0 0 0 0 0 0 0 0 0 0 0 0 0 0 0 0 0 0 0 0 0 0 0 0 0 0 0 0 0 0 0 0 0 0 0 0 0 0 0 0 0 p t 9 -.f e e d v C+w H C+H w v E G E I 4.K E F Q Q Q W &.%.` Z Y X  .$.$.` ` ` ;.` `  .` ;.` Y Y Y *.*.*.+.*.*.+.*.Y +.T T ..T G G +.S w p   p q 0 0 0 0 0 0 0 0 0 0 0 0 0 0 0 0 0 0 0 0 0 0 0 0 0 0 0 0 0 0 0 0 0 0 0 0 0 0 0 0 0 0 0 0 0 0 0 0 0 0 0 0 0 0 0 0 0 0 0 0 0 0 0 0 0 0 0 0 0 0 0 0 0 0 0 0 0 0 0 0 0 0 0 0 0 0 0 0 0 0 0 0 0 0 0 0 0 0 0 0 0 0 0 0 0 0 0 0 0 0 0 0 0 0 0 0 0 0 0 0 0 0 0 0 0 0 0 q V v ).e p H T B+T U H v C+C+w +.T T *.T ..T T S C+H B+w B+D+S H w W T G H S H p *.H G ..T ..S H H G T H I W G w v v p v p e e q v v z v d f ).!.t 2 '   0 0 0 0 0 0 0 0 0 0 0 0 0 0 0 0 0 0 0 0 0 0 0 0 0 0 0 0 0 0 0 0 0 0 0 0 0 0 0 0 0 0 0 0 0 0 0 0 0 0 0 0 0 0 0 0 0 0 0 0 0 0 0 0 0 0 0 0 0 0 0 0 0 0 0 0 0 0 0 0 0 ",
"0 0 0 0 0 0 0 0 0 0 0 0 0 0 0 0 0 0 0 0 0 0 0 0 0 0 0 0 0 0 0 0 0 0 0 0 0 0 0 0 0 0 0 0 0 0 0 0 0 0 0 0 0 0 0 0 0 0 0 0 0 0 0 0 0 0 0 0 0 0 0 0 0 0 0 0 0 0 0 0 0 0 0 0 0 0 0 0 0 0 0 0 0 0 0 0 0 0 0 0 0 0 0 0 0 0 0 0 0 0 0 0 0 0 0 0 0 0 0 0 0 0 0 0 0 0 0 0 0 0 0 0 0 0 0 0 0 0 0 0 0 0 0 0 0 0 0 0 0 0 0 0 0 d     2 g l u r f e f f e e d d s z z P =.L E v H H H G Q V X ` ` X X `  .` ` Y Y Y Y ` ` ` Y ` ` ` *.*.*.+.+.T +.T T +.+.B+T T T B+H H C+w ~.-.-.d 0 0 0 0 0 0 0 0 0 0 0 0 0 0 0 0 0 0 0 0 0 0 0 0 0 0 0 0 0 0 0 0 0 0 0 0 0 0 0 0 0 0 0 0 0 0 0 0 0 0 0 0 0 0 0 0 0 0 0 0 0 0 0 0 0 0 0 0 0 0 0 0 0 0 0 0 0 0 0 0 0 0 0 0 0 0 0 0 0 0 0 0 0 0 0 0 0 0 0 0 0 0 0 0 0 0 0 0 0 0 0 0 0 0 0 0 0 0 0 0 0 0 0 0 0 0 0 0 0 -.).0 ~.C+T T B+B+w o j.C+C+T +.T Y T *...+.B+U B+B+S v T }.H v Q G T S H w v ..I S G T ..S S w H I H F K I v v w v p q d f e p p d d d 0 6 8 } : D     H q 0 0 0 0 0 0 0 0 0 0 0 0 0 0 0 0 0 0 0 0 0 0 0 0 0 0 0 0 0 0 0 0 0 0 0 0 0 0 0 0 0 0 0 0 0 0 0 0 0 0 0 0 0 0 0 0 0 0 0 0 0 0 0 0 0 0 0 0 0 0 0 0 0 0 0 0 0 0 ",
"0 0 0 0 0 0 0 0 0 0 0 0 0 0 0 0 0 0 0 0 0 0 0 0 0 0 0 0 0 0 0 0 0 0 0 0 0 0 0 0 0 0 0 0 0 0 0 0 0 0 0 0 0 0 0 0 0 0 0 0 0 0 0 0 0 0 0 0 0 0 0 0 0 0 0 0 0 0 0 0 0 0 0 0 0 0 0 0 0 0 0 0 0 0 0 0 0 0 0 0 0 0 0 0 0 0 0 0 0 0 0 0 0 0 0 0 0 0 0 0 0 0 0 0 0 0 0 0 0 0 0 0 0 0 0 0 0 0 0 0 0 0 0 0 0 0 0 0 0 0 0 0 0 0 g A.n.>.N l k k k k j k : k k t u r z z C q v p z B w T *.*.....V *.*.` *.*.T T ....*.*.Y Y *.*.Y *.+.B+T G S S G B+T S S S S S H v z B o d n m d 0 0 0 0 0 0 0 0 0 0 0 0 0 0 0 0 0 0 0 0 0 0 0 0 0 0 0 0 0 0 0 0 0 0 0 0 0 0 0 0 0 0 0 0 0 0 0 0 0 0 0 0 0 0 0 0 0 0 0 0 0 0 0 0 0 0 0 0 0 0 0 0 0 0 0 0 0 0 0 0 0 0 0 0 0 0 0 0 0 0 0 0 0 0 0 0 0 0 0 0 0 0 0 0 0 0 0 0 0 0 0 0 0 0 0 0 0 0 0 0 0 0 0 0 0 0 0 0 0 d   6 ~.H U +.B+U C+w S C+j.B+T +.*.T ..+.Y T C+B+S Y C+w T S w F G S H w w H ..G T S S S S S w F H B E I H S H q p q p d 0 k.f d d d q (.7 ).} _ ( ~   0 0 0 0 0 0 0 0 0 0 0 0 0 0 0 0 0 0 0 0 0 0 0 0 0 0 0 0 0 0 0 0 0 0 0 0 0 0 0 0 0 0 0 0 0 0 0 0 0 0 0 0 0 0 0 0 0 0 0 0 0 0 0 0 0 0 0 0 0 0 0 0 0 0 0 0 0 0 0 0 ",
"0 0 0 0 0 0 0 0 0 0 0 0 0 0 0 0 0 0 0 0 0 0 0 0 0 0 0 0 0 0 0 0 0 0 0 0 0 0 0 0 0 0 0 0 0 0 0 0 0 0 0 0 0 0 0 0 0 0 0 0 0 0 0 0 0 0 0 0 0 0 0 0 0 0 0 0 0 0 0 0 0 0 0 0 0 0 0 0 0 0 0 0 0 0 0 0 0 0 0 0 0 0 0 0 0 0 0 0 0 0 0 0 0 0 0 0 0 0 0 0 0 0 0 0 0 0 0 0 0 0 0 0 0 0 0 0 0 0 0 0 0 0 0 0 0 0 0 0 0 0 0 0 k n.A.A.>.|.N b b b D ~ [.,.V.M.++! 0.: 6 ).).8 k k J e w S H H B+G T T T ..T S H H H F H S T T T T T T B+S H w w v v w w H w v w w w B y R f 0 8     (.0 0 0 0 0 0 0 0 0 0 0 0 0 0 0 0 0 0 0 0 0 0 0 0 0 0 0 0 0 0 0 0 0 0 0 0 0 0 0 0 0 0 0 0 0 0 0 0 0 0 0 0 0 0 0 0 0 0 0 0 0 0 0 0 0 0 0 0 0 0 0 0 0 0 0 0 0 0 0 0 0 0 0 0 0 0 0 0 0 0 0 0 0 0 0 0 0 0 0 0 0 0 0 0 0 0 0 0 0 0 0 0 0 0 0 0 0 0 0 0 0 0 0 0 0 0 0 0 0   -._.w S +.+.U D+o U B+D+U *.*.T ..+.*.*.*.S U S D+B+H C+B+U H S G G E w w G ..G B+S w H w v v H w q w B w v p v e p _.0 (.(.7 7 (.d 0 6 !.t : A A 3 t 7 0 0 0 0 0 0 0 0 0 0 0 0 0 0 0 0 0 0 0 0 0 0 0 0 0 0 0 0 0 0 0 0 0 0 0 0 0 0 0 0 0 0 0 0 0 0 0 0 0 0 0 0 0 0 0 0 0 0 0 0 0 0 0 0 0 0 0 0 0 0 0 0 0 0 0 0 0 0 ",
"0 0 0 0 0 0 0 0 0 0 0 0 0 0 0 0 0 0 0 0 0 0 0 0 0 0 0 0 0 0 0 0 0 0 0 0 0 0 0 0 0 0 0 0 0 0 0 0 0 0 0 0 0 0 0 0 0 0 0 0 0 0 0 0 0 0 0 0 0 0 0 0 0 0 0 0 0 0 0 0 0 0 0 0 0 0 0 0 0 0 0 0 0 0 0 0 0 0 0 0 0 0 0 0 0 0 0 0 0 0 0 0 0 0 0 0 0 0 0 0 0 0 0 0 0 0 0 0 0 0 0 0 0 0 0 0 0 0 0 0 0 0 0 0 0 0 0 0 0 -.k n.A.A.n.>.>.,.$ M.V.P.'+,+,+,+'+V.M. +++] ! D 3 3 b k 7 e d q q p w H H H w H w E v v E v E v w H H H w w w v v p B B z B p z p B B B z z C x l } h.  Q q 0 0 0 0 0 0 0 0 0 0 0 0 0 0 0 0 0 0 0 0 0 0 0 0 0 0 0 0 0 0 0 0 0 0 0 0 0 0 0 0 0 0 0 0 0 0 0 0 0 0 0 0 0 0 0 0 0 0 0 0 0 0 0 0 0 0 0 0 0 0 0 0 0 0 0 0 0 0 0 0 0 0 0 0 0 0 0 0 0 0 0 0 0 0 0 0 0 0 0 0 0 0 0 0 0 0 0 0 0 0 0 0 0 0 0 0 0 0 0 0 0 0 0 0 0 0 0 0 0     _.o C++.+.U C+j.+.S j.U ..T ......Y *.*.+.B++.T T S w w U H H H G w w w G G Q G S v w v v v v v q v v B o d ~.~.d k.0 0 0 (.7 8 7 7 6 m 8 : A {     7 0 0 0 0 0 0 0 0 0 0 0 0 0 0 0 0 0 0 0 0 0 0 0 0 0 0 0 0 0 0 0 0 0 0 0 0 0 0 0 0 0 0 0 0 0 0 0 0 0 0 0 0 0 0 0 0 0 0 0 0 0 0 0 0 0 0 0 0 0 0 0 0 0 0 0 0 0 0 ",
"0 0 0 0 0 0 0 0 0 0 0 0 0 0 0 0 0 0 0 0 0 0 0 0 0 0 0 0 0 0 0 0 0 0 0 0 0 0 0 0 0 0 0 0 0 0 0 0 0 0 0 0 0 0 0 0 0 0 0 0 0 0 0 0 0 0 0 0 0 0 0 0 0 0 0 0 0 0 0 0 0 0 0 0 0 0 0 0 0 0 0 0 0 0 0 0 0 0 0 0 0 0 0 0 0 0 0 0 0 0 0 0 0 0 0 0 0 0 0 0 0 0 0 0 0 0 0 0 0 0 0 0 0 0 0 0 0 0 0 0 0 0 0 0 0 0 0 f N A.A.n.n.A.I.o.,+;+;+;+,+'+,+,+'+)+,+,+{+P.M.U.T.< 3 b k t r r f e C z z B B B B z z z z B z B z z z z p v B z z z C C C C z C e C e e e C y s x x 1.3.    q p v 0 0 0 0 0 0 0 0 0 0 0 0 0 0 0 0 0 0 0 0 0 0 0 0 0 0 0 0 0 0 0 0 0 0 0 0 0 0 0 0 0 0 0 0 0 0 0 0 0 0 0 0 0 0 0 0 0 0 0 0 0 0 0 0 0 0 0 0 0 0 0 0 0 0 0 0 0 0 0 0 0 0 0 0 0 0 0 0 0 0 0 0 0 0 0 0 0 0 0 0 0 0 0 0 0 0 0 0 0 0 0 0 0 0 0 0 0 0 0 0 0 0 0 0 0 0 0 0 q   -.p S +.+.U j.}.B+T C+D+G +.*.....Y *...T H T T G ..S H B+H S E G F H F G I S S F w H B q p q C+p p p q p e d ~.d k.6 -.6 6 -.6 8 m ).).8 } ]       8 0 0 0 0 0 0 0 0 0 0 0 0 0 0 0 0 0 0 0 0 0 0 0 0 0 0 0 0 0 0 0 0 0 0 0 0 0 0 0 0 0 0 0 0 0 0 0 0 0 0 0 0 0 0 0 0 0 0 0 0 0 0 0 0 0 0 0 0 0 0 0 0 0 0 0 0 0 0 ",
"0 0 0 0 0 0 0 0 0 0 0 0 0 0 0 0 0 0 0 0 0 0 0 0 0 0 0 0 0 0 0 0 0 0 0 0 0 0 0 0 0 0 0 0 0 0 0 0 0 0 0 0 0 0 0 0 0 0 0 0 0 0 0 0 0 0 0 0 0 0 0 0 0 0 0 0 0 0 0 0 0 0 0 0 0 0 0 0 0 0 0 0 0 0 0 0 0 0 0 0 0 0 0 0 0 0 0 0 0 0 0 0 0 0 0 0 0 0 0 0 0 0 0 0 0 0 0 0 0 0 0 0 0 0 0 0 0 0 0 0 0 0 0 0 0 -.l n.A.A.A.I.,+J.w.J.w.J.J.;+,+,+,+,+)+'+'+P.V.M.U.< 3 b 2 k t J r s s y y e e C C C C C C C C C C C C C C C C C z C C y C y e y s y f y s s s s x J u /.l N >.J v 0 0 0 0 0 0 0 0 0 0 0 0 0 0 0 0 0 0 0 0 0 0 0 0 0 0 0 0 0 0 0 0 0 0 0 0 0 0 0 0 0 0 0 0 0 0 0 0 0 0 0 0 0 0 0 0 0 0 0 0 0 0 0 0 0 0 0 0 0 0 0 0 0 0 0 0 0 0 0 0 0 0 0 0 0 0 0 0 0 0 0 0 0 0 0 0 0 0 0 0 0 0 0 0 0 0 0 0 0 0 0 0 0 0 0 0 0 0 0 0 0 0 0 0 0 0 0 0 0 0 0 w   ~.}.U T B+D+j.U +.C+w S T *.*.+.+.*.Y ..C+w B+..T S v E w S w S S H F H I F H w v p v ~.~.d o q q q q q k.0 k.k.-.6 !.).m 0 -.9 9 m 8 9 } _ {       -.0 0 0 0 0 0 0 0 0 0 0 0 0 0 0 0 0 0 0 0 0 0 0 0 0 0 0 0 0 0 0 0 0 0 0 0 0 0 0 0 0 0 0 0 0 0 0 0 0 0 0 0 0 0 0 0 0 0 0 0 0 0 0 0 0 0 0 0 0 0 0 0 0 0 0 0 0 ",
"0 0 0 0 0 0 0 0 0 0 0 0 0 0 0 0 0 0 0 0 0 0 0 0 0 0 0 0 0 0 0 0 0 0 0 0 0 0 0 0 0 0 0 0 0 0 0 0 0 0 0 0 0 0 0 0 0 0 0 0 0 0 0 0 0 0 0 0 0 0 0 0 0 0 0 0 0 0 0 0 0 0 0 0 0 0 0 0 0 0 0 0 0 0 0 0 0 0 0 0 0 0 0 0 0 0 0 0 0 0 0 0 0 0 0 0 0 0 0 0 0 0 0 0 0 0 0 0 0 0 0 0 0 0 0 0 0 0 0 0 0 0 0 -.k n.A.A.H.H.;+w.J.p.p.J.w.J.;+,+,+;+,+)+{+P.V. +T.- 0.b 2 k j u J r r s s s s s y y e e e y y e y y s y y y y y y y y e y y e y s s r J u u J r x x R 1.1./.2+3.|.>.f 0 0 0 0 0 0 0 0 0 0 0 0 0 0 0 0 0 0 0 0 0 0 0 0 0 0 0 0 0 0 0 0 0 0 0 0 0 0 0 0 0 0 0 0 0 0 0 0 0 0 0 0 0 0 0 0 0 0 0 0 0 0 0 0 0 0 0 0 0 0 0 0 0 0 0 0 0 0 0 0 0 0 0 0 0 0 0 0 0 0 0 0 0 0 0 0 0 0 0 0 0 0 0 0 0 0 0 0 0 0 0 0 0 0 0 0 0 0 0 0 0 0 0 0 0 0 0 0 0 0 0 0     o C+T B+B+}.j.B+B+H S T *.Y B+T T T T C+H H +...*.H H H H S H w w v H F E w H v p p q q _.d q q ~.d f k.-.-.k.-.m n 6 ).7 c 6 !.9 9 ) ) i A u q p q 0 0 0 0 0 0 0 0 0 0 0 0 0 0 0 0 0 0 0 0 0 0 0 0 0 0 0 0 0 0 0 0 0 0 0 0 0 0 0 0 0 0 0 0 0 0 0 0 0 0 0 0 0 0 0 0 0 0 0 0 0 0 0 0 0 0 0 0 0 0 0 0 0 0 0 0 0 ",
"0 0 0 0 0 0 0 0 0 0 0 0 0 0 0 0 0 0 0 0 0 0 0 0 0 0 0 0 0 0 0 0 0 0 0 0 0 0 0 0 0 0 0 0 0 0 0 0 0 0 0 0 0 0 0 0 0 0 0 0 0 0 0 0 0 0 0 0 0 0 0 0 0 0 0 0 0 0 0 0 0 0 0 0 0 0 0 0 0 0 0 0 0 0 0 0 0 0 0 0 0 0 0 0 0 0 0 0 0 0 0 0 0 0 0 0 0 0 0 0 0 0 0 0 0 0 0 0 0 0 0 0 0 0 0 0 0 0 0 0 0 -.k n.A.A.A.H.h p.u.p.p.p.w.w.w.J.;+;+;+'+)+P.M. +< ~ D b 2 k j j u J J r J x s s s s s y y y s s s s s s s s s s s s y s s y y y y e s r u k g g g 2 j u u 1././.3.3.X.1+N 0 0 0 0 0 0 0 0 0 0 0 0 0 0 0 0 0 0 0 0 0 0 0 0 0 0 0 0 0 0 0 0 0 0 0 0 0 0 0 0 0 0 0 0 0 0 0 0 0 0 0 0 0 0 0 0 0 0 0 0 0 0 0 0 0 0 0 0 0 0 0 0 0 0 0 0 0 0 0 0 0 0 0 0 0 0 0 0 0 0 0 0 0 0 0 0 0 0 0 0 0 0 0 0 0 0 0 0 0 0 0 0 0 0 0 0 0 0 0 0 0 0 0 0 0 0 0 0 0 0 0 0     o }.T T T w }.D+D+B+S S T Y +.+.B+U T B+C+C+H S +.T C+w w v v U w v E E E v v p p d d d (.0 k.0 0 k.0 0 7 7 !.n ).!.!.h.8 !.6 h.h.9 ) 1 A   0.} 0 0 0 0 0 0 0 0 0 0 0 0 0 0 0 0 0 0 0 0 0 0 0 0 0 0 0 0 0 0 0 0 0 0 0 0 0 0 0 0 0 0 0 0 0 0 0 0 0 0 0 0 0 0 0 0 0 0 0 0 0 0 0 0 0 0 0 0 0 0 0 0 0 0 0 0 0 0 0 ",
"0 0 0 0 0 0 0 0 0 0 0 0 0 0 0 0 0 0 0 0 0 0 0 0 0 0 0 0 0 0 0 0 0 0 0 0 0 0 0 0 0 0 0 0 0 0 0 0 0 0 0 0 0 0 0 0 0 0 0 0 0 0 0 0 0 0 0 0 0 0 0 0 0 0 0 0 0 0 0 0 0 0 0 0 0 0 0 0 0 0 0 0 0 0 0 0 0 0 0 0 0 0 0 0 0 0 0 0 0 0 0 0 0 0 0 0 0 0 0 0 0 0 0 0 0 0 0 0 0 0 0 0 0 0 0 0 0 0 0 7 k n.A.A.A.H.2.p.u.u.u.p.p.w.w.p.w.w.;+,+)+P. +T.- 0.b 2 k k j j j u J J J J x x s s s s s s s s s s s s s s s s s s s s s s y y y e y s s J j g 3 - < >.- N g l l l 3.X.X.|.n.k 0 0 0 0 0 0 0 0 0 0 0 0 0 0 0 0 0 0 0 0 0 0 0 0 0 0 0 0 0 0 0 0 0 0 0 0 0 0 0 0 0 0 0 0 0 0 0 0 0 0 0 0 0 0 0 0 0 0 0 0 0 0 0 0 0 0 0 0 0 0 0 0 0 0 0 0 0 0 0 0 0 0 0 0 0 0 0 0 0 0 0 0 0 0 0 0 0 0 0 0 0 0 0 0 0 0 0 0 0 0 0 0 0 0 0 0 0 0 0 0 0 0 0 0 0 0 0 0 0 0 d 7.  ~.j.S +.S C+}.D+C+C+B+C+B++.+.+.B+B+B+U C+w S H H S S v v w o C+v v v H B w v q e f f (.6 ).).-.6 -.6 8 !.8 } } : ) ) 9 9 '.t 6 !./ ) 1 1 '     t 0 0 0 0 0 0 0 0 0 0 0 0 0 0 0 0 0 0 0 0 0 0 0 0 0 0 0 0 0 0 0 0 0 0 0 0 0 0 0 0 0 0 0 0 0 0 0 0 0 0 0 0 0 0 0 0 0 0 0 0 0 0 0 0 0 0 0 0 0 0 0 0 0 0 0 0 0 0 ",
"0 0 0 0 0 0 0 0 0 0 0 0 0 0 0 0 0 0 0 0 0 0 0 0 0 0 0 0 0 0 0 0 0 0 0 0 0 0 0 0 0 0 0 0 0 0 0 0 0 0 0 0 0 0 0 0 0 0 0 0 0 0 0 0 0 0 0 0 0 0 0 0 0 0 0 0 0 0 0 0 0 0 0 0 0 0 0 0 0 0 0 0 0 0 0 0 0 0 0 0 0 0 0 0 0 0 0 0 0 0 0 0 0 0 0 0 0 7 7 7 -.0 0 0 0 0 0 0 0 0 0 0 0 0 0 0 7 j |.A.A.A.A.A.H.w.p.u.u.u.p.w.w.J.J.w.J.,+)+V. +T.~ D b g l k j j j j u J u J J r r x s s s s s s s s s s s r s r r x s r x s s s s y y y s s r j 2 b - , M.#.V.#.,.< N N 3.X.|.1+1+|.7 0 0 0 0 0 0 0 0 0 0 0 0 0 0 0 0 0 0 0 0 0 0 0 0 0 0 0 0 0 0 0 0 0 0 0 0 0 0 0 0 0 0 0 0 0 0 0 0 0 0 0 0 0 0 0 0 0 0 0 0 0 0 0 0 0 0 0 0 0 0 0 0 0 0 0 0 0 0 0 0 0 0 0 0 0 0 0 0 0 0 0 0 0 0 0 0 0 0 0 0 0 0 0 0 0 0 0 0 0 0 0 0 0 0 0 0 0 0 0 0 0 0 0 0 0 0 0 0 0 0 d   ~.o C++.C+D+}.}.}.j.w U w T T B+U C+U S w S H w H w w D+o q p o C+w p B B z p d f -.8 n _ } : 9 n 5 9 9 9 D D 1 ' ! ! ] / ) ^ _ 9 h.9 ^ 1 {       0 0 0 0 0 0 0 0 0 0 0 0 0 0 0 0 0 0 0 0 0 0 0 0 0 0 0 0 0 0 0 0 0 0 0 0 0 0 0 0 0 0 0 0 0 0 0 0 0 0 0 0 0 0 0 0 0 0 0 0 0 0 0 0 0 0 0 0 0 0 0 0 0 0 0 0 0 0 ",
"0 0 0 0 0 0 0 0 0 0 0 0 0 0 0 0 0 0 0 0 0 0 0 0 0 0 0 0 0 0 0 0 0 0 0 0 0 0 0 0 0 0 0 0 0 0 0 0 0 0 0 0 0 0 0 0 0 0 0 0 0 0 0 0 0 0 0 0 0 0 0 0 0 0 0 0 0 0 0 0 0 0 0 0 0 0 0 0 0 0 0 0 0 0 0 0 0 0 0 0 0 0 0 0 0 0 0 0 0 0 0 0 0 -.J N >.A.n.n.n.|.N l r 7 7 r 7 7 8 j g N N >.A.n.n.n.n.n.A.h F.u.u.p.p.p.w.w.w.w.w.,+P.M.U.- 3 b 2 2 l k k j j j u u J J J J J J r r r r r s s r r s r s x r r r x r s x r s s s s s f s s r J k b 3 ,  +V.V.V.V.P.o.@ #.n.>.|.1+1+1+N 0 0 0 0 0 0 0 0 0 0 0 0 0 0 0 0 0 0 0 0 0 0 0 0 0 0 0 0 0 0 0 0 0 0 0 0 0 0 0 0 0 0 0 0 0 0 0 0 0 0 0 0 0 0 0 0 0 0 0 0 0 0 0 0 0 0 0 0 0 0 0 0 0 0 0 0 0 0 0 0 0 0 0 0 0 0 0 0 0 0 0 0 0 0 0 0 0 0 0 0 0 0 0 0 0 0 0 0 0 0 0 0 0 0 0 0 0 0 0 0 0 0 0 0 0 0 0 0 0 0 0   k.~.j.U B+D+j.}.j.}.w v w T U S D+w v w z v v v B B q p p e e f d o p C B z d 0 8 t ( ( ] D ! #+e.e.] 1 @+++U.N.N.U.U. +T.Z.A A 3 3 D   [ ] A     7 0 0 0 0 0 0 0 0 0 0 0 0 0 0 0 0 0 0 0 0 0 0 0 0 0 0 0 0 0 0 0 0 0 0 0 0 0 0 0 0 0 0 0 0 0 0 0 0 0 0 0 0 0 0 0 0 0 0 0 0 0 0 0 0 0 0 0 0 0 0 0 0 0 0 0 0 0 ",
"0 0 0 0 0 0 0 0 0 0 0 0 0 0 0 0 0 0 0 0 0 0 0 0 0 0 0 0 0 0 0 0 0 0 0 0 0 0 0 0 0 0 0 0 0 0 0 0 0 0 0 0 0 0 0 0 0 0 0 0 0 0 0 0 0 0 0 0 0 0 0 0 0 0 0 0 0 0 0 0 0 0 0 0 0 0 0 0 0 0 0 0 0 0 0 0 0 0 0 0 0 0 0 0 0 0 0 0 0 0 0 7 N >.n.>.3 3 N 3 >.n.n.n.A.n.A.A.H.H.H.A.A.A.A.A.A.H.A.A.A.A.v.2.h p.u.p.p.w.w.w.J.;+o.#.,.3 N g g l k k k k j j j u u u J J J J J r r r r r r r r r r r r x r J J J r r s r s s s s s s f f r r t 2 N - U. +M.M.^+^+V.P.'+;+p.2.A.n.1+1+n.r 0 0 0 0 0 0 0 0 0 0 0 0 0 0 0 0 0 0 0 0 0 0 0 0 0 0 0 0 0 0 0 0 0 0 0 0 0 0 0 0 0 0 0 0 0 0 0 0 0 0 0 0 0 0 0 0 0 0 0 0 0 0 0 0 0 0 0 0 0 0 0 0 0 0 0 0 0 0 0 0 0 0 0 0 0 0 0 0 0 0 0 0 0 0 0 0 0 0 0 0 0 0 0 0 0 0 0 0 0 0 0 0 0 0 0 0 0 0 0 0 0 0 0 0 0 0 0 0 0 0 q (.q w B+S C+U o j.j.v v v H }.}.j.p q e p z p q q d e (.e f ).m 7 6 (.0 C d -.h.} ( [.T.W.L.^+]+ +:+L.N.:+P.'+)+{+'+'+)+)+)+^+U.T.,.I.            7   7 0 0 0 0 0 0 0 0 0 0 0 0 0 0 0 0 0 0 0 0 0 0 0 0 0 0 0 0 0 0 0 0 0 0 0 0 0 0 0 0 0 0 0 0 0 0 0 0 0 0 0 0 0 0 0 0 0 0 0 0 0 0 0 0 0 0 0 0 0 0 0 0 0 0 0 ",
"0 0 0 0 0 0 0 0 0 0 0 0 0 0 0 0 0 0 0 0 0 0 0 0 0 0 0 0 0 0 0 0 0 0 0 0 0 0 0 0 0 0 0 0 0 0 0 0 0 0 0 0 0 0 0 0 0 0 0 0 0 0 0 0 0 0 0 0 0 0 0 0 0 0 0 0 0 0 0 0 0 0 0 0 0 0 0 0 0 0 0 0 0 0 0 0 0 0 0 0 0 0 0 0 0 0 0 0 -.t N >.>.|.3 N N |.>.n.n.|.|.|.n.#.#.V.o.o.'+'+,+'+'+;+p.@ n.>.N N g g 3.3.|.|.n.I.H.o.H.n.>.|.N 3.g l k k j j j j j u u u J J J J J J J r r r r r r r r r J J r r J J J J J r r x r s s s s s f s r 8 k b 3 T.U. +M.M.M.V.P.P.'+;+p.F.F.h A.n.1+|.0 0 0 0 0 0 0 0 0 0 0 0 0 0 0 0 0 0 0 0 0 0 0 0 0 0 0 0 0 0 0 0 0 0 0 0 0 0 0 0 0 0 0 0 0 0 0 0 0 0 0 0 0 0 0 0 0 0 0 0 0 0 0 0 0 0 0 0 0 0 0 0 0 0 0 0 0 0 0 0 0 0 0 0 0 0 0 0 0 0 0 0 0 0 0 0 0 0 0 0 0 0 0 0 0 0 0 0 0 0 0 0 0 0 0 0 0 0 0 0 0 0 0 0 0 0 0 0 0 0 0 0 d o C+o C+}.o p o p p v o o _.p d e e e 0 f -.0 6 ).!.9 9 } b D A '.-.7 f } 1 #+@+M.)+^+)+'+)+'+)+)+'+'+'+;+;+J.J.w.p.w.;+;+,+,+'+o.o.2.N 7 -.f (.0 0 0 0 0 0 0 0 0 0 0 0 0 0 0 0 0 0 0 0 0 0 0 0 0 0 0 0 0 0 0 0 0 0 0 0 0 0 0 0 0 0 0 0 0 0 0 0 0 0 0 0 0 0 0 0 0 0 0 0 0 0 0 0 0 0 0 0 0 0 0 0 0 0 0 0 0 ",
"0 0 0 0 0 0 0 0 0 0 0 0 0 0 0 0 0 0 0 0 0 0 0 0 0 0 0 0 0 0 0 0 0 0 0 0 0 0 0 0 0 0 0 0 0 0 0 0 0 0 0 0 0 0 0 0 0 0 0 0 0 0 0 0 0 0 0 0 0 0 0 0 0 0 0 0 0 0 0 0 0 0 0 0 0 0 0 0 0 0 0 0 0 0 0 0 0 0 0 0 0 0 0 0 0 0 -.j >.>.|.|.3 N N N n.n.|.3 N N n.n. + +P.{+'+'+'+'+)+,+p.p.o.$ < N b g k k j j j j j /././.l 3.g g l l /.j j j j j j j u u u J J J J J J J r r x r r r r r r r J J J J J J J J r r x s s s s s s s s s J } 2 0.[.U. +M.M.^+]+8+{+)+,+w.u.F.F.F.F.H.n.>.7 0 0 0 0 0 0 0 0 0 0 0 0 0 0 0 0 0 0 0 0 0 0 0 0 0 0 0 0 0 0 0 0 0 0 0 0 0 0 0 0 0 0 0 0 0 0 0 0 0 0 0 0 0 0 0 0 0 0 0 0 0 0 0 0 0 0 0 0 0 0 0 0 0 0 0 0 0 0 0 0 0 0 0 0 0 0 0 0 0 0 0 0 0 0 0 0 0 0 0 0 0 0 0 0 0 0 0 0 0 0 0 0 0 0 0 0 0 0 0 0 0 0 0 0 0 0 0 d d   6 d q q q ~.-.7 f d e q d 6 } : _ } t m !.9 ^ 1 ] A ! ++Z.Z.W.++N.N.N.W._ 9 ) N.:+W.{+'+)+J.;+;+;+;+;+;+,+;+;+;+w.w.w.w.w.w.w.J.J.w.p.u.u.C.h k 0 0 0 0 0 0 0 0 0 0 0 0 0 0 0 0 0 0 0 0 0 0 0 0 0 0 0 0 0 0 0 0 0 0 0 0 0 0 0 0 0 0 0 0 0 0 0 0 0 0 0 0 0 0 0 0 0 0 0 0 0 0 0 0 0 0 0 0 0 0 0 0 0 0 0 0 0 0 0 ",
"0 0 0 0 0 0 0 0 0 0 0 0 0 0 0 0 0 0 0 0 0 0 0 0 0 0 0 0 0 0 0 0 0 0 0 0 0 0 0 0 0 0 0 0 0 0 0 0 0 0 0 0 0 0 0 0 0 0 0 0 0 0 0 0 0 0 0 0 0 0 0 0 0 0 0 0 0 0 0 0 0 0 0 0 0 0 0 0 0 0 0 0 0 0 0 0 0 0 0 0 0 0 0 0 -.j |.n.>.3 3 3 N N >.n.>.|.N N >.n.,.U.M.P.{+,+;+,+'+'+J.u.w.'+V.< 3 b g 2 k k j t J J J J J J J J J u u u u J u u j u u u u J J J J J J J J J J J r r r r r J r J J J J J J J J J r r x s s s s s s s s r t k D [.U. +M.^+]+]+{+{+{+)+'+'+,+J.p.F.F.F.A.>.2 0 0 0 0 0 0 0 0 0 0 0 0 0 0 0 0 0 0 0 0 0 0 0 0 0 0 0 0 0 0 0 0 0 0 0 0 0 0 0 0 0 0 0 0 0 0 0 0 0 0 0 0 0 0 0 0 0 0 0 0 0 0 0 0 0 0 0 0 0 0 0 0 0 0 0 0 0 0 0 0 0 0 0 0 0 0 0 0 0 0 0 0 0 0 0 0 0 0 0 0 0 0 0 0 0 0 0 0 0 0 0 0 0 0 0 0 0 0 0 0 0 0 0 0 0 0 0 q   ).-.J J 8 : 2 b b _ 9 m 0 8 ++[.++! ! 1 1 ] @+#+W.L.^+P.{+)+'+,+'+)+{+{+)+{+ +N.]+{+8+;+;+;+J.;+,+;+;+;+J.;+;+J.J.J.w.w.w.w.w.J.J.J.p.u.u.C.q.K.-+A.J 0 0 0 0 0 0 0 0 0 0 0 0 0 0 0 0 0 0 0 0 0 0 0 0 0 0 0 0 0 0 0 0 0 0 0 0 0 0 0 0 0 0 0 0 0 0 0 0 0 0 0 0 0 0 0 0 0 0 0 0 0 0 0 0 0 0 0 0 0 0 0 0 0 0 0 0 0 ",
"0 0 0 0 0 0 0 0 0 0 0 0 0 0 0 0 0 0 0 0 0 0 0 0 0 0 0 0 0 0 0 0 0 0 0 0 0 0 0 0 0 0 0 0 0 0 0 0 0 0 0 0 0 0 0 0 0 0 0 0 0 0 0 0 0 0 0 0 0 0 0 0 0 0 0 0 0 0 0 0 0 0 0 0 0 0 0 0 0 0 0 0 0 0 0 0 0 0 0 0 0 0 -.k >.n.n.n.N N N N >.n.>.3 N N |.n.,.U. +^+8+)+'+'+,+;+,+p.w.'+)+P. +++D g 2 k k j j t J J J r r r r r r r r J J J J J J J J J J J J J J J J J J J J J J J J J J J J J J J J J J J r J r s s s s s s s s s r r j 2 3 T.M.^+8+8+8+{+)+)+)+'+'+)+'+'+'+J.p.F.J.n.3 0 0 0 0 0 0 0 0 0 0 0 0 0 0 0 0 0 0 0 0 0 0 0 0 0 0 0 0 0 0 0 0 0 0 0 0 0 0 0 0 0 0 0 0 0 0 0 0 0 0 0 0 0 0 0 0 0 0 0 0 0 0 0 0 0 0 0 0 0 0 0 0 0 0 0 0 0 0 0 0 0 0 0 0 0 0 0 0 0 0 0 0 0 0 0 0 0 0 0 0 0 0 0 0 0 0 0 0 0 0 0 0 0 0 0 0 0 0 0 0 0 0 0 0 0 0 0     : g 3 [.T.T.M.M.U. +M.' !  + +M.U.[.$+W. +:+(+^+P.)+,+'+'+;+,+,+;+,+;+'+,+,+,+;+'+,+,+J.w.w.J.J.J.J.J.;+J.w.J.J.J.J.;+J.J.J.w.J.w.w.w.u.u.u.q.q.-+B.E.N -.0 0 0 0 0 0 0 0 0 0 0 0 0 0 0 0 0 0 0 0 0 0 0 0 0 0 0 0 0 0 0 0 0 0 0 0 0 0 0 0 0 0 0 0 0 0 0 0 0 0 0 0 0 0 0 0 0 0 0 0 0 0 0 0 0 0 0 0 0 0 0 0 0 0 0 ",
"0 0 0 0 0 0 0 0 0 0 0 0 0 0 0 0 0 0 0 0 0 0 0 0 0 0 0 0 0 0 0 0 0 0 0 0 0 0 0 0 0 0 0 0 0 0 0 0 0 0 0 0 0 0 0 0 0 0 0 0 0 0 0 0 0 0 0 0 0 0 0 0 0 0 0 0 0 0 0 0 0 0 0 0 0 0 0 0 0 0 0 0 0 0 0 0 0 0 0 0 0 u n.n.n.n.|.N b b |.n.>.3 N N |.n.n.U.M.M.]+{+'+'+,+,+;+J.u.C.p.;+V. +< 3 b 2 2 : j j t t t J J J J J J r r r r r r r r J J J J J J J J J J J J J J J J J J J J J J J J J J J J J J J r r x s f e f y f s s s s J k D < M.^+]+{+{+{+{+{+{+)+'+'+)+{+)+,+,+;+J.p.@ >.6 0 0 0 0 0 0 0 0 0 0 0 0 0 0 0 0 0 0 0 0 0 0 0 0 0 0 0 0 0 0 0 0 0 0 0 0 0 0 0 0 0 0 0 0 0 0 0 0 0 0 0 0 0 0 0 0 0 0 0 0 0 0 0 0 0 0 0 0 0 0 0 0 0 0 0 0 0 0 0 0 0 0 0 0 0 0 0 0 0 0 0 0 0 0 0 0 0 0 0 0 0 0 0 0 0 0 0 0 0 0 0 0 0 0 0 0 0 0 0 0 0 0 0 0 -.    #.I.I.{+o.P.{+P.V.P.V.V.T.^+^+^+V. + +^+]+8+{+)+,+'+,+,+,+,+;+;+,+,+;+,+,+,+,+;+w.J.;+,+w.w.J.J.J.J.w.w.J.J.J.J.;+;+J.J.J.J.;+;+J.J.w.w.w.p.u.u.C.q.z.B.`.H.k 0 0 0 0 0 0 0 0 0 0 0 0 0 0 0 0 0 0 0 0 0 0 0 0 0 0 0 0 0 0 0 0 0 0 0 0 0 0 0 0 0 0 0 0 0 0 0 0 0 0 0 0 0 0 0 0 0 0 0 0 0 0 0 0 0 0 0 0 0 0 0 0 0 0 ",
"0 0 0 0 0 0 0 0 0 0 0 0 0 0 0 0 0 0 0 0 0 0 0 0 0 0 0 0 0 0 0 0 0 0 0 0 0 0 0 0 0 0 0 0 0 0 0 0 0 0 0 0 0 0 0 0 0 0 0 0 0 0 0 0 0 0 0 0 0 0 0 0 0 0 0 0 0 0 0 0 0 0 0 0 0 0 0 0 0 0 0 0 0 0 0 0 0 0 0 0 2 n.n.>.N 3.g g N n.n.>.|.N N >.n.I.$  +P.{+)+)+'+,+;+J.p.q.t.z.p.,+M.- 3 D 2 _ k j j j t t t t t J J J J J J J r J J J r J J J J J J J J J J J J J J J J J J J J J J J J J J J J J r r r s s f f e e e e s s s r u 2 ~ U.^+8+{+)+)+P.P.)+'+,+,+;+,+'+{+{+'+,+,+;+,+n.7 0 0 0 0 0 0 0 0 0 0 0 0 0 0 0 0 0 0 0 0 0 0 0 0 0 0 0 0 0 0 0 0 0 0 0 0 0 0 0 0 0 0 0 0 0 0 0 0 0 0 0 0 0 0 0 0 0 0 0 0 0 0 0 0 0 0 0 0 0 0 0 0 0 0 0 0 0 0 0 0 0 0 0 0 0 0 0 0 0 0 0 0 0 0 0 0 0 0 0 0 0 0 0 0 0 0 0 0 0 0 0 0 0 0 0 0 0 0 0 0 0 0 0 0 B |.o.;+)+)+)+)+{+)+)+{+)+{+P.]+]+^+^+^+^+]+{+8+{+{+)+,+'+,+,+;+;+J.J.;+;+;+,+,+;+,+;+J.;+;+J.w.w.w.w.J.w.w.w.w.w.w.;+w.J.w.w.J.;+J.;+J.w.J.J.J.p.u.C.q.q.z.z.z.B.B.>.r 0 0 0 0 0 0 0 0 0 0 0 0 0 0 0 0 0 0 0 0 0 0 0 0 0 0 0 0 0 0 0 0 0 0 0 0 0 0 0 0 0 0 0 0 0 0 0 0 0 0 0 0 0 0 0 0 0 0 0 0 0 0 0 0 0 0 0 0 0 0 0 0 ",
"0 0 0 0 0 0 0 0 0 0 0 0 0 0 0 0 0 0 0 0 0 0 0 0 0 0 0 0 0 0 0 0 0 0 0 0 0 0 0 0 0 0 0 0 0 0 0 0 0 0 0 0 0 0 0 0 0 0 0 0 0 0 0 0 0 0 0 0 0 0 0 0 0 0 0 0 0 0 0 0 0 0 0 0 0 0 0 0 0 0 0 0 0 0 0 0 0 0 -.N 3 N N g g 2 b >.n.A.n.N N 3 ,.V.2.o.V.]+)+'+,+;+J.J.w.p.B.`.B.C.;+P.,.3 0.b _ k : j j t t t t t t t u u J J J J J J J J J J J J J J J J J J J J J J J J J J J J J J J J J J J J J r r x r s f e e e e e e y s s r t b T.M.^+{+{+{+P.P.)+,+,+;+J.w.p.w.'+{+P.)+,+,+,+I.2 0 0 0 0 0 0 0 0 0 0 0 0 0 0 0 0 0 0 0 0 0 0 0 0 0 0 0 0 0 0 0 0 0 0 0 0 0 0 0 0 0 0 0 0 0 0 0 0 0 0 0 0 0 0 0 0 0 0 0 0 0 0 0 0 0 0 0 0 0 0 0 0 0 0 0 0 0 0 0 0 0 0 0 0 0 0 0 0 0 0 0 0 0 0 0 0 0 0 0 0 0 0 0 0 0 0 0 0 0 0 0 0 0 0 0 0 0 0 0 0 0 0 7 |.H.w.;+'+)+'+)+)+)+)+)+)+)+)+)+8+8+^+^+^+]+8+8+{+)+)+)+'+,+;+,+J.J.p.p.w.J.J.J.;+,+;+J.;+;+;+J.J.w.J.J.J.w.w.w.w.J.J.w.w.J.;+J.p.w.w.p.u.u.p.p.p.w.p.u.C.C.z.z.z.B.B.B.E.N 0 0 0 0 0 0 0 0 0 0 0 0 0 0 0 0 0 0 0 0 0 0 0 0 0 0 0 0 0 0 0 0 0 0 0 0 0 0 0 0 0 0 0 0 0 0 0 0 0 0 0 0 0 0 0 0 0 0 0 0 0 0 0 0 0 0 0 0 0 0 0 ",
"0 0 0 0 0 0 0 0 0 0 0 0 0 0 0 0 0 0 0 0 0 0 0 0 0 0 0 0 0 0 0 0 0 0 0 0 0 0 0 0 0 0 0 0 0 0 0 0 0 0 0 0 0 0 0 0 0 0 0 0 0 0 0 0 0 0 0 0 0 0 0 0 0 0 0 0 0 0 0 0 0 0 0 0 0 0 0 0 0 0 0 0 0 0 0 0 0 0 b >.|.N N N b >.n.n.n.>.N N >.I.2.w.J.,+P.'+;+;+w.J.p.u.u.z.t.z.u.J.'+V.< N b 2 _ : j j j t t t t t j j j u u J J J J J J J J J J J J J J J J J J J J J J J J J J J J J J J J r J r r r s s s s f e e e e e e y y s r j 3 U.^+8+{+^+V.P.'+,+;+;+;+;+;+J.w.;+'+P.V.P.'+,+o.g 0 0 0 0 0 0 0 0 0 0 0 0 0 0 0 0 0 0 0 0 0 0 0 0 0 0 0 0 0 0 0 0 0 0 0 0 0 0 0 0 0 0 0 0 0 0 0 0 0 0 0 0 0 0 0 0 0 0 0 0 0 0 0 0 0 0 0 0 0 0 0 0 0 0 0 0 0 0 0 0 0 0 0 0 0 0 0 0 0 0 0 0 0 0 0 0 0 0 0 0 0 0 0 0 0 0 0 0 0 0 0 0 0 0 0 0 0 0 0 0 j >.E.u.w.,+,+'+'+'+'+'+'+'+,+'+'+)+{+8+]+^+^+^+]+]+8+{+{+)+'+,+,+J.J.J.J.w.p.w.J.J.J.J.J.J.;+;+;+;+J.w.w.w.w.w.p.p.w.w.J.J.p.p.w.J.J.w.p.p.p.u.u.C.p.p.p.p.p.p.p.C.q.q.z.z.-+z.z.H.k 0 0 0 0 0 0 0 0 0 0 0 0 0 0 0 0 0 0 0 0 0 0 0 0 0 0 0 0 0 0 0 0 0 0 0 0 0 0 0 0 0 0 0 0 0 0 0 0 0 0 0 0 0 0 0 0 0 0 0 0 0 0 0 0 0 0 0 0 0 ",
"0 0 0 0 0 0 0 0 0 0 0 0 0 0 0 0 0 0 0 0 0 0 0 0 0 0 0 0 0 0 0 0 0 0 0 0 0 0 0 0 0 0 0 0 0 0 0 0 0 0 0 0 0 0 0 0 0 0 0 0 0 0 0 0 0 0 0 0 0 0 0 0 0 0 0 0 0 0 0 0 0 0 0 0 0 0 0 0 0 0 0 0 0 0 0 0 0 7 >.>.3 N N |.n.A.n.|.N g |.H.J.u.w.,+,+,+{+,+J.J.w.p.C.C.q.q.C.p.J.,+o.n.3 ( ( _ : : j } t t t t j j j j u j u u u u J J J J J J J J J J J J u J J J J J J J J J J J J J J r r r r r r r s s s e e e C d e e y y y s s 2 [. +V.P.^+V.P.)+'+;+;+J.;+J.;+;+;+,+)+{+P.V.P.'+o.#.0 0 0 0 0 0 0 0 0 0 0 0 0 0 0 0 0 0 0 0 0 0 0 0 0 0 0 0 0 0 0 0 0 0 0 0 0 0 0 0 0 0 0 0 0 0 0 0 0 0 0 0 0 0 0 0 0 0 0 0 0 0 0 0 0 0 0 0 0 0 0 0 0 0 0 0 0 0 0 0 0 0 0 0 0 0 0 0 0 0 0 0 0 0 0 0 0 0 0 0 0 0 0 0 0 0 0 0 0 0 0 0 0 0 0 0 -.k |.H.F.u.p.J.;+,+'+'+'+'+'+'+,+,+;+,+,+'+{+8+b+^+^+^+^+]+8+{+{+'+'+'+,+;+J.w.J.w.p.J.J.J.p.w.p.w.J.J.J.w.w.J.w.p.u.p.p.p.w.w.w.p.p.w.w.p.p.u.u.u.u.u.C.C.C.u.w.p.p.p.p.u.C.q.C.z.B.B.z.-+B.A.7 0 0 0 0 0 0 0 0 0 0 0 0 0 0 0 0 0 0 0 0 0 0 0 0 0 0 0 0 0 0 0 0 0 0 0 0 0 0 0 0 0 0 0 0 0 0 0 0 0 0 0 0 0 0 0 0 0 0 0 0 0 0 0 0 0 0 0 ",
"0 0 0 0 0 0 0 0 0 0 0 0 0 0 0 0 0 0 0 0 0 0 0 0 0 0 0 0 0 0 0 0 0 0 0 0 0 0 0 0 0 0 0 0 0 0 0 0 0 0 0 0 0 0 0 0 0 0 0 0 0 0 0 0 0 0 0 0 0 0 0 0 0 0 0 0 0 0 0 0 0 0 0 0 0 0 0 0 0 0 0 0 0 0 0 0 0 f - 3 N b >.A.n.|.N g g A.p.;+w.J.,+;+;+{+)+;+w.p.F.z.z.C.C.u.p.w.p.;+I., N 2 2 : : : j j j j j j j j j t t u u u u u u J J J J J J J J J J J J J J J J J J J J J J J J J r r r r r r r s f f e e e d d C C C C y y e r b T. +^+b+M.o.)+)+,+;+;+J.J.J.;+;+;+,+'+)+P.V.M.)+)+V.-.0 0 0 0 0 0 0 0 0 0 0 0 0 0 0 0 0 0 0 0 0 0 0 0 0 0 0 0 0 0 0 0 0 0 0 0 0 0 0 0 0 0 0 0 0 0 0 0 0 0 0 0 0 0 0 0 0 0 0 0 0 0 0 0 0 0 0 0 0 0 0 0 0 0 0 0 0 0 0 0 0 0 0 0 0 0 0 0 0 0 0 0 0 0 0 0 0 0 0 0 0 0 0 0 0 0 0 0 0 0 0 J k |.H.2.u.p.J.J.,+,+'+)+'+'+)+)+)+'+'+;+;+;+,+;+'+{+8+^+M.^+^+b+8+{+{+)+'+'+'+;+,+;+J.J.J.w.w.J.w.u.C.p.J.w.p.p.w.w.w.w.p.u.u.u.w.w.w.w.w.w.p.p.u.u.p.u.u.u.u.u.p.u.C.u.p.u.u.u.p.u.u.C.q.z.B.B.-+z.B.E.|.-.0 0 0 0 0 0 0 0 0 0 0 0 0 0 0 0 0 0 0 0 0 0 0 0 0 0 0 0 0 0 0 0 0 0 0 0 0 0 0 0 0 0 0 0 0 0 0 0 0 0 0 0 0 0 0 0 0 0 0 0 0 0 0 0 0 ",
"0 0 0 0 0 0 0 0 0 0 0 0 0 0 0 0 0 0 0 0 0 0 0 0 0 0 0 0 0 0 0 0 0 0 0 0 0 0 0 0 0 0 0 0 0 0 0 0 0 0 0 0 0 0 0 0 0 0 0 0 0 0 0 0 0 0 0 0 0 0 0 0 0 0 0 0 0 0 0 0 0 0 0 0 0 0 0 0 0 0 0 0 0 0 0 0 0 7 ~ 0.b - N |.N g g 3.2.u.w.w.J.J.J.;+)+)+;+w.w.w.p.;+,+J.p.p.C.`.R.h #.- b 2 _ : : j } j j j j j j t t t u u u u u u J J J J J J J J J J J J J J J J J J J J J J r r J J r r r r r s s s f e e e d z z C C C C C y e s b T.M.V.^+P.,+'+'+,+;+;+J.;+;+;+;+;+,+'+)+o.o.V.]+{+V.).0 0 0 0 0 0 0 0 0 0 0 0 0 0 0 0 0 0 0 0 0 0 0 0 0 0 0 0 0 0 0 0 0 0 0 0 0 0 0 0 0 0 0 0 0 0 0 0 0 0 0 0 0 0 0 0 0 0 0 0 0 0 0 0 0 0 0 0 0 0 0 0 0 0 0 0 0 0 0 0 0 0 0 0 0 0 0 0 0 0 0 0 0 0 0 0 0 0 0 0 0 0 0 0 0 0 0 r N #.#.;+w.w.w.J.;+'+'+,+'+'+)+)+{+)+'+'+)+'+,+J.w.;+,+,+)+8+b+M. +M.^+b+8+8+{+)+)+'+,+;+;+;+;+J.J.w.J.J.w.p.u.w.w.w.p.p.w.p.w.w.w.p.p.p.w.w.p.w.w.J.p.p.p.u.u.u.p.p.u.u.p.p.u.u.u.p.u.C.C.u.u.u.q.z.z.B.z.B.z.z.-+h N 0 0 0 0 0 0 0 0 0 0 0 0 0 0 0 0 0 0 0 0 0 0 0 0 0 0 0 0 0 0 0 0 0 0 0 0 0 0 0 0 0 0 0 0 0 0 0 0 0 0 0 0 0 0 0 0 0 0 0 0 0 0 0 0 ",
"0 0 0 0 0 0 0 0 0 0 0 0 0 0 0 0 0 0 0 0 0 0 0 0 0 0 0 0 0 0 0 0 0 0 0 0 0 0 0 0 0 0 0 0 0 0 0 0 0 0 0 0 0 0 0 0 0 0 0 0 0 0 0 0 0 0 0 0 0 0 0 0 0 0 0 0 0 0 0 0 0 0 0 0 0 0 0 0 0 0 0 0 0 0 0 0 0 0 b b >.>.|.b 2 l g  +V.P.w.J.J.;+'+{+)+;+w.p.,+;+w.w.w.J.'+;+`.e+<+@ < ~ D ( _ : } } } j j j j j j t t t u t J t J J J J J J J J J J J J J J J J J J J J J J r J r r r J r r 7 r s s f f e e d d z q z z z C C C C z f D T.M.]+(+V.'+)+'+'+{+{+{+{+)+)+8+8+{+)+)+)+o.V.^+{+P.2 0 0 0 0 0 0 0 0 0 0 0 0 0 0 0 0 0 0 0 0 0 0 0 0 0 0 0 0 0 0 0 0 0 0 0 0 0 0 0 0 0 0 0 0 0 0 0 0 0 0 0 0 0 0 0 0 0 0 0 0 0 0 0 0 0 0 0 0 0 0 0 0 0 0 0 0 0 0 0 0 0 0 0 0 0 0 0 0 0 0 0 0 0 0 0 0 0 0 0 0 0 0 0 0 0 j $ ,+;+'+)+'+'+'+'+'+,+'+)+)+)+)+)+{+{+{+)+'+;+;+w.w.p.w.,+'+)+]+^+(+ + +M.]+]+8+{+)+)+'+,+;+;+,+;+;+w.w.w.w.p.J.J.w.w.w.p.p.w.p.u.u.w.p.p.p.w.w.p.p.w.w.u.u.w.p.u.u.u.p.p.u.u.u.u.C.u.u.u.u.C.u.u.w.w.C.q.z.B.t.t.B.B.z.K.v.l 0 0 0 0 0 0 0 0 0 0 0 0 0 0 0 0 0 0 0 0 0 0 0 0 0 0 0 0 0 0 0 0 0 0 0 0 0 0 0 0 0 0 0 0 0 0 0 0 0 0 0 0 0 0 0 0 0 0 0 0 0 0 ",
"0 0 0 0 0 0 0 0 0 0 0 0 0 0 0 0 0 0 0 0 0 0 0 0 0 0 0 0 0 0 0 0 0 0 0 0 0 0 0 0 0 0 0 0 0 0 0 0 0 0 0 0 0 0 0 0 0 0 0 0 0 0 0 0 0 0 0 0 0 0 0 0 0 0 0 0 0 0 0 0 0 0 0 0 0 0 0 0 0 0 0 0 0 0 0 0 0 0 : N >.>.|.N b b V.;+;+8+]+{+)+'+'+,+w.w.w.;+;+w.p.p.p.p.J.,+{+P.^+U.[.~ ' _ ) : : } j j j j t j t j t t u u u J J J J J J J J J J J J J J J J J J J J J r J r r J r r r r r s s s s f e e e C q z q B z z z z C z z d D U.^+]+]+]+]+]+8+{+,+;+;+;+;+;+;+,+'+8+]+^+^+]+]+8+V.N 0 0 0 0 0 0 0 0 0 0 0 0 0 0 0 0 0 0 0 0 0 0 0 0 0 0 0 0 0 0 0 0 0 0 0 0 0 0 0 0 0 0 0 0 0 0 0 0 0 0 0 0 0 0 0 0 0 0 0 0 0 0 0 0 0 0 0 0 0 0 0 0 0 0 0 0 0 0 0 0 0 0 0 0 0 0 0 0 0 0 0 0 0 0 0 0 0 0 0 0 0 0 0 r n.;+,+,+;+,+,+;+,+'+'+)+'+)+)+)+)+)+{+)+)+'+'+,+,+;+;+w.u.J.,+'+{+b+(+:+L. +M.^+]+8+{+)+)+'+,+,+,+,+;+J.w.w.p.w.w.J.J.w.w.p.w.p.J.p.w.;+J.w.w.w.w.w.p.p.p.w.p.w.p.p.p.p.p.w.w.w.p.p.u.C.C.u.u.C.u.C.u.u.C.u.C.C.C.z.B.t.R.R.`.z.z.H.g -.0 0 0 0 0 0 0 0 0 0 0 0 0 0 0 0 0 0 0 0 0 0 0 0 0 0 0 0 0 0 0 0 0 0 0 0 0 0 0 0 0 0 0 0 0 0 0 0 0 0 0 0 0 0 0 0 0 0 0 ",
"0 0 0 0 0 0 0 0 0 0 0 0 0 0 0 0 0 0 0 0 0 0 0 0 0 0 0 0 0 0 0 0 0 0 0 0 0 0 0 0 0 0 0 0 0 0 0 0 0 0 0 0 0 0 0 0 0 0 0 0 0 0 0 0 0 0 0 0 0 0 0 0 0 0 0 0 0 0 0 0 0 0 0 0 0 0 0 0 0 0 0 0 0 0 0 0 0 0 -.3 - 3 3 b b < ,+w.w.J.,+{+'+;+;+w.p.J.;+'+;+J.p.p.w.J.J.J.;+,+)+V.T.0.] _ _ : } j } j j j j t j t t u J J J J J J J J J J r J J J J J r J J J J r r r r J J r r J r s s r s f f f e e e d d q p B B B B B z z z B q D U.^+8+{+)+)+,+;+J.J.J.w.J.w.w.J.J.,+'+'+)+{+{+{+P.V.* 0 0 0 0 0 0 0 0 0 0 0 0 0 0 0 0 0 0 0 0 0 0 0 0 0 0 0 0 0 0 0 0 0 0 0 0 0 0 0 0 0 0 0 0 0 0 0 0 0 0 0 0 0 0 0 0 0 0 0 0 0 0 0 0 0 0 0 0 0 0 0 0 0 0 0 0 0 0 0 0 0 0 0 0 0 0 0 0 0 0 0 0 0 0 0 0 0 0 0 0 0 0 2 2.w.u.J.,+'+,+,+;+,+;+;+;+,+,+,+'+)+'+'+'+'+)+'+'+,+'+'+J.p.J.,+)+8+^+ +L.L.U.M.^+b+]+8+{+)+'+,+,+,+;+;+J.J.w.w.w.w.w.;+;+;+;+;+,+,+,+J.w.w.w.p.w.p.w.p.u.u.p.J.w.p.p.J.w.J.J.;+J.;+;+J.J.w.p.p.C.C.q.z.q.C.u.u.u.u.q.q.z.B.`.`.`.`.`.`.E.|.l r 0 0 0 0 0 0 0 0 0 0 0 0 0 0 0 0 0 0 0 0 0 0 0 0 0 0 0 0 0 0 0 0 0 0 0 0 0 0 0 0 0 0 0 0 0 0 0 0 0 0 0 0 0 0 0 0 ",
"0 0 0 0 0 0 0 0 0 0 0 0 0 0 0 0 0 0 0 0 0 0 0 0 0 0 0 0 0 0 0 0 0 0 0 0 0 0 0 0 0 0 0 0 0 0 0 0 0 0 0 0 0 0 0 0 0 0 0 0 0 0 0 0 0 0 0 0 0 0 0 0 0 0 0 0 0 0 0 0 0 0 0 0 0 0 0 0 0 0 0 0 0 0 0 0 0 0 0 N 3 3 N b b M.)+,+,+'+'+'+'+,+;+;+;+,+'+P.)+,+,+;+,+,+,+'+,+'+P.M.[.0.( i : : : j j } j t j t t t t t J J J J J J J J J J r r r x r r r x r x r x r x x r r x r r r r s s s f e e e d z q q p v v v B B B B B z B p b T.^+{+)+)+'+'+;+;+;+w.p.p.p.p.J.;+,+'+'+'+{+8+{+P.V.$ -.0 0 0 0 0 0 0 0 0 0 0 0 0 0 0 0 0 0 0 0 0 0 0 0 0 0 0 0 0 0 0 0 0 0 0 0 0 0 0 0 0 0 0 0 0 0 0 0 0 0 0 0 0 0 0 0 0 0 0 0 0 0 0 0 0 0 0 0 0 0 0 0 0 0 0 0 0 0 0 0 0 0 0 0 0 0 0 0 0 0 0 0 0 0 0 0 0 0 0 6 >.F.R.`.q.p.J.,+,+'+,+J.;+J.;+,+,+,+,+'+'+'+)+'+{+'+'+)+)+)+,+,+,+{+]+b+M.L.N.N.U. +M.^+8+8+{+)+)+,+,+,+;+;+;+;+J.J.J.J.;+,+'+'+'+)+'+,+J.w.p.w.p.p.p.p.p.u.u.u.p.u.p.u.p.w.J.;+J.;+,+,+,+'+,+,+;+J.p.u.p.u.q.z.z.z.u.w.u.p.p.u.u.C.q.q.z.z.B.z.B.z.h + k 0 0 0 0 0 -.r J J r 0 0 0 0 0 0 0 0 0 0 0 0 0 0 0 0 0 0 0 0 0 0 0 0 0 0 0 0 0 0 0 0 0 0 0 0 0 0 0 0 0 0 0 ",
"0 0 0 0 0 0 0 0 0 0 0 0 0 0 0 0 0 0 0 0 0 0 0 0 0 0 0 0 0 0 0 0 0 0 0 0 0 0 0 0 0 0 0 0 0 0 0 0 0 0 0 0 0 0 0 0 0 0 0 0 0 0 0 0 0 0 0 0 0 0 0 0 0 0 0 0 0 0 0 0 0 0 0 0 0 0 0 0 0 0 0 0 0 0 0 0 0 0 0 2 0.D b b ( U.^+]+8+{+{+{+{+{+)+'+)+{+8+M.b+8+8+)+)+)+{+)+{+8+^+U.++' 1 _ : : : : } t j j j t t u J J J J J r r r r r r r s s s s r r s r x x x r x x x x s r r s s s s s f e e e d d z z B v v v E E E B E B B E v 2 T.M.8+{+{+)+)+)+'+,+'+,+,+;+,+'+)+{+{+)+)+8+8+8+]+V.U.-.0 0 0 0 0 0 0 0 0 0 0 0 0 0 0 0 0 0 0 0 0 0 0 0 0 0 0 0 0 0 0 0 0 0 0 0 0 0 0 0 0 0 0 0 0 0 0 0 0 0 0 0 0 0 0 0 0 0 0 0 0 0 0 0 0 0 0 0 0 0 0 0 0 0 0 0 0 0 0 0 0 0 0 0 0 0 0 0 0 0 0 0 0 0 0 0 0 0 u v.<+<+B.C.p.w.J.;+,+'+,+w.J.J.;+;+;+,+,+'+)+)+'+'+)+{+)+)+)+{+)+{+{+]+^+(+:+N.W.W.L.U.M.^+]+]+{+)+)+'+'+,+;+;+;+J.;+;+;+,+,+'+)+)+)+'+;+J.p.p.p.u.p.u.C.u.p.p.u.p.u.u.u.p.p.J.;+;+;+,+'+)+'+)+'+,+J.w.p.p.J.p.u.C.q.q.B.q.w.w.;+J.p.p.p.p.u.u.C.C.C.C.q.B.z.E.h E.E.E.E.z.z.z.z.E.h H.l 0 0 0 0 0 0 0 0 0 0 0 0 0 0 0 0 0 0 0 0 0 0 0 0 0 0 0 0 0 0 0 0 0 0 0 0 0 0 0 ",
"0 0 0 0 0 0 0 0 0 0 0 0 0 0 0 0 0 0 0 0 0 0 0 0 0 0 0 0 0 0 0 0 0 0 0 0 0 0 0 0 0 0 0 0 0 0 0 0 0 0 0 0 0 0 0 0 0 0 0 0 0 0 0 0 0 0 0 0 0 0 0 0 0 0 0 0 0 0 0 0 0 0 0 0 0 0 0 0 0 0 0 0 0 0 0 0 0 0 0 } D b ( 2 2 [.U.M.^+b+b+]+]+]+]+]+]+]+b+L.:+(+_+b+b+b+]+]+b+M.U.[.%+A 1 _ : : } j } t j t t t u J J J J J r r r r s s s s s s s s s s x s s s s s s s s s s s s f f s f y e e e C z z z B v v F F F F F F E E E E E _ ++ +^+P.{+{+8+{+{+8+8+{+{+{+8+{+{+8+8+8+8+]+b+^+^+M.T.-.0 0 0 0 0 0 0 0 0 0 0 0 0 0 0 0 0 0 0 0 0 0 0 0 0 0 0 0 0 0 0 0 0 0 0 0 0 0 0 0 0 0 0 0 0 0 0 0 0 0 0 0 0 0 0 0 0 0 0 0 0 0 0 0 0 0 0 0 0 0 0 0 0 0 0 0 0 0 0 0 0 0 0 0 0 0 0 0 0 0 0 0 0 0 0 0 0 g <+<+R.z.u.p.w.J.;+;+,+,+)+,+;+w.J.;+,+,+'+'+)+)+)+)+)+8+8+{+{+8+]+]+b+_+(+L.N.W.Z.++N.U. +M.^+b+8+{+{+'+'+'+;+;+;+;+;+;+'+)+{+{+{+{+)+,+J.J.J.w.p.p.u.C.C.w.,+,+,+;+w.p.u.p.w.J.,+,+)+{+{+{+)+'+,+J.p.p.w.p.w.p.p.u.C.q.z.z.q.J.,+,+,+;+J.w.p.C.C.u.u.C.q.z.z.z.z.q.C.q.C.C.u.p.C.C.u.C.q.2.g 0 0 0 0 0 0 0 0 0 0 0 0 0 0 0 0 0 0 0 0 0 0 0 0 0 0 0 0 0 0 0 0 0 0 0 0 0 ",
"0 0 0 0 0 0 0 0 0 0 0 0 0 0 0 0 0 0 0 0 0 0 0 0 0 0 0 0 0 0 0 0 0 0 0 0 0 0 0 0 0 0 0 0 0 0 0 0 0 0 0 0 0 0 0 0 0 0 0 0 0 0 0 0 0 0 0 0 0 0 0 0 0 0 0 0 0 0 0 0 0 0 0 0 0 0 0 0 0 0 0 0 0 0 0 0 0 0 0 -.b 2 2 _ : 0.N.U. + +(+(+_+_+_+^+b+^+^+N.N.L.:+:+(+_+^+^+M.U.T.++' ( _ _ : : : } } j t t t J J J J r r r r r s s s s s s s y s s y y s s s s s s s s s y s y y y e y e e e C C z z z B v E F F K K K K K K F F F F k ~ T. +M.V.]+]+]+b+b+b+b+b+b+b+]+]+]+]+]+^+^+M.M. +L.< f 0 0 0 0 0 0 0 0 0 0 0 0 0 0 0 0 0 0 0 0 0 0 0 0 0 0 0 0 0 0 0 0 0 0 0 0 0 0 0 0 0 0 0 0 0 0 0 0 0 0 0 0 0 0 0 0 0 0 0 0 0 0 0 0 0 0 0 0 0 0 0 0 0 0 0 0 0 0 0 0 0 0 0 0 0 0 0 0 0 0 0 0 0 0 0 -.A.<+<+t.C.p.w.w.J.J.;+;+,+'+)+{+,+J.J.;+;+,+'+'+)+{+{+{+{+]+b+]+8+]+b+b+_+(+:+N.N.Z.Z.++W.L. +M.M.^+]+8+8+{+)+)+'+,+,+,+,+'+{+8+]+8+8+{+'+;+J.J.p.u.C.C.C.p.;+;+w.p.u.u.C.C.w.u.u.w.'+{+{+{+{+{+)+'+;+;+J.J.w.w.p.u.p.p.u.p.C.q.z.z.,+'+,+,+J.p.u.C.u.p.u.q.C.C.q.q.z.B.u.J.w.;+w.u.u.u.p.C.C.q.z.v.J 0 0 0 0 0 0 0 0 0 0 0 0 0 0 0 0 0 0 0 0 0 0 0 0 0 0 0 0 0 0 0 0 0 0 0 ",
"0 0 0 0 0 0 0 0 0 0 0 0 0 0 0 0 0 0 0 0 0 0 0 0 0 0 0 0 0 0 0 0 0 0 0 0 0 0 0 0 0 0 0 0 0 0 0 0 0 0 0 0 0 0 0 0 0 0 0 0 0 0 0 0 0 0 0 0 0 0 0 0 0 0 0 0 0 0 0 0 0 0 0 0 0 0 0 0 0 0 0 0 0 0 0 0 0 0 0 0 } 2 _ : : 2 Z.W.N.L.L.L.:+:+:+:+ +M.M.N.++W.N.L.L.L.:+ +U.T.W.%+' ( _ _ : : : } t t t u J J J J r r r s s s s s s s y e y e y e e e y y y y y y y y y e e e e e e e e C C z z z B B E F K I I G G G G G I I K K F t D ++W.N.U. +M.M.M.M.(+(+(+(+(+(+M.(+M.M. +U.U.U.N.++3 f 0 0 0 0 0 0 0 0 0 0 0 0 0 0 0 0 0 0 0 0 0 0 0 0 0 0 0 0 0 0 0 0 0 0 0 0 0 0 0 0 0 0 0 0 0 0 0 0 0 0 0 0 0 0 0 0 0 0 0 0 0 0 0 0 0 0 0 0 0 0 0 0 0 0 0 0 0 0 0 0 0 0 0 0 0 0 0 0 0 0 0 0 0 0 7 v.<+R.z.p.w.J.w.w.J.;+;+,+'+)+)+)+,+J.J.J.;+,+'+)+{+{+8+8+8+8+b+(+b+b+_+_+(+ +L.W.++%+! %+++N.L. +M.^+^+]+8+{+)+)+'+'+,+)+{+8+]+^+^+^+8+)+'+,+;+J.w.p.C.C.;+,+w.p.u.u.u.C.z.t.t.q.p.p.J.]+]+]+8+8+)+'+,+,+;+J.J.J.w.w.w.u.u.u.u.C.C.q.q.,+)+,+;+w.u.u.p.u.C.C.u.u.C.C.q.q.z.C.;+J.w.u.u.u.u.C.C.C.C.q.E.N 0 0 0 0 0 0 0 0 0 0 0 0 0 0 0 0 0 0 0 0 0 0 0 0 0 0 0 0 0 0 0 0 0 0 ",
"0 0 0 0 0 0 0 0 0 0 0 0 0 0 0 0 0 0 0 0 0 0 0 0 0 0 0 0 0 0 0 0 0 0 0 0 0 0 0 0 0 0 0 0 0 0 0 0 0 0 0 0 0 0 0 0 0 0 0 0 0 0 0 0 0 0 0 0 0 0 0 0 0 0 0 0 0 0 0 0 0 0 0 0 0 0 0 0 0 0 0 0 0 0 0 0 0 0 0 0 -._ k j } } ! %+++W.W.W.N.N.L.L.L.U.U.T.Z.++W.W.W.N.N.N.T.[.++! A _ _ : : : j } j t t J J r r r r s s s s s e e e e C C C C C C C C C e y y y e y y e C C C C C C C z C z z B B E F K G G Q W W W W W ..W Q G G I x ( ! %+++W.N.T.U.L.L.L.U.U.L.L.L.U.L.L.L.L.N.N.W.++~ 0.d 0 0 0 0 0 0 0 0 0 0 0 0 0 0 0 0 0 0 0 0 0 0 0 0 0 0 0 0 0 0 0 0 0 0 0 0 0 0 0 0 0 0 0 0 0 0 0 0 0 0 0 0 0 0 0 0 0 0 0 0 0 0 0 0 0 0 0 0 0 0 0 0 0 0 0 0 0 0 0 0 0 0 0 0 0 0 0 0 0 0 0 0 0 u v.R.t.u.J.J.w.w.J.;+;+;+,+,+'+)+{+{+;+J.J.;+,+,+'+)+{+8+8+]+]+b+_+:+:+(+(+ + +L.N.++%+#+A ! ++N.N.U. +M.^+^+]+8+{+{+)+'+)+8+]+^+^+^+^+^+8+{+'+;+;+J.w.w.p.;+'+J.w.p.u.C.C.q.z.t.`.`.-+u.w.)+_+_+_+]+{+'+,+,+;+;+J.J.p.p.u.C.p.w.q.`.D.`.z.C.,+)+,+w.p.u.p.p.u.u.p.u.u.C.u.z.`.`.q.;+J.p.p.u.u.u.u.u.p.w.z.`.v.r 0 0 0 0 0 0 0 0 0 0 0 0 0 0 0 0 0 0 0 0 0 0 0 0 0 0 0 0 0 0 0 0 ",
"0 0 0 0 0 0 0 0 0 0 0 0 0 0 0 0 0 0 0 0 0 0 0 0 0 0 0 0 0 0 0 0 0 0 0 0 0 0 0 0 0 0 0 0 0 0 0 0 0 0 0 0 0 0 0 0 0 0 0 0 0 0 0 0 0 0 0 0 0 0 0 0 0 0 0 0 0 0 0 0 0 0 0 0 0 0 0 0 0 0 0 0 0 0 0 0 0 0 0 0 0 7 j j t 8 2 ! ! %+%+Z.++++W.W.[.T.[.[.3 %+%+%+Z.++++[.[.++0.' ( _ ) : : } j } t t J J J r r s s f e e e e C C C z z z z z z z z z z C C C C C C C C z z z z z z z z B B E E F H I Q W V X X X %.X X X &.&.V V W e _ A ! %+Z.++++[.T.N.N.N.N.N.W.N.W.W.W.W.W.++++++~ 0.D 0 0 0 0 0 0 0 0 0 0 0 0 0 0 0 0 0 0 0 0 0 0 0 0 0 0 0 0 0 0 0 0 0 0 0 0 0 0 0 0 0 0 0 0 0 0 0 0 0 0 0 0 0 0 0 0 0 0 0 0 0 0 0 0 0 0 0 0 0 0 0 0 0 0 0 0 0 0 0 0 0 0 0 0 0 0 0 0 0 0 0 0 0 J v.u.J.{+8+{+{+)+J.p.p.J.;+,+'+'+{+]+)+J.;+;+,+'+'+)+{+{+8+b+b+_+(+:+:+L.:+:+:+ +U.N.Z.$+] 1 ' Z.W.N.L. +M.M.^+^+8+8+{+)+8+8+^+^+M.M.M.M.M.]+{+)+,+;+J.w.p.w.,+,+J.w.p.u.C.q.q.q.t.`.`.B.-+F.J._+(+(+b+]+)+)+'+,+;+J.J.w.p.w.;+;+C.z.t.`.O.G.O.-+,+)+,+J.w.p.u.p.p.p.p.u.u.q.`.R.G.x.R.p.J.J.p.u.C.C.p.J.w.B.`.s.c+l 0 0 0 0 0 0 0 0 0 0 0 0 0 0 0 0 0 0 0 0 0 0 0 0 0 0 0 0 0 0 0 ",
"0 0 0 0 0 0 0 0 0 0 0 0 0 0 0 0 0 0 0 0 0 0 0 0 0 0 0 0 0 0 0 0 0 0 0 0 0 0 0 0 0 0 0 0 0 0 0 0 0 0 0 0 0 0 0 0 0 0 0 0 0 0 0 0 0 0 0 0 0 0 0 0 0 0 0 0 0 0 0 0 0 0 0 0 0 0 0 0 0 0 0 0 0 0 0 0 0 0 0 0 0 0 7 t J r r b ' ' d.#+#+%+%+Z.++++~ ~ 0.0.' ! $+%+Z.++~ 3 D A ( _ : : : j j j t J J r r s s y e C C z z z z B v E E v v B B B B B B z z z z z z z z B B B B v B E E E F K I I G G T ..&.Z g.<.:.<.<.<.Z <.Z Z Z I : _ A D 0.! %+Z.++++[.++++Z.Z.Z.Z.Z.Z.++Z.++%+! D b : 0 0 0 0 0 0 0 0 0 0 0 0 0 0 0 0 0 0 0 0 0 0 0 0 0 0 0 0 0 0 0 0 0 0 0 0 0 0 0 0 0 0 0 0 0 0 0 0 0 0 0 0 0 0 0 0 0 0 0 0 0 0 0 0 0 0 0 0 0 0 0 0 0 0 0 0 0 0 0 0 0 0 0 0 0 0 0 0 0 0 0 0 -.< ^+]+8+'+,+;+;+,+)+)+,+p.w.;+,+{+]+8+;+J.;+,+,+'+)+{+8+]+b+_+(+:+L.L.L.N.L.U.U.U.U.T.++' 1 i ] ! ++[.T.U. +M.M.^+^+]+P.8+]+^+M.M. + + +U. +b+8+{+'+;+;+J.J.;+,+,+;+J.p.u.u.C.q.q.B.`.B.B.-+-+C.)+N.L.(+b+8+{+'+;+J.J.w.w.J.J.,+p.u.C.z.t.R.O.G.s.t.'+{+,+;+J.w.p.u.p.u.p.p.C.q.B.t.O.x.<+C.J.w.w.u.u.u.J.w.u.q.B.r.<+|.-.0 0 0 0 0 0 0 0 0 0 0 0 0 0 0 0 0 0 0 0 0 0 0 0 0 0 0 0 0 ",
"0 0 0 0 0 0 0 0 0 0 0 0 0 0 0 0 0 0 0 0 0 0 0 0 0 0 0 0 0 0 0 0 0 0 0 0 0 0 0 0 0 0 0 0 0 0 0 0 0 0 0 0 0 0 0 0 0 0 0 0 0 0 0 0 0 0 0 0 0 0 0 0 0 0 0 0 0 0 0 0 0 0 0 0 0 0 0 0 0 0 0 0 0 0 0 0 0 0 0 0 0 0 0 0 f r f J b A A ( ] A ' ' D D D D b 0.' ' A ' ! ! 0.D ' ( 2 _ : } } j j t J J r r s s f e z B v v B E w H S S S S H F F F F E E E E E E E E E B E E E w w w F H I G G G p (.0 0 0 0 d -.0 d d q q ~.v V G G T J : _ ( A ' D 0.! ! %+%+%+%+%+%+%+$+%+! ! D D b ( b f 0 0 0 0 0 0 0 0 0 0 0 0 0 0 0 0 0 0 0 0 0 0 0 0 0 0 0 0 0 0 0 0 0 0 0 0 0 0 0 0 0 0 0 0 0 0 0 0 0 0 0 0 0 0 0 0 0 0 0 0 0 0 0 0 0 0 0 0 0 0 0 0 0 0 0 0 0 0 0 0 0 0 0 0 0 0 0 0 0 0 0 0 b P.{+'+,+;+J.;+J.p.p.J.;+)+)+{+8+8+{+'+;+;+,+,+,+'+{+8+]+_+(+ +L.N.N.N.W.W.N.T.T.T.T.< ~ A ) / 1 ' %+++N.L.U. +M.M.^+^+P.V.V.M. +U.U.U.U.L.:+M.]+{+'+,+;+;+;+,+'+,+;+J.w.p.u.C.q.z.`.`.B.z.z.z.-+w. +|+L.(+b+]+8+)+,+J.J.w.p.;+;+J.p.u.C.z.B.`.R.O.O.`.,+{+)+,+J.w.p.p.p.J.J.w.u.q.z.t.r.s.s.-+J.p.p.w.w.;+J.w.p.C.z.D.G.v.7 0 0 0 0 0 0 0 0 0 0 0 0 0 0 0 0 0 0 0 0 0 0 0 0 0 0 0 0 ",
"0 0 0 0 0 0 0 0 0 0 0 0 0 0 0 0 0 0 0 0 0 0 0 0 0 0 0 0 0 0 0 0 0 0 0 0 0 0 0 0 0 0 0 0 0 0 0 0 0 0 0 0 0 0 0 0 0 0 0 0 0 0 0 0 0 0 0 0 0 0 0 0 0 0 0 0 0 0 0 0 0 0 0 0 0 0 0 0 0 0 0 0 0 0 0 0 0 0 0 0 0 0 0 0 0 6 e e J ( ] ( 1 1 1 1 _ 2 _ _ : 2 0.' A ] A A A A ( 2 _ : : } } t t J r r r s s e C z w H H I G ..*.V V V ....Q G G G I I F F K F F F F F F F H H I I G G Q G H q 0 0 0 0 0 0 0 0 0 0 0 0 0 0 0 0 0 0 0 0 0 : : _ _ 1 ( A A ' ' ' ' D #+D ' ' A A A ] ( ( ( _ 0 0 0 0 0 0 0 0 0 0 0 0 0 0 0 0 0 0 0 0 0 0 0 0 0 0 0 0 0 0 0 0 0 0 0 0 0 0 0 0 0 0 0 0 0 0 0 0 0 0 0 0 0 0 0 0 0 0 0 0 0 0 0 0 0 0 0 0 0 0 0 0 0 0 0 0 0 0 0 0 0 0 0 0 0 0 0 0 0 0 0 0 -.$ P.)+'+,+;+;+J.w.p.p.u.C.u.p.w.J.J.J.;+;+,+,+,+)+{+8+]+b+(+:+N.W.W.++++++Z.++[.[.< < - 0.( / 9 ^ ] ! %+[.N.U.U. + +M.^+^+^+M. +U.T.T.T.N.N.L. +^+]+{+)+'+,+;+)+'+,+;+;+J.w.u.C.q.z.B.t.t.z.q.q.q.F.P.Q.N.:+(+_+]+)+'+;+;+J.;+'+;+;+J.w.p.C.z.`.R.R.R.R.z.,+8+'+,+;+w.w.J.,+;+J.w.u.C.z.t.R.G.x.B.J.w.p.p.,+;+J.J.p.C.z.`.O.h J 0 0 0 0 0 0 0 0 0 0 0 0 0 0 0 0 0 0 0 0 0 0 0 0 0 0 0 ",
"0 0 0 0 0 0 0 0 0 0 0 0 0 0 0 0 0 0 0 0 0 0 0 0 0 0 0 0 0 0 0 0 0 0 0 0 0 0 0 0 0 0 0 0 0 0 0 0 0 0 0 0 0 0 0 0 0 0 0 0 0 0 0 0 0 0 0 0 0 0 0 0 0 0 0 0 0 0 0 0 0 0 0 0 0 0 0 0 0 0 0 0 0 0 0 0 0 0 0 0 0 0 0 0 0 0 0 (.q 8 2 2 ( _ [ ) : } 8 m 6 f 2 b b ( 1 ( ( 2 _ _ : : : } j t J r r s s y e z B w w p d d d S T ..X X X Y V V V ..Q ..Q G G G G G G G G Q Q Q Q ..G H q 0 0 0 0 0 0 0 0 0 0 0 0 0 0 0 0 0 0 0 0 0 0 0 0 7 : : : ) [ _ 1 1 1 1 ] ( ( 1 ( 1 1 1 1 _ _ 2 2 6 0 0 0 0 0 0 0 0 0 0 0 0 0 0 0 0 0 0 0 0 0 0 0 0 0 0 0 0 0 0 0 0 0 0 0 0 0 0 0 0 0 0 0 0 0 0 0 0 0 0 0 0 0 0 0 0 0 0 0 0 0 0 0 0 0 0 0 0 0 0 0 0 0 0 0 0 0 0 0 0 0 0 0 0 0 0 0 0 0 0 0 0 k M.P.{+{+)+,+;+;+J.w.w.p.p.u.u.p.u.p.w.;+,+'+'+'+{+8+b+_+(+L.N.W.Z.Z.%+%+%+! ! ! ~ - 3 3 D _ } 8 } 1 A ! Z.[.T.T.U.U. + +M. + +U.N.[.[.[.[.W.T.U.(+b+8+{+)+,+;+)+)+,+,+;+J.w.u.C.C.u.p.w.u.C.C.C.C.F.;+U.Q.N.[+(+b+8+)+'+,+;+,+{+,+;+J.w.p.u.C.z.t.`.`.t.t.q.'+8+{+'+;+J.;+'+;+;+J.w.u.u.q.t.r.O.G.t.J.w.p.;+{+;+J.J.w.C.z.t.`.h u 0 0 0 0 0 0 0 0 0 0 0 0 0 0 0 0 0 0 0 0 0 0 0 0 0 0 ",
"0 0 0 0 0 0 0 0 0 0 0 0 0 0 0 0 0 0 0 0 0 0 0 0 0 0 0 0 0 0 0 0 0 0 0 0 0 0 0 0 0 0 0 0 0 0 0 0 0 0 0 0 0 0 0 0 0 0 0 0 0 0 0 0 0 0 0 0 0 0 0 0 0 0 0 0 0 0 0 0 0 0 0 0 0 0 0 0 0 0 0 0 0 0 0 0 0 0 0 0 0 0 0 0 0 0 0 0 0 0 ).: _ _ : : } t m 6 0 q q 2 b ( 2 _ _ _ : : : } } t t J r r f e e z B v 0 0 0 0 0 0 0 0 0 0 (.q H T T X X Y &.&.V V V V *.V *.V V T S I p (.0 0 0 0 0 0 0 0 0 0 0 0 0 0 0 0 0 0 0 0 0 0 0 0 0 0 0 -.t : : : : : ) ) ^ ^ ^ ^ ^ ^ ^ ^ ) ^ [ [ _ 2 7 0 0 0 0 0 0 0 0 0 0 0 0 0 0 0 0 0 0 0 0 0 0 0 0 0 0 0 0 0 0 0 0 0 0 0 0 0 0 0 0 0 0 0 0 0 0 0 0 0 0 0 0 0 0 0 0 0 0 0 0 0 0 0 0 0 0 0 0 0 0 0 0 0 0 0 0 0 0 0 0 0 0 0 0 0 0 0 0 0 0 0 0 0 b  +^+]+8+8+{+)+)+)+'+,+;+;+J.J.J.J.w.J.,+'+)+{+{+]+b+_+:+L.N.W.Z.! ! D ' ' A A b D 0.3 D b _ 8 8 m ) 1 D ! ++[.T.T.T.T.U.U.U.T.N.[.++++++++++[.L. +^+]+8+)+,+;+;+{+'+,+;+;+J.J.J.J.J.w.w.w.w.;+'+)+'+)+P.Z.W.|+:+_+b+8+)+,+;+,+{+)+;+;+J.w.p.C.q.z.z.B.B.z.z.C.)+]+{+'+;+,+{+'+;+J.J.w.u.C.q.B.z.B.`.z.J.J.J.)+{+,+J.w.C.q.w.,+;+H.r 0 0 0 0 0 0 0 0 0 0 0 0 0 0 0 0 0 0 0 0 0 0 0 0 0 ",
"0 0 0 0 0 0 0 0 0 0 0 0 0 0 0 0 0 0 0 0 0 0 0 0 0 0 0 0 0 0 0 0 0 0 0 0 0 0 0 0 0 0 0 0 0 0 0 0 0 0 0 0 0 0 0 0 0 0 0 0 0 0 0 0 0 0 0 0 0 0 0 0 0 0 0 0 0 0 0 0 0 0 0 0 0 0 0 0 0 0 0 0 0 0 0 0 0 0 0 0 0 0 0 0 0 0 0 0 0 0 0 -.).t } } } t r f d p H w _ 2 2 _ _ : : } } t t 8 r r s f e C q v d 0 0 0 0 0 0 0 0 0 0 0 0 0 0 0 0 0 k.d q p w p p p q q d (.0 (.0 0 0 0 0 0 0 0 0 0 0 0 0 0 0 0 0 0 0 0 0 0 0 0 0 0 0 0 0 0 0 0 -.t } : : : : : ) : ) ) ) ) ) ) ) ) _ _ _ 7 0 0 0 0 0 0 0 0 0 0 0 0 0 0 0 0 0 0 0 0 0 0 0 0 0 0 0 0 0 0 0 0 0 0 0 0 0 0 0 0 0 0 0 0 0 0 0 0 0 0 0 0 0 0 0 0 0 0 0 0 0 0 0 0 0 0 0 0 0 0 0 0 0 0 0 0 0 0 0 0 0 0 0 0 0 0 0 0 0 0 0 0 0 0 2 U. +^+]+]+b+]+]+8+8+{+'+'+'+,+;+;+;+'+)+{+8+]+]+_+(+:+L.N.W.Z.! A A A ( ( 2 _ 2 2 b b g 2 } 8 7 ).} _ ] D %+++[.[.N.[.T.T.T.[.++++%+%+%+%+Z.++N.U. +_+]+)+'+,+;+,+)+)+'+'+,+w.u.C.C.q.C.u.C.u.w.;+,+'+,+T.Z.W.L.:+(+b+{+'+,+;+'+8+'+,+J.w.p.C.q.q.u.p.w.p.u.u.p.{+8+)+'+;+)+]+'+J.J.w.u.q.C.;+)+;+J.;+;+,+;+J.,+)+)+'+'+)+)+;+w.;+#.0 0 0 0 0 0 0 0 0 0 0 0 0 0 0 0 0 0 0 0 0 0 0 0 0 ",
"0 0 0 0 0 0 0 0 0 0 0 0 0 0 0 0 0 0 0 0 0 0 0 0 0 0 0 0 0 0 0 0 0 0 0 0 0 0 0 0 0 0 0 0 0 0 0 0 0 0 0 0 0 0 0 0 0 0 0 0 0 0 0 0 0 0 0 0 0 0 0 0 0 0 0 0 0 0 0 0 0 0 0 0 0 0 0 0 0 0 0 0 0 0 0 0 0 0 0 0 0 0 0 0 0 0 0 0 0 0 0 0 0 0 -.d 7 7 0 d q w d d 6 : _ k k : } t 8 8 r 7 f f e d B v p 0 0 0 0 0 0 0 0 0 0 0 0 0 0 0 0 0 0 0 0 0 0 0 0 0 0 0 0 0 0 0 0 0 0 0 0 0 0 0 0 0 0 0 0 0 0 0 0 0 0 0 0 0 0 0 0 0 0 0 0 0 0 0 0 0 0 -.6 t } } : : } : : : : : : : : : : } 6 0 0 0 0 0 0 0 0 0 0 0 0 0 0 0 0 0 0 0 0 0 0 0 0 0 0 0 0 0 0 0 0 0 0 0 0 0 0 0 0 0 0 0 0 0 0 0 0 0 0 0 0 0 0 0 0 0 0 0 0 0 0 0 0 0 0 0 0 0 0 0 0 0 0 0 0 0 0 0 0 0 0 0 0 0 0 0 0 0 0 0 0 0 0 0 _ [.T.U. +(+(+_+_+b+b+]+{+{+{+)+)+)+{+{+8+8+]+_+_+(+:+L.N.[.++! A 1 1 _ _ _ : : : : k : j t 8 7 7 7 r : 1 A D %+%+++[.[.[.[.[.++%+! ! ! ! ! ! ++[.N.:+M.b+{+)+,+;+J.J.J.w.p.C.q.q.q.q.q.C.C.u.p.w.w.J.,+,+P.$+Z.W.L.:+b+]+{+)+,+;+'+)+'+,+;+;+;+,+)+,+;+;+,+,+)+)+)+b+]+{+'+;+'+8+)+,+;+,+,+'+;+w.p.u.p.w.,+'+J.p.p.J.;+;+J.J.w.w.J.,+7 0 0 0 0 0 0 0 0 0 0 0 0 0 0 0 0 0 0 0 0 0 0 0 0 ",
"0 0 0 0 0 0 0 0 0 0 0 0 0 0 0 0 0 0 0 0 0 0 0 0 0 0 0 0 0 0 0 0 0 0 0 0 0 0 0 0 0 0 0 0 0 0 0 0 0 0 0 0 0 0 0 0 0 0 0 0 0 0 0 0 0 0 0 0 0 0 0 0 0 0 0 0 0 0 0 0 0 0 0 0 0 0 0 0 0 0 0 0 0 0 0 0 0 0 0 0 0 0 0 0 0 0 0 0 0 0 0 0 0 0 0 0 0 0 0 0 0 0 0 0 0 -.f t } j t 8 r r f e d q B v p (.0 0 0 0 0 0 0 0 0 0 0 0 0 0 0 0 0 0 0 0 0 0 0 0 0 0 0 0 0 0 0 0 0 0 0 0 0 0 0 0 0 0 0 0 0 0 0 0 0 0 0 0 0 0 0 0 0 0 0 0 0 0 0 0 0 0 0 0 0 -.7 7 8 t t t t t t t t t t m e 0 0 0 0 0 0 0 0 0 0 0 0 0 0 0 0 0 0 0 0 0 0 0 0 0 0 0 0 0 0 0 0 0 0 0 0 0 0 0 0 0 0 0 0 0 0 0 0 0 0 0 0 0 0 0 0 0 0 0 0 0 0 0 0 0 0 0 0 0 0 0 0 0 0 0 0 0 0 0 0 0 0 0 0 0 0 0 0 0 0 0 0 0 0 0 0 0 t %+++W.N.L.L.L.:+(+_+_+b+b+b+]+b+b+_+b+b+_+_+_+(+(+U.N.W.Z.%+] i : : : } } t 8 8 8 8 m ).7 f f f s f t _ 1 ] ' 0.3 %+~ ++++++~ ! ' ' D D D 0.%+++[.L. +^+8+{+'+;+;+;+J.J.w.u.C.C.q.q.C.C.u.w.p.;+;+;+)+)+{+%+$+Z.W.L.(+b+]+8+)+;+J.;+;+,+,+,+;+J.p.C.C.u.p.w.J.;+'+]+_+8+{+'+;+,+'+)+{+,+w.p.u.C.u.p.p.J.'+8+)+,+J.J.;+;+;+J.J.J.'+)+b 0 0 0 0 0 0 0 0 0 0 0 0 0 0 0 0 0 0 0 0 0 0 0 0 ",
"0 0 0 0 0 0 0 0 0 0 0 0 0 0 0 0 0 0 0 0 0 0 0 0 0 0 0 0 0 0 0 0 0 0 0 0 0 0 0 0 0 0 0 0 0 0 0 0 0 0 0 0 0 0 0 0 0 0 0 0 0 0 0 0 0 0 0 0 0 0 0 0 0 0 0 0 0 0 0 0 0 0 0 0 0 0 0 0 0 0 0 0 0 0 0 0 0 0 0 0 0 0 0 0 0 0 0 0 0 0 0 0 0 0 0 0 0 0 0 0 0 0 0 0 0 0 0 d -.7 r r f e q p p v p (.0 0 0 0 0 0 0 0 0 0 0 0 0 0 0 0 0 0 0 0 0 0 0 0 0 0 0 0 0 0 0 0 0 0 0 0 0 0 0 0 0 0 0 0 0 0 0 0 0 0 0 0 0 0 0 0 0 0 0 0 0 0 0 0 0 0 0 0 0 0 0 0 0 d (.f d 0 0 e 0 e f -.0 0 0 0 0 0 0 0 0 0 0 0 0 0 0 0 0 0 0 0 0 0 0 0 0 0 0 0 0 0 0 0 0 0 0 0 0 0 0 0 0 0 0 0 0 0 0 0 0 0 0 0 0 0 0 0 0 0 0 0 0 0 0 0 0 0 0 0 0 0 0 0 0 0 0 0 0 0 0 0 0 0 0 0 0 0 0 0 0 0 0 0 0 0 0 0 0 0 0 0 6 0.%+%+++W.W.N.L.L.L.:+:+(+(+(+(+:+:+:+(+:+:+:+L.U.L.W.++! A ^ 9 8 8 8 m ).6 7 7 7 7 7 f f f e e e e f : _ 1 ] ' D ! 3 3 3 3 0.D ' A A ' D D 0.%+++N.U.M.b+8+)+'+'+,+'+'+,+,+;+J.w.J.J.J.;+,+;+,+'+)+{+{+8+%+A %+++W.L.(+b+8+)+'+;+w.w.w.p.u.u.C.C.C.C.p.w.J.J.;+'+8+(+_+b+8+)+,+;+J.J.J.w.p.w.J.w.w.J.,+{+b+]+8+{+)+)+{+{+)+)+)+]+^+b 0 0 0 0 0 0 0 0 0 0 0 0 0 0 0 0 0 0 0 0 0 0 0 0 ",
"0 0 0 0 0 0 0 0 0 0 0 0 0 0 0 0 0 0 0 0 0 0 0 0 0 0 0 0 0 0 0 0 0 0 0 0 0 0 0 0 0 0 0 0 0 0 0 0 0 0 0 0 0 0 0 0 0 0 0 0 0 0 0 0 0 0 0 0 0 0 0 0 0 0 0 0 0 0 0 0 0 0 0 0 0 0 0 0 0 0 0 0 0 0 0 0 0 0 0 0 0 0 0 0 0 0 0 0 0 0 0 0 0 0 0 0 0 0 0 0 0 0 0 0 0 0 0 0 0 0 0 0 (.p d d (.0 0 0 0 0 0 0 0 0 0 0 0 0 0 0 0 0 0 0 0 0 0 0 0 0 0 0 0 0 0 0 0 0 0 0 0 0 0 0 0 0 0 0 0 0 0 0 0 0 0 0 0 0 0 0 0 0 0 0 0 0 0 0 0 0 0 0 0 0 0 0 0 0 0 0 0 0 0 0 0 0 0 0 0 0 0 0 0 0 0 0 0 0 0 0 0 0 0 0 0 0 0 0 0 0 0 0 0 0 0 0 0 0 0 0 0 0 0 0 0 0 0 0 0 0 0 0 0 0 0 0 0 0 0 0 0 0 0 0 0 0 0 0 0 0 0 0 0 0 0 0 0 0 0 0 0 0 0 0 0 0 0 0 0 0 0 0 0 0 0 0 0 0 0 0 0 0 0 0 0 0 0 0 0 0 0 0 0 ' ! #+$+%+Z.Z.W.N.N.L.L.L.L.L.L.L.L.L.L.L.L.L.N.N.W.Z.! A [ 9 h.8 8 m 7 7 7 7 7 s f f f e e e z z B B J _ _ ( ( A D D D 0.0.D A b b b b ' D D ! ++[.L. +M.b+8+{+{+{+{+{+)+{+)+)+'+'+{+)+{+8+{+8+8+]+8+]+b+%+_ A %+Z.N.:+(+b+]+{+)+'+;+J.J.J.J.J.w.J.J.;+,+,+,+'+8+b+:+:+(+b+]+8+)+)+'+'+,+,+'+'+)+)+{+8+b+(+(+_+b+b+b+]+8+8+]+b+_+:+2 0 0 0 0 0 0 0 0 0 0 0 0 0 0 0 0 0 0 0 0 0 0 0 0 ",
"0 0 0 0 0 0 0 0 0 0 0 0 0 0 0 0 0 0 0 0 0 0 0 0 0 0 0 0 0 0 0 0 0 0 0 0 0 0 0 0 0 0 0 0 0 0 0 0 0 0 0 0 0 0 0 0 0 0 0 0 0 0 0 0 0 0 0 0 0 0 0 0 0 0 0 0 0 0 0 0 0 0 0 0 0 0 0 0 0 0 0 0 0 0 0 0 0 0 0 0 0 0 0 0 0 0 0 0 0 0 0 0 0 0 0 0 0 0 0 0 0 0 0 0 0 0 0 0 0 0 0 0 0 0 0 0 0 0 0 0 0 0 0 0 0 0 0 0 0 0 0 0 0 0 0 0 0 0 0 0 0 0 0 0 0 0 0 0 0 0 0 0 0 0 0 0 0 0 0 0 0 0 0 0 0 0 0 0 0 0 0 0 0 0 0 0 0 0 0 0 0 0 0 0 0 0 0 0 0 0 0 0 0 0 0 0 0 0 0 0 0 0 0 0 0 0 0 0 0 0 0 0 0 0 0 0 0 0 0 0 0 0 0 0 0 0 0 0 0 0 0 0 0 0 0 0 0 0 0 0 0 0 0 0 0 0 0 0 0 0 0 0 0 0 0 0 0 0 0 0 0 0 0 0 0 0 0 0 0 0 0 0 0 0 0 0 0 0 0 0 0 0 0 0 0 0 0 0 0 0 0 0 0 0 0 0 0 0 0 0 0 0 0 0 0 8 0.' d.d.#+$+Z.++++W.W.W.W.W.W.N.N.N.N.N.N.N.W.++%+D ] _ 9 8 8 8 8 r r r s f f f e e C C q B v v F H w t _ _ _ 1 b b b D D b ( ( b b b b D D 0.%+++N.U.M.^+_+b+]+]+8+8+8+8+]+]+]+]+]+]+b+b+b+b+b+b+b+(+(+! } ( d.%+W.N.:+(+_+]+8+{+{+)+)+)+)+)+)+)+)+)+8+8+{+]+_+(+N.L.:+(+_+b+]+{+8+{+{+{+8+8+]+b+b+_+:+L.L.:+:+(+(+(+_+_+_+(+L.W.).0 0 0 0 0 0 0 0 0 0 0 0 0 0 0 0 0 0 0 0 0 0 0 0 ",
"0 0 0 0 0 0 0 0 0 0 0 0 0 0 0 0 0 0 0 0 0 0 0 0 0 0 0 0 0 0 0 0 0 0 0 0 0 0 0 0 0 0 0 0 0 0 0 0 0 0 0 0 0 0 0 0 0 0 0 0 0 0 0 0 0 0 0 0 0 0 0 0 0 0 0 0 0 0 0 0 0 0 0 0 0 0 0 0 0 0 0 0 0 0 0 0 0 0 0 0 0 0 0 0 0 0 0 0 0 0 0 0 0 0 0 0 0 0 0 0 0 0 0 0 0 0 0 0 0 0 0 0 0 0 0 0 0 0 0 0 0 0 0 0 0 0 0 0 0 0 0 0 0 0 0 0 0 0 0 0 0 0 0 0 0 0 0 0 0 0 0 0 0 0 0 0 0 0 0 0 0 0 0 0 0 0 0 0 0 0 0 0 0 0 0 0 0 0 0 0 0 0 0 0 0 0 0 0 0 0 0 0 0 0 0 0 0 0 0 0 0 0 0 0 0 0 0 0 0 0 0 0 0 0 0 0 0 0 0 0 0 0 0 0 0 0 0 0 0 0 0 0 0 0 0 0 0 0 0 0 0 0 0 0 0 0 0 0 0 0 0 0 0 0 0 0 0 0 0 0 0 0 0 0 0 0 0 0 0 0 0 0 0 0 0 0 0 0 0 0 0 0 0 0 0 0 0 0 0 0 0 0 0 0 0 0 0 0 0 0 0 0 0 0 0 0 ( ' ' A d.#+#+$+%+%+Z.++++++W.++W.W.++++++++%+! A ( _ } 8 7 7 r r r 7 f e C z z z v v F F H S G G Q ..E : _ _ _ 2 ( ( b ( ( ( ( 2 ( b b b b D 0.~ [.T. + +(+_+_+b+b+b+b+b+b+b+b+_+_+_+_+_+_+_+_+_+(+ +L._ !.: ( #+%+W.N.:+(+_+b+]+8+8+8+8+8+8+8+8+]+]+b+b+b+_+(+L.++W.N.L.:+:+_+_+b+b+b+b+b+_+_+(+:+:+N.W.N.N.L.L.L.L.L.L.L.N.W.0.0 0 0 0 0 0 0 0 0 0 0 0 0 0 0 0 0 0 0 0 0 0 0 0 0 ",
"0 0 0 0 0 0 0 0 0 0 0 0 0 0 0 0 0 0 0 0 0 0 0 0 0 0 0 0 0 0 0 0 0 0 0 0 0 0 0 0 0 0 0 0 0 0 0 0 0 0 0 0 0 0 0 0 0 0 0 0 0 0 0 0 0 0 0 0 0 0 0 0 0 0 0 0 0 0 0 0 0 0 0 0 0 0 0 0 0 0 0 0 0 0 0 0 0 0 0 0 0 0 0 0 0 0 0 0 0 0 0 0 0 0 0 0 0 0 0 0 0 0 0 0 0 0 0 0 0 0 0 0 0 0 0 0 0 0 0 0 0 0 0 0 0 0 0 0 0 0 0 0 0 0 0 0 0 0 0 0 0 0 0 0 0 0 0 0 0 0 0 0 0 0 0 0 0 0 0 0 0 0 0 0 0 0 0 0 0 0 0 0 0 0 0 0 0 0 0 0 0 0 0 0 0 0 0 0 0 0 0 0 0 0 0 0 0 0 0 0 0 0 0 0 0 0 0 0 0 0 0 0 0 0 0 0 0 0 0 0 0 0 0 0 0 0 0 0 0 0 0 0 0 0 0 0 0 0 0 0 0 0 0 0 0 0 0 0 0 0 0 0 0 0 0 0 0 0 0 0 0 0 0 0 0 0 0 0 0 0 0 0 0 0 0 0 0 0 0 0 0 0 0 0 0 0 0 0 0 0 0 0 0 0 0 0 0 0 0 0 0 0 0 0 0 0 8 D ' A ] ] ] d.d.#+$+$+%+%+%+Z.%+%+%+%+%+! ' ] i '.} t 7 e e e e d d p p ~.w w w Q Q Q ..V V Y X ` ` ` B : _ _ 2 2 2 2 2 2 2 2 2 2 2 2 b b b D %+++[.L.U.:+:+:+(+(+(+(+(+(+(+(+(+(+(+:+:+:+:+:+:+L.N.W.8 (.8 ) A ! ++W.L.L.:+(+_+_+_+b+b+b+b+b+b+_+(+_+(+:+:+L.W.! Z.W.N.N.L.L.:+(+(+:+(+(+:+:+L.L.W.Z.Z.++W.W.W.W.W.Q.Q.W.Z.$+t 0 0 0 0 0 0 0 0 0 0 0 0 0 0 0 0 0 0 0 0 0 0 0 0 0 ",
"0 0 0 0 0 0 0 0 0 0 0 0 0 0 0 0 0 0 0 0 0 0 0 0 0 0 0 0 0 0 0 0 0 0 0 0 0 0 0 0 0 0 0 0 0 0 0 0 0 0 0 0 0 0 0 0 0 0 0 0 0 0 0 0 0 0 0 0 0 0 0 0 0 0 0 0 0 0 0 0 0 0 0 0 0 0 0 0 0 0 0 0 0 0 0 0 0 0 0 0 0 0 0 0 0 0 0 0 0 0 0 0 0 0 0 0 0 0 0 0 0 0 0 0 0 0 0 0 0 0 0 0 0 0 0 0 0 0 0 0 0 0 0 0 0 0 0 0 0 0 0 0 0 0 0 0 0 0 0 0 0 0 0 0 0 0 0 0 0 0 0 0 0 0 0 0 0 0 0 0 0 0 0 0 0 0 0 0 0 0 0 0 0 0 0 0 0 0 0 0 0 0 0 0 0 0 0 0 0 0 0 0 0 0 0 0 0 0 0 0 0 0 0 0 0 0 0 0 0 0 0 0 0 0 0 0 0 0 0 0 0 0 0 0 0 0 0 0 0 0 0 0 0 0 0 0 0 0 0 0 0 0 0 0 0 0 0 0 0 0 0 0 0 0 0 0 0 0 0 0 0 0 0 0 0 0 0 0 0 0 0 0 0 0 0 0 0 0 0 0 0 0 0 0 0 0 0 0 0 0 0 0 0 0 0 0 0 0 0 0 0 0 0 0 0 0 0 : b ] ( ( ( 1 1 ] ] A A d.d.' D ' d.d.] ( 1 ) '.} t r d d d q 0 (.0 0 0 0 0 0 0 d 0 -.0 0 0 (.(.(.(.(.(.f t _ _ 2 _ 2 2 _ _ _ _ _ _ k 2 2 b D 0.~ [.N.N.N.L.L.L.L.:+:+:+L.:+L.L.L.L.L.L.L.L.L.N.W.++%+e _.-.8 _ A %+++W.N.N.L.:+:+(+(+(+(+(+(+(+:+:+:+L.N.N.++$+] ' %+++W.N.N.N.L.L.L.L.N.N.N.W.W.%+D 0.~ Z.%+++Z.%+%+$+#+#+' -.0 0 0 0 0 0 0 0 0 0 0 0 0 0 0 0 0 0 0 0 0 0 0 0 0 ",
"0 0 0 0 0 0 0 0 0 0 0 0 0 0 0 0 0 0 0 0 0 0 0 0 0 0 0 0 0 0 0 0 0 0 0 0 0 0 0 0 0 0 0 0 0 0 0 0 0 0 0 0 0 0 0 0 0 0 0 0 0 0 0 0 0 0 0 0 0 0 0 0 0 0 0 0 0 0 0 0 0 0 0 0 0 0 0 0 0 0 0 0 0 0 0 0 0 0 0 0 0 0 0 0 0 0 0 0 0 0 0 0 0 0 0 0 0 0 0 0 0 0 0 0 0 0 0 0 0 0 0 0 0 0 0 0 0 0 0 0 0 0 0 0 0 0 0 0 0 0 0 0 0 0 0 0 0 0 0 0 0 0 0 0 0 0 0 0 0 0 0 0 0 0 0 0 0 0 0 0 0 0 0 0 0 0 0 0 0 0 0 0 0 0 0 0 0 0 0 0 0 0 0 0 0 0 0 0 0 0 0 0 0 0 0 0 0 0 0 0 0 0 0 0 0 0 0 0 0 0 0 0 0 0 0 0 0 0 0 0 0 0 0 0 0 0 0 0 0 0 0 0 0 0 0 0 0 0 0 0 0 0 0 0 0 0 0 0 0 0 0 0 0 0 0 0 0 0 0 0 0 0 0 0 0 0 0 0 0 0 0 0 0 0 0 0 0 0 0 0 0 0 0 0 0 0 0 0 0 0 0 0 0 0 0 0 0 0 0 0 0 0 0 0 0 0 0 -._ ( ( ( ( 1 1 1 1 1 ( 1 1 ( ( ( 1 1 ^ ^ : } } t ).0 0 0 0 0 0 0 0 0 0 0 0 0 0 0 0 0 0 0 0 0 0 0 0 0 0 0 0 8 j k k k _ k k : : } } t t k 2 b D 0.~ ++++W.N.N.N.N.N.N.N.N.N.N.N.L.L.L.N.N.N.W.W.Z.%+] p _.a -.} _ ' %+++++W.N.L.L.L.L.L.L.U.:+L.N.N.N.W.W.++$+1 : ( D ! Z.++Z.++W.W.W.W.Q.Z.Z.%+$+#+( ( A ' D #+#+d.d.A d.' 6 0 0 0 0 0 0 0 0 0 0 0 0 0 0 0 0 0 0 0 0 0 0 0 0 0 0 ",
"0 0 0 0 0 0 0 0 0 0 0 0 0 0 0 0 0 0 0 0 0 0 0 0 0 0 0 0 0 0 0 0 0 0 0 0 0 0 0 0 0 0 0 0 0 0 0 0 0 0 0 0 0 0 0 0 0 0 0 0 0 0 0 0 0 0 0 0 0 0 0 0 0 0 0 0 0 0 0 0 0 0 0 0 0 0 0 0 0 0 0 0 0 0 0 0 0 0 0 0 0 0 0 0 0 0 0 0 0 0 0 0 0 0 0 0 0 0 0 0 0 0 0 0 0 0 0 0 0 0 0 0 0 0 0 0 0 0 0 0 0 0 0 0 0 0 0 0 0 0 0 0 0 0 0 0 0 0 0 0 0 0 0 0 0 0 0 0 0 0 0 0 0 0 0 0 0 0 0 0 0 0 0 0 0 0 0 0 0 0 0 0 0 0 0 0 0 0 0 0 0 0 0 0 0 0 0 0 0 0 0 0 0 0 0 0 0 0 0 0 0 0 0 0 0 0 0 0 0 0 0 0 0 0 0 0 0 0 0 0 0 0 0 0 0 0 0 0 0 0 0 0 0 0 0 0 0 0 0 0 0 0 0 0 0 0 0 0 0 0 0 0 0 0 0 0 0 0 0 0 0 0 0 0 0 0 0 0 0 0 0 0 0 0 0 0 0 0 0 0 0 0 0 0 0 0 0 0 0 0 0 0 0 0 0 0 0 0 0 0 0 0 0 0 0 0 0 0 -.} _ _ _ 1 _ _ i i i _ i _ _ [ ^ ^ ) : } } t ).0 0 0 0 0 0 0 0 0 0 0 0 0 0 0 0 0 0 0 0 0 0 0 0 0 0 0 0 0 0 7 8 t j j } j t t 8 r 7 7 f J : D 0.0.%+Z.++++++W.W.W.W.W.W.W.W.W.W.W.W.W.[.W.++%+%+' } v ~._.k.6 } 1 A 0.%+Z.W.W.W.W.W.N.N.N.N.W.W.W.W.Z.%+$+A ).8 : 2 A D ! %+%+%+%+%+%+%+#+#+d.' _ 9 } ^ i 1 1 1 1 1 ] A 8 0 0 0 0 0 0 0 0 0 0 0 0 0 0 0 0 0 0 0 0 0 0 0 0 0 0 0 ",
"0 0 0 0 0 0 0 0 0 0 0 0 0 0 0 0 0 0 0 0 0 0 0 0 0 0 0 0 0 0 0 0 0 0 0 0 0 0 0 0 0 0 0 0 0 0 0 0 0 0 0 0 0 0 0 0 0 0 0 0 0 0 0 0 0 0 0 0 0 0 0 0 0 0 0 0 0 0 0 0 0 0 0 0 0 0 0 0 0 0 0 0 0 0 0 0 0 0 0 0 0 0 0 0 0 0 0 0 0 0 0 0 0 0 0 0 0 0 0 0 0 0 0 0 0 0 0 0 0 0 0 0 0 0 0 0 0 0 0 0 0 0 0 0 0 0 0 0 0 0 0 0 0 0 0 0 0 0 0 0 0 0 0 0 0 0 0 0 0 0 0 0 0 0 0 0 0 0 0 0 0 0 0 0 0 0 0 0 0 0 0 0 0 0 0 0 0 0 0 0 0 0 0 0 0 0 0 0 0 0 0 0 0 0 0 0 0 0 0 0 0 0 0 0 0 0 0 0 0 0 0 0 0 0 0 0 0 0 0 0 0 0 0 0 0 0 0 0 0 0 0 0 0 0 0 0 0 0 0 0 0 0 0 0 0 0 0 0 0 0 0 0 0 0 0 0 0 0 0 0 0 0 0 0 0 0 0 0 0 0 0 0 0 0 0 0 0 0 0 0 0 0 0 0 0 0 0 0 0 0 0 0 0 0 0 0 0 0 0 0 0 0 0 0 0 0 0 0 0 (.).} : : _ ^ _ ) _ [ _ ^ ^ ) : : : } t 8 -.0 0 0 0 0 0 0 0 0 0 0 0 0 0 0 0 0 0 0 0 0 0 0 0 0 0 0 0 0 0 0 0 0 -.r 7 J J r r 7 f f d d q q 2 D 0.0.! %+Z.Z.Z.++++Z.++Z.Z.Z.Z.++++Z.Z.Z.%+%+! ' ( p T H q 0 -.n '.1 A D ! %+Z.++Z.Z.Z.++++++++%+%+%+#+d.A : _.0 n } ^ 1 ( ] A d.' d.d.A A A A ( 6 !.8 9 / ) ^ 1 1 1 1 f 0 0 0 0 0 0 0 0 0 0 0 0 0 0 0 0 0 0 0 0 0 0 0 0 0 0 0 0 ",
"0 0 0 0 0 0 0 0 0 0 0 0 0 0 0 0 0 0 0 0 0 0 0 0 0 0 0 0 0 0 0 0 0 0 0 0 0 0 0 0 0 0 0 0 0 0 0 0 0 0 0 0 0 0 0 0 0 0 0 0 0 0 0 0 0 0 0 0 0 0 0 0 0 0 0 0 0 0 0 0 0 0 0 0 0 0 0 0 0 0 0 0 0 0 0 0 0 0 0 0 0 0 0 0 0 0 0 0 0 0 0 0 0 0 0 0 0 0 0 0 0 0 0 0 0 0 0 0 0 0 0 0 0 0 0 0 0 0 0 0 0 0 0 0 0 0 0 0 0 0 0 0 0 0 0 0 0 0 0 0 0 0 0 0 0 0 0 0 0 0 0 0 0 0 0 0 0 0 0 0 0 0 0 0 0 0 0 0 0 0 0 0 0 0 0 0 0 0 0 0 0 0 0 0 0 0 0 0 0 0 0 0 0 0 0 0 0 0 0 0 0 0 0 0 0 0 0 0 0 0 0 0 0 0 0 0 0 0 0 0 0 0 0 0 0 0 0 0 0 0 0 0 0 0 0 0 0 0 0 0 0 0 0 0 0 0 0 0 0 0 0 0 0 0 0 0 0 0 0 0 0 0 0 0 0 0 0 0 0 0 0 0 0 0 0 0 0 0 0 0 0 0 0 0 0 0 0 0 0 0 0 0 0 0 0 0 0 0 0 0 0 0 0 0 0 0 0 0 0 0 0 -.).8 8 t } } : : : : : } } t 8 7 -.0 0 0 0 0 0 0 0 0 0 0 0 0 0 0 0 0 0 0 0 0 0 0 0 0 0 0 0 0 0 0 0 0 0 0 0 0 0 0 d d d q q p p v w H z b D D D ' ' ! ! %+$+$+$+%+%+%+%+%+%+$+! ! D ' A ] } (.0 0 (.e f ).h.} _ ( A ' D ! $+$+%+%+$+$+$+d.d.d.A A ( q q 0 6 h.} } ^ [ i 1 1 1 1 ( ( ] 2 f 6 m 8 } } ) ^ [ : t -.0 0 0 0 0 0 0 0 0 0 0 0 0 0 0 0 0 0 0 0 0 0 0 0 0 0 0 0 0 ",
"0 0 0 0 0 0 0 0 0 0 0 0 0 0 0 0 0 0 0 0 0 0 0 0 0 0 0 0 0 0 0 0 0 0 0 0 0 0 0 0 0 0 0 0 0 0 0 0 0 0 0 0 0 0 0 0 0 0 0 0 0 0 0 0 0 0 0 0 0 0 0 0 0 0 0 0 0 0 0 0 0 0 0 0 0 0 0 0 0 0 0 0 0 0 0 0 0 0 0 0 0 0 0 0 0 0 0 0 0 0 0 0 0 0 0 0 0 0 0 0 0 0 0 0 0 0 0 0 0 0 0 0 0 0 0 0 0 0 0 0 0 0 0 0 0 0 0 0 0 0 0 0 0 0 0 0 0 0 0 0 0 0 0 0 0 0 0 0 0 0 0 0 0 0 0 0 0 0 0 0 0 0 0 0 0 0 0 0 0 0 0 0 0 0 0 0 0 0 0 0 0 0 0 0 0 0 0 0 0 0 0 0 0 0 0 0 0 0 0 0 0 0 0 0 0 0 0 0 0 0 0 0 0 0 0 0 0 0 0 0 0 0 0 0 0 0 0 0 0 0 0 0 0 0 0 0 0 0 0 0 0 0 0 0 0 0 0 0 0 0 0 0 0 0 0 0 0 0 0 0 0 0 0 0 0 0 0 0 0 0 0 0 0 0 0 0 0 0 0 0 0 0 0 0 0 0 0 0 0 0 0 0 0 0 0 0 0 0 0 0 0 0 0 0 0 0 0 0 0 0 0 0 0 0 0 (.f e f f f f f f f (.0 0 0 0 0 0 0 0 0 0 0 0 0 0 0 0 0 0 0 0 0 0 0 0 0 0 0 0 0 0 0 0 0 0 0 0 0 0 0 0 0 0 0 0 0 d ~.~.v H C+B+T f b D D A A A ' d.d.d.d.#+d.d.#+' d.d.A A A A ( ( -.0 0 0 0 f f 7 8 t } ) i ( ( ] A A A A ] ] ] ] ( ] ( ( t ~.q e 6 m t } } ) ) ^ ^ i 1 1 1 1 d q f 6 7 8 t t !.6 0 0 0 0 0 0 0 0 0 0 0 0 0 0 0 0 0 0 0 0 0 0 0 0 0 0 0 0 0 0 0 0 ",
"0 0 0 0 0 0 0 0 0 0 0 0 0 0 0 0 0 0 0 0 0 0 0 0 0 0 0 0 0 0 0 0 0 0 0 0 0 0 0 0 0 0 0 0 0 0 0 0 0 0 0 0 0 0 0 0 0 0 0 0 0 0 0 0 0 0 0 0 0 0 0 0 0 0 0 0 0 0 0 0 0 0 0 0 0 0 0 0 0 0 0 0 0 0 0 0 0 0 0 0 0 0 0 0 0 0 0 0 0 0 0 0 0 0 0 0 0 0 0 0 0 0 0 0 0 0 0 0 0 0 0 0 0 0 0 0 0 0 0 0 0 0 0 0 0 0 0 0 0 0 0 0 0 0 0 0 0 0 0 0 0 0 0 0 0 0 0 0 0 0 0 0 0 0 0 0 0 0 0 0 0 0 0 0 0 0 0 0 0 0 0 0 0 0 0 0 0 0 0 0 0 0 0 0 0 0 0 0 0 0 0 0 0 0 0 0 0 0 0 0 0 0 0 0 0 0 0 0 0 0 0 0 0 0 0 0 0 0 0 0 0 0 0 0 0 0 0 0 0 0 0 0 0 0 0 0 0 0 0 0 0 0 0 0 0 0 0 0 0 0 0 0 0 0 0 0 0 0 0 0 0 0 0 0 0 0 0 0 0 0 0 0 0 0 0 0 0 0 0 0 0 0 0 0 0 0 0 0 0 0 0 0 0 0 0 0 0 0 0 0 0 0 0 0 0 0 0 0 0 0 0 0 0 0 0 0 0 0 0 (.0 (.0 0 0 0 0 0 0 0 0 0 0 0 0 0 0 0 0 0 0 0 0 0 0 0 0 0 0 0 0 0 0 0 0 0 0 0 0 0 0 0 0 0 0 0 0 0 0 0 0 0 0 0 0 0 0 0 0 0 : b b A ( ] ( 1 ] ] ] ] ] ] ( ] ] ( ( ] ( ( 2 } 0 0 0 0 0 0 0 f m t } } ^ [ i i 1 1 1 1 1 1 1 1 1 ( ( t 0 0 0 d f 7 8 t } } : ) ) ^ ) : m -.0 0 0 0 0 0 0 0 0 0 0 0 0 0 0 0 0 0 0 0 0 0 0 0 0 0 0 0 0 0 0 0 0 0 0 0 0 0 0 0 0 0 ",
"0 0 0 0 0 0 0 0 0 0 0 0 0 0 0 0 0 0 0 0 0 0 0 0 0 0 0 0 0 0 0 0 0 0 0 0 0 0 0 0 0 0 0 0 0 0 0 0 0 0 0 0 0 0 0 0 0 0 0 0 0 0 0 0 0 0 0 0 0 0 0 0 0 0 0 0 0 0 0 0 0 0 0 0 0 0 0 0 0 0 0 0 0 0 0 0 0 0 0 0 0 0 0 0 0 0 0 0 0 0 0 0 0 0 0 0 0 0 0 0 0 0 0 0 0 0 0 0 0 0 0 0 0 0 0 0 0 0 0 0 0 0 0 0 0 0 0 0 0 0 0 0 0 0 0 0 0 0 0 0 0 0 0 0 0 0 0 0 0 0 0 0 0 0 0 0 0 0 0 0 0 0 0 0 0 0 0 0 0 0 0 0 0 0 0 0 0 0 0 0 0 0 0 0 0 0 0 0 0 0 0 0 0 0 0 0 0 0 0 0 0 0 0 0 0 0 0 0 0 0 0 0 0 0 0 0 0 0 0 0 0 0 0 0 0 0 0 0 0 0 0 0 0 0 0 0 0 0 0 0 0 0 0 0 0 0 0 0 0 0 0 0 0 0 0 0 0 0 0 0 0 0 0 0 0 0 0 0 0 0 0 0 0 0 0 0 0 0 0 0 0 0 0 0 0 0 0 0 0 0 0 0 0 0 0 0 0 0 0 0 0 0 0 0 0 0 0 0 0 0 0 0 0 0 0 0 0 0 0 0 0 0 0 0 0 0 0 0 0 0 0 0 0 0 0 0 0 0 0 0 0 0 0 0 0 0 0 0 0 0 0 0 0 0 0 0 0 0 0 0 0 0 0 0 0 0 0 0 0 0 0 0 0 0 0 0 0 0 0 0 0 : ( ( ( 1 1 1 1 1 1 1 1 1 ( 1 ( ( 1 ( ( 2 t 0 0 0 0 0 0 0 0 0 0 m t } : ) : ^ [ i 1 _ _ _ i i _ _ 7 0 0 0 0 0 0 0 0 7 7 m 8 8 8 ).).0 0 0 0 0 0 0 0 0 0 0 0 0 0 0 0 0 0 0 0 0 0 0 0 0 0 0 0 0 0 0 0 0 0 0 0 0 0 0 0 0 0 0 0 0 ",
"0 0 0 0 0 0 0 0 0 0 0 0 0 0 0 0 0 0 0 0 0 0 0 0 0 0 0 0 0 0 0 0 0 0 0 0 0 0 0 0 0 0 0 0 0 0 0 0 0 0 0 0 0 0 0 0 0 0 0 0 0 0 0 0 0 0 0 0 0 0 0 0 0 0 0 0 0 0 0 0 0 0 0 0 0 0 0 0 0 0 0 0 0 0 0 0 0 0 0 0 0 0 0 0 0 0 0 0 0 0 0 0 0 0 0 0 0 0 0 0 0 0 0 0 0 0 0 0 0 0 0 0 0 0 0 0 0 0 0 0 0 0 0 0 0 0 0 0 0 0 0 0 0 0 0 0 0 0 0 0 0 0 0 0 0 0 0 0 0 0 0 0 0 0 0 0 0 0 0 0 0 0 0 0 0 0 0 0 0 0 0 0 0 0 0 0 0 0 0 0 0 0 0 0 0 0 0 0 0 0 0 0 0 0 0 0 0 0 0 0 0 0 0 0 0 0 0 0 0 0 0 0 0 0 0 0 0 0 0 0 0 0 0 0 0 0 0 0 0 0 0 0 0 0 0 0 0 0 0 0 0 0 0 0 0 0 0 0 0 0 0 0 0 0 0 0 0 0 0 0 0 0 0 0 0 0 0 0 0 0 0 0 0 0 0 0 0 0 0 0 0 0 0 0 0 0 0 0 0 0 0 0 0 0 0 0 0 0 0 0 0 0 0 0 0 0 0 0 0 0 0 0 0 0 0 0 0 0 0 0 0 0 0 0 0 0 0 0 0 0 0 0 0 0 0 0 0 0 0 0 0 0 0 0 0 0 0 0 0 0 0 0 0 0 0 0 0 0 0 0 0 0 0 0 0 0 0 0 0 0 0 0 0 0 0 0 0 0 0 0 0 0 7 _ _ _ _ _ _ _ 1 2 ( 1 _ _ _ _ 1 2 _ 7 0 0 0 0 0 0 0 0 0 0 0 q 7 8 t } : : ) ) : ) : : : } t -.0 0 0 0 0 0 0 0 0 0 0 0 0 0 0 0 0 0 0 0 0 0 0 0 0 0 0 0 0 0 0 0 0 0 0 0 0 0 0 0 0 0 0 0 0 0 0 0 0 0 0 0 0 0 0 0 0 0 0 0 0 0 ",
"0 0 0 0 0 0 0 0 0 0 0 0 0 0 0 0 0 0 0 0 0 0 0 0 0 0 0 0 0 0 0 0 0 0 0 0 0 0 0 0 0 0 0 0 0 0 0 0 0 0 0 0 0 0 0 0 0 0 0 0 0 0 0 0 0 0 0 0 0 0 0 0 0 0 0 0 0 0 0 0 0 0 0 0 0 0 0 0 0 0 0 0 0 0 0 0 0 0 0 0 0 0 0 0 0 0 0 0 0 0 0 0 0 0 0 0 0 0 0 0 0 0 0 0 0 0 0 0 0 0 0 0 0 0 0 0 0 0 0 0 0 0 0 0 0 0 0 0 0 0 0 0 0 0 0 0 0 0 0 0 0 0 0 0 0 0 0 0 0 0 0 0 0 0 0 0 0 0 0 0 0 0 0 0 0 0 0 0 0 0 0 0 0 0 0 0 0 0 0 0 0 0 0 0 0 0 0 0 0 0 0 0 0 0 0 0 0 0 0 0 0 0 0 0 0 0 0 0 0 0 0 0 0 0 0 0 0 0 0 0 0 0 0 0 0 0 0 0 0 0 0 0 0 0 0 0 0 0 0 0 0 0 0 0 0 0 0 0 0 0 0 0 0 0 0 0 0 0 0 0 0 0 0 0 0 0 0 0 0 0 0 0 0 0 0 0 0 0 0 0 0 0 0 0 0 0 0 0 0 0 0 0 0 0 0 0 0 0 0 0 0 0 0 0 0 0 0 0 0 0 0 0 0 0 0 0 0 0 0 0 0 0 0 0 0 0 0 0 0 0 0 0 0 0 0 0 0 0 0 0 0 0 0 0 0 0 0 0 0 0 0 0 0 0 0 0 0 0 0 0 0 0 0 0 0 0 0 0 0 0 0 0 0 0 0 0 0 0 0 0 0 0 0 ).} : _ ) ^ _ _ _ _ _ _ _ _ _ : 8 e 0 0 0 0 0 0 0 0 0 0 0 0 0 0 0 0 f 7 r m 8 8 m m m 6 -.0 0 0 0 0 0 0 0 0 0 0 0 0 0 0 0 0 0 0 0 0 0 0 0 0 0 0 0 0 0 0 0 0 0 0 0 0 0 0 0 0 0 0 0 0 0 0 0 0 0 0 0 0 0 0 0 0 0 0 0 0 0 0 0 ",
"0 0 0 0 0 0 0 0 0 0 0 0 0 0 0 0 0 0 0 0 0 0 0 0 0 0 0 0 0 0 0 0 0 0 0 0 0 0 0 0 0 0 0 0 0 0 0 0 0 0 0 0 0 0 0 0 0 0 0 0 0 0 0 0 0 0 0 0 0 0 0 0 0 0 0 0 0 0 0 0 0 0 0 0 0 0 0 0 0 0 0 0 0 0 0 0 0 0 0 0 0 0 0 0 0 0 0 0 0 0 0 0 0 0 0 0 0 0 0 0 0 0 0 0 0 0 0 0 0 0 0 0 0 0 0 0 0 0 0 0 0 0 0 0 0 0 0 0 0 0 0 0 0 0 0 0 0 0 0 0 0 0 0 0 0 0 0 0 0 0 0 0 0 0 0 0 0 0 0 0 0 0 0 0 0 0 0 0 0 0 0 0 0 0 0 0 0 0 0 0 0 0 0 0 0 0 0 0 0 0 0 0 0 0 0 0 0 0 0 0 0 0 0 0 0 0 0 0 0 0 0 0 0 0 0 0 0 0 0 0 0 0 0 0 0 0 0 0 0 0 0 0 0 0 0 0 0 0 0 0 0 0 0 0 0 0 0 0 0 0 0 0 0 0 0 0 0 0 0 0 0 0 0 0 0 0 0 0 0 0 0 0 0 0 0 0 0 0 0 0 0 0 0 0 0 0 0 0 0 0 0 0 0 0 0 0 0 0 0 0 0 0 0 0 0 0 0 0 0 0 0 0 0 0 0 0 0 0 0 0 0 0 0 0 0 0 0 0 0 0 0 0 0 0 0 0 0 0 0 0 0 0 0 0 0 0 0 0 0 0 0 0 0 0 0 0 0 0 0 0 0 0 0 0 0 0 0 0 0 0 0 0 0 0 0 0 0 0 0 0 0 0 0 0 0 7 8 t } } : : } } } t t 7 6 0 0 0 0 0 0 0 0 0 0 0 0 0 0 0 0 0 0 0 0 -.-.0 -.0 0 0 0 0 0 0 0 0 0 0 0 0 0 0 0 0 0 0 0 0 0 0 0 0 0 0 0 0 0 0 0 0 0 0 0 0 0 0 0 0 0 0 0 0 0 0 0 0 0 0 0 0 0 0 0 0 0 0 0 0 0 0 0 0 0 0 0 0 ",
"0 0 0 0 0 0 0 0 0 0 0 0 0 0 0 0 0 0 0 0 0 0 0 0 0 0 0 0 0 0 0 0 0 0 0 0 0 0 0 0 0 0 0 0 0 0 0 0 0 0 0 0 0 0 0 0 0 0 0 0 0 0 0 0 0 0 0 0 0 0 0 0 0 0 0 0 0 0 0 0 0 0 0 0 0 0 0 0 0 0 0 0 0 0 0 0 0 0 0 0 0 0 0 0 0 0 0 0 0 0 0 0 0 0 0 0 0 0 0 0 0 0 0 0 0 0 0 0 0 0 0 0 0 0 0 0 0 0 0 0 0 0 0 0 0 0 0 0 0 0 0 0 0 0 0 0 0 0 0 0 0 0 0 0 0 0 0 0 0 0 0 0 0 0 0 0 0 0 0 0 0 0 0 0 0 0 0 0 0 0 0 0 0 0 0 0 0 0 0 0 0 0 0 0 0 0 0 0 0 0 0 0 0 0 0 0 0 0 0 0 0 0 0 0 0 0 0 0 0 0 0 0 0 0 0 0 0 0 0 0 0 0 0 0 0 0 0 0 0 0 0 0 0 0 0 0 0 0 0 0 0 0 0 0 0 0 0 0 0 0 0 0 0 0 0 0 0 0 0 0 0 0 0 0 0 0 0 0 0 0 0 0 0 0 0 0 0 0 0 0 0 0 0 0 0 0 0 0 0 0 0 0 0 0 0 0 0 0 0 0 0 0 0 0 0 0 0 0 0 0 0 0 0 0 0 0 0 0 0 0 0 0 0 0 0 0 0 0 0 0 0 0 0 0 0 0 0 0 0 0 0 0 0 0 0 0 0 0 0 0 0 0 0 0 0 0 0 0 0 0 0 0 0 0 0 0 0 0 0 0 0 0 0 0 0 0 0 0 0 0 0 0 0 0 0 0 0 0 d 0 f f e q d (.d 0 0 0 0 0 0 0 0 0 0 0 0 0 0 0 0 0 0 0 0 0 0 0 0 0 0 0 0 0 0 0 0 0 0 0 0 0 0 0 0 0 0 0 0 0 0 0 0 0 0 0 0 0 0 0 0 0 0 0 0 0 0 0 0 0 0 0 0 0 0 0 0 0 0 0 0 0 0 0 0 0 0 0 0 0 0 0 0 0 0 0 0 0 0 0 ",
"0 0 0 0 0 0 0 0 0 0 0 0 0 0 0 0 0 0 0 0 0 0 0 0 0 0 0 0 0 0 0 0 0 0 0 0 0 0 0 0 0 0 0 0 0 0 0 0 0 0 0 0 0 0 0 0 0 0 0 0 0 0 0 0 0 0 0 0 0 0 0 0 0 0 0 0 0 0 0 0 0 0 0 0 0 0 0 0 0 0 0 0 0 0 0 0 0 0 0 0 0 0 0 0 0 0 0 0 0 0 0 0 0 0 0 0 0 0 0 0 0 0 0 0 0 0 0 0 0 0 0 0 0 0 0 0 0 0 0 0 0 0 0 0 0 0 0 0 0 0 0 0 0 0 0 0 0 0 0 0 0 0 0 0 0 0 0 0 0 0 0 0 0 0 0 0 0 0 0 0 0 0 0 0 0 0 0 0 0 0 0 0 0 0 0 0 0 0 0 0 0 0 0 0 0 0 0 0 0 0 0 0 0 0 0 0 0 0 0 0 0 0 0 0 0 0 0 0 0 0 0 0 0 0 0 0 0 0 0 0 0 0 0 0 0 0 0 0 0 0 0 0 0 0 0 0 0 0 0 0 0 0 0 0 0 0 0 0 0 0 0 0 0 0 0 0 0 0 0 0 0 0 0 0 0 0 0 0 0 0 0 0 0 0 0 0 0 0 0 0 0 0 0 0 0 0 0 0 0 0 0 0 0 0 0 0 0 0 0 0 0 0 0 0 0 0 0 0 0 0 0 0 0 0 0 0 0 0 0 0 0 0 0 0 0 0 0 0 0 0 0 0 0 0 0 0 0 0 0 0 0 0 0 0 0 0 0 0 0 0 0 0 0 0 0 0 0 0 0 0 0 0 0 0 0 0 0 0 0 0 0 0 0 0 0 0 0 0 0 0 0 0 0 0 0 0 0 0 0 0 0 0 0 0 0 0 0 0 0 0 0 0 0 0 0 0 0 0 0 0 0 0 0 0 0 0 0 0 0 0 0 0 0 0 0 0 0 0 0 0 0 0 0 0 0 0 0 0 0 0 0 0 0 0 0 0 0 0 0 0 0 0 0 0 0 0 0 0 0 0 0 0 0 0 0 0 0 0 0 0 0 0 0 0 0 0 0 0 0 0 0 0 0 0 0 0 0 0 0 0 0 0 "};
