/* XPM */
static char * Brick_13_128x128_xpm[] = {
"64 64 2242 2",
"  	c #8B5E0C",
". 	c #AA7A19",
"+ 	c #B98723",
"@ 	c #B98620",
"# 	c #AD791E",
"$ 	c #B3801D",
"% 	c #B17D1B",
"& 	c #AB7816",
"* 	c #A87611",
"= 	c #A26F09",
"- 	c #A5720A",
"; 	c #A8760B",
"> 	c #A06D0B",
", 	c #A6730C",
"' 	c #986506",
") 	c #9B6702",
"! 	c #976402",
"~ 	c #986502",
"{ 	c #935F02",
"] 	c #9B6802",
"^ 	c #986501",
"/ 	c #9E6B00",
"( 	c #A06C00",
"_ 	c #9B6801",
": 	c #956101",
"< 	c #8D5A01",
"[ 	c #925F01",
"} 	c #8D5901",
"| 	c #8E5B01",
"1 	c #976400",
"2 	c #966001",
"3 	c #AA7202",
"4 	c #A77004",
"5 	c #986107",
"6 	c #955F0B",
"7 	c #98640E",
"8 	c #96610C",
"9 	c #97630A",
"0 	c #9B6809",
"a 	c #A36F0D",
"b 	c #AB780F",
"c 	c #B27F17",
"d 	c #AA770F",
"e 	c #AB7715",
"f 	c #B07C19",
"g 	c #AA770E",
"h 	c #A37009",
"i 	c #9C6907",
"j 	c #9A6705",
"k 	c #986505",
"l 	c #996504",
"m 	c #9A6703",
"n 	c #925E04",
"o 	c #9A6704",
"p 	c #986508",
"q 	c #9D6A0B",
"r 	c #9D6A0E",
"s 	c #9D690B",
"t 	c #A17009",
"u 	c #9B6C0B",
"v 	c #966B12",
"w 	c #5A4117",
"x 	c #905F02",
"y 	c #A3750F",
"z 	c #B08417",
"A 	c #B08316",
"B 	c #B08217",
"C 	c #B3851B",
"D 	c #B4871D",
"E 	c #B6891C",
"F 	c #B4871C",
"G 	c #B08315",
"H 	c #AD7F17",
"I 	c #A97C13",
"J 	c #A97C0C",
"K 	c #A4770B",
"L 	c #A77A07",
"M 	c #996C04",
"N 	c #9E7103",
"O 	c #986A03",
"P 	c #9B6E03",
"Q 	c #946604",
"R 	c #9A6D03",
"S 	c #A07401",
"T 	c #9E7102",
"U 	c #A27502",
"V 	c #A17402",
"W 	c #9C6E02",
"X 	c #9B6C03",
"Y 	c #A07004",
"Z 	c #A27208",
"` 	c #A6780A",
" .	c #A4750F",
"..	c #A97B17",
"+.	c #AE8016",
"@.	c #AB7D11",
"#.	c #AB7E0F",
"$.	c #AA7D11",
"%.	c #A97B13",
"&.	c #A97B0D",
"*.	c #AB7E0E",
"=.	c #B48715",
"-.	c #BB8E1C",
";.	c #AE810F",
">.	c #A57806",
",.	c #A07405",
"'.	c #9F7204",
").	c #956605",
"!.	c #956705",
"~.	c #916305",
"{.	c #936505",
"].	c #996B05",
"^.	c #9C6E03",
"/.	c #A37605",
"(.	c #9F7105",
"_.	c #A37607",
":.	c #A37609",
"<.	c #A17607",
"[.	c #99710B",
"}.	c #6C5013",
"|.	c #3B2D15",
"1.	c #976301",
"2.	c #9C6F02",
"3.	c #976D05",
"4.	c #9C710B",
"5.	c #A77C19",
"6.	c #B08523",
"7.	c #AF8421",
"8.	c #A47917",
"9.	c #AB8016",
"0.	c #B98F22",
"a.	c #B08420",
"b.	c #A77C13",
"c.	c #A47A0B",
"d.	c #9F7408",
"e.	c #9B7104",
"f.	c #8C6102",
"g.	c #986D02",
"h.	c #8E6202",
"i.	c #946902",
"j.	c #926702",
"k.	c #966B02",
"l.	c #9C7102",
"m.	c #936802",
"n.	c #946A02",
"o.	c #926703",
"p.	c #976C02",
"q.	c #916503",
"r.	c #986C05",
"s.	c #9F740D",
"t.	c #A27713",
"u.	c #A07510",
"v.	c #A97E1C",
"w.	c #AF841E",
"x.	c #AE8319",
"y.	c #B3891D",
"z.	c #9E7310",
"A.	c #9A6F09",
"B.	c #9C7109",
"C.	c #A57A0E",
"D.	c #AE8417",
"E.	c #B28721",
"F.	c #AA7F15",
"G.	c #A1760A",
"H.	c #9E7409",
"I.	c #A07609",
"J.	c #996E07",
"K.	c #966B04",
"L.	c #885C03",
"M.	c #916602",
"N.	c #906802",
"O.	c #845F01",
"P.	c #5F4A19",
"Q.	c #45381D",
"R.	c #996502",
"S.	c #9F7203",
"T.	c #9E7306",
"U.	c #A3780B",
"V.	c #A87B14",
"W.	c #AF821C",
"X.	c #B3871C",
"Y.	c #AB7F1A",
"Z.	c #A87C12",
"`.	c #AC8016",
" +	c #B38720",
".+	c #A87C14",
"++	c #A2760C",
"@+	c #A37708",
"#+	c #9F7307",
"$+	c #9C7003",
"%+	c #9F7403",
"&+	c #9C7002",
"*+	c #9D7101",
"=+	c #976A02",
"-+	c #996D02",
";+	c #9F7302",
">+	c #9A6E02",
",+	c #9B6F02",
"'+	c #9C7001",
")+	c #9B6F03",
"!+	c #9D7203",
"~+	c #9A6E03",
"{+	c #9F7308",
"]+	c #A37710",
"^+	c #B3871F",
"/+	c #A97D15",
"(+	c #B3861E",
"_+	c #AF821B",
":+	c #B4881C",
"<+	c #B5891D",
"[+	c #A57812",
"}+	c #9E720C",
"|+	c #B58A19",
"1+	c #B98D20",
"2+	c #B78B21",
"3+	c #AF831C",
"4+	c #AB7F11",
"5+	c #A3770A",
"6+	c #A57A0A",
"7+	c #A07408",
"8+	c #9D7102",
"9+	c #976B02",
"0+	c #9F7401",
"a+	c #9A6F02",
"b+	c #956903",
"c+	c #916802",
"d+	c #845F02",
"e+	c #584311",
"f+	c #3D3016",
"g+	c #9A6702",
"h+	c #A37603",
"i+	c #A07508",
"j+	c #9F730D",
"k+	c #AB7F13",
"l+	c #B2861D",
"m+	c #B0831D",
"n+	c #AB7E19",
"o+	c #A47711",
"p+	c #AA7E14",
"q+	c #A87B11",
"r+	c #A2760E",
"s+	c #9C6F09",
"t+	c #9D7009",
"u+	c #A27607",
"v+	c #9F7305",
"w+	c #9E7203",
"x+	c #A07502",
"y+	c #A27602",
"z+	c #9D7103",
"A+	c #946802",
"B+	c #9F7301",
"C+	c #A07301",
"D+	c #9C7004",
"E+	c #986B05",
"F+	c #9F7306",
"G+	c #986C06",
"H+	c #9C7005",
"I+	c #A5790F",
"J+	c #B3871D",
"K+	c #BB8F22",
"L+	c #B98C23",
"M+	c #B58923",
"N+	c #B3861F",
"O+	c #B2861E",
"P+	c #AE8117",
"Q+	c #A87C0F",
"R+	c #B18517",
"S+	c #B78C1F",
"T+	c #AE811C",
"U+	c #AC8017",
"V+	c #AD810E",
"W+	c #AC800E",
"X+	c #9E710C",
"Y+	c #996C06",
"Z+	c #9E7205",
"`+	c #9C6F03",
" @	c #9F7303",
".@	c #9B6E02",
"+@	c #9E7201",
"@@	c #A07402",
"#@	c #9D7002",
"$@	c #956902",
"%@	c #8E6402",
"&@	c #815C02",
"*@	c #56410F",
"=@	c #392C15",
"-@	c #A07304",
";@	c #996E08",
">@	c #9D7107",
",@	c #A87C0B",
"'@	c #AA7E0E",
")@	c #B58919",
"!@	c #AD811A",
"~@	c #AC8019",
"{@	c #AE821B",
"]@	c #A0730C",
"^@	c #A3770D",
"/@	c #A27608",
"(@	c #A27604",
"_@	c #9D7105",
":@	c #9B6F04",
"<@	c #9B6F06",
"[@	c #9E7204",
"}@	c #A17603",
"|@	c #986C03",
"1@	c #996C02",
"2@	c #A17501",
"3@	c #986C02",
"4@	c #946803",
"5@	c #9C6F04",
"6@	c #956805",
"7@	c #9A6D05",
"8@	c #A67A0D",
"9@	c #B18514",
"0@	c #B68A1B",
"a@	c #AE8219",
"b@	c #B0831B",
"c@	c #B5891E",
"d@	c #AF8319",
"e@	c #B68A1E",
"f@	c #B18515",
"g@	c #AA7E12",
"h@	c #A0740D",
"i@	c #A6790F",
"j@	c #AC8010",
"k@	c #A47807",
"l@	c #9E7104",
"m@	c #916702",
"n@	c #7E5902",
"o@	c #554011",
"p@	c #3B2E16",
"q@	c #9C6904",
"r@	c #A47805",
"s@	c #9B7006",
"t@	c #A47808",
"u@	c #A67B0A",
"v@	c #A6790D",
"w@	c #A5790E",
"x@	c #A97D13",
"y@	c #AE821A",
"z@	c #B98D23",
"A@	c #AD801C",
"B@	c #A67A12",
"C@	c #A97C11",
"D@	c #A2760B",
"E@	c #A17505",
"F@	c #A17504",
"G@	c #996C05",
"H@	c #A07404",
"I@	c #9E7202",
"J@	c #926602",
"K@	c #906302",
"L@	c #A37706",
"M@	c #B28615",
"N@	c #A77B11",
"O@	c #A57810",
"P@	c #AA7E15",
"Q@	c #B58920",
"R@	c #BC9020",
"S@	c #BD9120",
"T@	c #B08418",
"U@	c #A3760C",
"V@	c #A3760E",
"W@	c #B08412",
"X@	c #A37707",
"Y@	c #9A6D07",
"Z@	c #986B04",
"`@	c #9D7003",
" #	c #966A02",
".#	c #966902",
"+#	c #956C01",
"@#	c #825D01",
"##	c #594419",
"$#	c #42351C",
"%#	c #A27005",
"&#	c #A27405",
"*#	c #9F7407",
"=#	c #A4780B",
"-#	c #A6790E",
";#	c #A77B0E",
">#	c #9D710A",
",#	c #9F720B",
"'#	c #A2760F",
")#	c #B78B1D",
"!#	c #B68A1D",
"~#	c #AB7F12",
"{#	c #A1750A",
"]#	c #A27605",
"^#	c #A07406",
"/#	c #996D05",
"(#	c #966A04",
"_#	c #936602",
":#	c #906303",
"<#	c #916303",
"[#	c #926502",
"}#	c #9F7202",
"|#	c #9D7201",
"1#	c #A07407",
"2#	c #A77B0A",
"3#	c #A77B0B",
"4#	c #AB7F0E",
"5#	c #A87C0E",
"6#	c #B88C22",
"7#	c #BA8E1E",
"8#	c #C09423",
"9#	c #AE8215",
"0#	c #A97C10",
"a#	c #A97D0D",
"b#	c #A77B0C",
"c#	c #A37705",
"d#	c #9E7106",
"e#	c #986B06",
"f#	c #9D7104",
"g#	c #976A03",
"h#	c #9A6D02",
"i#	c #9B7002",
"j#	c #936902",
"k#	c #835E02",
"l#	c #564013",
"m#	c #3F3219",
"n#	c #9F6C06",
"o#	c #9C6F06",
"p#	c #9A7009",
"q#	c #A87D0F",
"r#	c #A1740F",
"s#	c #A0730B",
"t#	c #A47814",
"u#	c #B0841E",
"v#	c #A37613",
"w#	c #AE8217",
"x#	c #A97D0C",
"y#	c #A67A0B",
"z#	c #A67A09",
"A#	c #A47806",
"B#	c #A27706",
"C#	c #9B6F01",
"D#	c #885A02",
"E#	c #8B5E02",
"F#	c #8F6203",
"G#	c #936603",
"H#	c #8E6003",
"I#	c #8E6102",
"J#	c #946702",
"K#	c #A07403",
"L#	c #956804",
"M#	c #9A6E06",
"N#	c #A97E0E",
"O#	c #AD811D",
"P#	c #BA8E20",
"Q#	c #B88C1C",
"R#	c #BB8F23",
"S#	c #BB8E22",
"T#	c #BC901F",
"U#	c #B38717",
"V#	c #AD8210",
"W#	c #A5790C",
"X#	c #A17508",
"Y#	c #9D7007",
"Z#	c #996D04",
"`#	c #976D02",
" $	c #554014",
".$	c #3E3119",
"+$	c #A16E07",
"@$	c #A27507",
"#$	c #9B700E",
"$$	c #A2750F",
"%$	c #9F720D",
"&$	c #9F730C",
"*$	c #B18518",
"=$	c #B68920",
"-$	c #A97C15",
";$	c #AD8015",
">$	c #AC8013",
",$	c #AB800B",
"'$	c #A67A0A",
")$	c #8D5F02",
"!$	c #895B03",
"~$	c #885A03",
"{$	c #8B5E03",
"]$	c #976B03",
"^$	c #906304",
"/$	c #946703",
"($	c #916402",
"_$	c #9F7201",
":$	c #966907",
"<$	c #A57909",
"[$	c #B08311",
"}$	c #B88C21",
"|$	c #B4871B",
"1$	c #B68A1A",
"2$	c #B98D1C",
"3$	c #B78A20",
"4$	c #B88D1C",
"5$	c #AD8111",
"6$	c #A4780E",
"7$	c #A4780C",
"8$	c #A57908",
"9$	c #9E710B",
"0$	c #A07306",
"a$	c #9A6D04",
"b$	c #9C7103",
"c$	c #996E03",
"d$	c #906603",
"e$	c #805C02",
"f$	c #533E0F",
"g$	c #403318",
"h$	c #A16E09",
"i$	c #A47708",
"j$	c #9F740F",
"k$	c #A87C0C",
"l$	c #A67A0E",
"m$	c #A77B10",
"n$	c #A77A10",
"o$	c #B4881D",
"p$	c #B78B1E",
"q$	c #B98D1F",
"r$	c #BD9121",
"s$	c #B5891A",
"t$	c #BA8E1D",
"u$	c #A57807",
"v$	c #936702",
"w$	c #8D6003",
"x$	c #A17503",
"y$	c #8F6102",
"z$	c #906202",
"A$	c #8C5F03",
"B$	c #986C04",
"C$	c #9D7109",
"D$	c #AF8313",
"E$	c #B88C1B",
"F$	c #B38716",
"G$	c #B28618",
"H$	c #AE811F",
"I$	c #A67914",
"J$	c #A6790B",
"K$	c #A57A07",
"L$	c #A0740A",
"M$	c #A27606",
"N$	c #9A6E04",
"O$	c #916504",
"P$	c #885D03",
"Q$	c #835F02",
"R$	c #594412",
"S$	c #3F3118",
"T$	c #9D6B07",
"U$	c #A17307",
"V$	c #A0750F",
"W$	c #A1750B",
"X$	c #A97D0E",
"Y$	c #B48818",
"Z$	c #B2851C",
"`$	c #B4871E",
" %	c #B68B19",
".%	c #B98C20",
"+%	c #B88C1F",
"@%	c #BE911F",
"#%	c #AD810F",
"$%	c #9E7107",
"%%	c #996D03",
"&%	c #8A5C02",
"*%	c #8F6202",
"=%	c #926603",
"-%	c #A77B0D",
";%	c #B4881A",
">%	c #B08515",
",%	c #AE8216",
"'%	c #A97C1E",
")%	c #9C6F10",
"!%	c #9B6E09",
"~%	c #A77C08",
"{%	c #A77C0B",
"]%	c #A57A09",
"^%	c #A3760B",
"/%	c #A17507",
"(%	c #906604",
"_%	c #825D02",
":%	c #3C2F16",
"<%	c #A27008",
"[%	c #A47709",
"}%	c #9C710D",
"|%	c #9D700B",
"1%	c #AC8014",
"2%	c #B5891F",
"3%	c #AA7D16",
"4%	c #A67B11",
"5%	c #B08415",
"6%	c #B58918",
"7%	c #AB7E13",
"8%	c #AA7E13",
"9%	c #B68A1C",
"0%	c #AB7E14",
"a%	c #A2750E",
"b%	c #A3770C",
"c%	c #8D5F04",
"d%	c #966A03",
"e%	c #A57907",
"f%	c #A87D09",
"g%	c #A5790D",
"h%	c #B48918",
"i%	c #B4881B",
"j%	c #A87B18",
"k%	c #9E710E",
"l%	c #9F7405",
"m%	c #AA7E0D",
"n%	c #A77C09",
"o%	c #AA7F0D",
"p%	c #A07409",
"q%	c #936903",
"r%	c #866202",
"s%	c #594312",
"t%	c #3C2F15",
"u%	c #A67408",
"v%	c #9F740A",
"w%	c #AF8316",
"x%	c #B38718",
"y%	c #AC8011",
"z%	c #A97C14",
"A%	c #B18519",
"B%	c #AD8012",
"C%	c #AC801A",
"D%	c #AA7D21",
"E%	c #A2760D",
"F%	c #A17506",
"G%	c #9F7402",
"H%	c #956806",
"I%	c #946704",
"J%	c #A07505",
"K%	c #A27709",
"L%	c #A5780B",
"M%	c #BA8E21",
"N%	c #B5891C",
"O%	c #B5891B",
"P%	c #A87B0C",
"Q%	c #946B02",
"R%	c #886302",
"S%	c #5B4614",
"T%	c #3A2D13",
"U%	c #A37608",
"V%	c #976C07",
"W%	c #A37610",
"X%	c #AD8016",
"Y%	c #B78B1A",
"Z%	c #BB8E21",
"`%	c #B28616",
" &	c #B58917",
".&	c #B78B1F",
"+&	c #AE8124",
"@&	c #AE8120",
"#&	c #B3871E",
"$&	c #9D700D",
"%&	c #9B6F0A",
"&&	c #A17408",
"*&	c #A27505",
"=&	c #9D7005",
"-&	c #A07503",
";&	c #9D7204",
">&	c #9F7304",
",&	c #8C5F05",
"'&	c #956803",
")&	c #A47809",
"!&	c #B78B20",
"~&	c #AE8119",
"{&	c #A77A17",
"]&	c #AA7E18",
"^&	c #A0740B",
"/&	c #A37807",
"(&	c #9A6D0A",
"_&	c #9F730A",
":&	c #926902",
"<&	c #856103",
"[&	c #584310",
"}&	c #392C13",
"|&	c #A4720A",
"1&	c #A77B08",
"2&	c #9A6F06",
"3&	c #A37810",
"4&	c #B0851C",
"5&	c #BC9021",
"6&	c #AD8116",
"7&	c #B48720",
"8&	c #B68A20",
"9&	c #B2861B",
"0&	c #A97D17",
"a&	c #986C09",
"b&	c #9B6F08",
"c&	c #9E7302",
"d&	c #9E7301",
"e&	c #936605",
"f&	c #A17602",
"g&	c #A4780A",
"h&	c #B2861C",
"i&	c #B88B1B",
"j&	c #A97D14",
"k&	c #986B0A",
"l&	c #966A05",
"m&	c #A3760A",
"n&	c #9C7008",
"o&	c #825E03",
"p&	c #5C4718",
"q&	c #41341B",
"r&	c #A9760F",
"s&	c #9B7007",
"t&	c #AA7E0F",
"u&	c #BA8F1C",
"v&	c #BA8E1F",
"w&	c #B18416",
"x&	c #A77A14",
"y&	c #A97C18",
"z&	c #B58A1A",
"A&	c #B78B19",
"B&	c #A37611",
"C&	c #A2760A",
"D&	c #A37709",
"E&	c #9C7006",
"F&	c #9C6F05",
"G&	c #A17604",
"H&	c #A37806",
"I&	c #A67B0B",
"J&	c #B3871B",
"K&	c #AD8117",
"L&	c #B38715",
"M&	c #AF8217",
"N&	c #B6891E",
"O&	c #AE8116",
"P&	c #9E7206",
"Q&	c #AE830F",
"R&	c #AE8212",
"S&	c #AB7F0F",
"T&	c #9B6F05",
"U&	c #926803",
"V&	c #856003",
"W&	c #594411",
"X&	c #A5720E",
"Y&	c #A77A0B",
"Z&	c #9D7306",
"`&	c #A87C0D",
" *	c #AF8315",
".*	c #B1851B",
"+*	c #A77A13",
"@*	c #BB8F1D",
"#*	c #BF9322",
"$*	c #A2750C",
"%*	c #9F7206",
"&*	c #9B6E05",
"**	c #976B05",
"=*	c #9A6D01",
"-*	c #9D7202",
";*	c #926503",
">*	c #966904",
",*	c #9B6E04",
"'*	c #9D7106",
")*	c #AD8112",
"!*	c #B28520",
"~*	c #BD9222",
"{*	c #B38618",
"]*	c #B38722",
"^*	c #A27610",
"/*	c #A1740E",
"(*	c #9F7207",
"_*	c #A67909",
":*	c #A6790A",
"<*	c #A5780D",
"[*	c #9C7009",
"}*	c #976D06",
"|*	c #846004",
"1*	c #55400E",
"2*	c #392C12",
"3*	c #A3700F",
"4*	c #A77A0A",
"5*	c #956A08",
"6*	c #A97D0F",
"7*	c #AE8218",
"8*	c #B78B1C",
"9*	c #B6891D",
"0*	c #AC8015",
"a*	c #AC7F1D",
"b*	c #A17318",
"c*	c #966909",
"d*	c #926505",
"e*	c #976A05",
"f*	c #976A01",
"g*	c #A17502",
"h*	c #9F7208",
"i*	c #9B6E0E",
"j*	c #9A6D11",
"k*	c #A77B12",
"l*	c #AE811D",
"m*	c #B48820",
"n*	c #AC801C",
"o*	c #AD801E",
"p*	c #AF821E",
"q*	c #B1841F",
"r*	c #9F720F",
"s*	c #986B0E",
"t*	c #9A6D0B",
"u*	c #A3770B",
"v*	c #A77A11",
"w*	c #A2750D",
"x*	c #A1750D",
"y*	c #A27609",
"z*	c #996F06",
"A*	c #805B04",
"B*	c #5B4618",
"C*	c #45381E",
"D*	c #9F6C0A",
"E*	c #A4770A",
"F*	c #A1770A",
"G*	c #AB7E16",
"H*	c #A17415",
"I*	c #9C6F17",
"J*	c #92650B",
"K*	c #966905",
"L*	c #9D7008",
"M*	c #946705",
"N*	c #956802",
"O*	c #9A6D09",
"P*	c #95680A",
"Q*	c #976A0B",
"R*	c #9C6F0D",
"S*	c #A37616",
"T*	c #AA7D1E",
"U*	c #AF811E",
"V*	c #A87B20",
"W*	c #AC7F1B",
"X*	c #A5781C",
"Y*	c #A6791A",
"Z*	c #A0740C",
"`*	c #A3760D",
" =	c #AD8110",
".=	c #A87C10",
"+=	c #A67913",
"@=	c #9E7108",
"#=	c #A37809",
"$=	c #9A7106",
"%=	c #845F05",
"&=	c #5A4514",
"*=	c #44371C",
"==	c #A5720F",
"-=	c #A87E10",
";=	c #BD921F",
">=	c #B78C1A",
",=	c #B18516",
"'=	c #AA7C1F",
")=	c #AA7C22",
"!=	c #A6781F",
"~=	c #A77921",
"{=	c #A07218",
"]=	c #97690C",
"^=	c #946708",
"/=	c #976A07",
"(=	c #9B6E08",
"_=	c #906306",
":=	c #916403",
"<=	c #9C6F0B",
"[=	c #9D700E",
"}=	c #A57910",
"|=	c #A87A20",
"1=	c #AA7D20",
"2=	c #B28619",
"3=	c #AA7D14",
"4=	c #9F7313",
"5=	c #A4770E",
"6=	c #9C6F0E",
"7=	c #A47810",
"8=	c #B2851D",
"9=	c #B68B1B",
"0=	c #BB901E",
"a=	c #A87C13",
"b=	c #A2750B",
"c=	c #9D7108",
"d=	c #A0760D",
"e=	c #896407",
"f=	c #43361C",
"g=	c #B17F17",
"h=	c #A67C10",
"i=	c #AF8317",
"j=	c #AE8214",
"k=	c #B4871A",
"l=	c #97690F",
"m=	c #A07314",
"n=	c #A5781A",
"o=	c #A77A22",
"p=	c #9E7014",
"q=	c #A1741A",
"r=	c #A97C23",
"s=	c #A0731B",
"t=	c #91640A",
"u=	c #8F6106",
"v=	c #906204",
"w=	c #8B5D05",
"x=	c #936604",
"y=	c #8E6103",
"z=	c #8B5E04",
"A=	c #906402",
"B=	c #8B5D02",
"C=	c #986B02",
"D=	c #AA7D10",
"E=	c #AB7E21",
"F=	c #9C6E14",
"G=	c #A4771C",
"H=	c #AE8118",
"I=	c #9A6E09",
"J=	c #AA7E11",
"K=	c #B48917",
"L=	c #B38818",
"M=	c #BC8F1F",
"N=	c #A77B13",
"O=	c #A67B08",
"P=	c #A97C0E",
"Q=	c #A3780C",
"R=	c #A47B0E",
"S=	c #8B670A",
"T=	c #413519",
"U=	c #B68420",
"V=	c #A77A15",
"W=	c #A2770F",
"X=	c #AE8312",
"Y=	c #AD8013",
"Z=	c #966908",
"`=	c #96690B",
" -	c #9C6F14",
".-	c #9E7117",
"+-	c #996C13",
"@-	c #A67915",
"#-	c #9C6E16",
"$-	c #976A10",
"%-	c #8D5F08",
"&-	c #916406",
"*-	c #8D6004",
"=-	c #8A5D02",
"--	c #895B02",
";-	c #8C5F02",
">-	c #936703",
",-	c #A27603",
"'-	c #A47909",
")-	c #AC7F1F",
"!-	c #9B6D13",
"~-	c #9F7117",
"{-	c #A2751B",
"]-	c #996C0E",
"^-	c #A5790A",
"/-	c #A97D11",
"(-	c #B18512",
"_-	c #B48714",
":-	c #BB8F1E",
"<-	c #A67D11",
"[-	c #8A650E",
"}-	c #543F0E",
"|-	c #B27F1A",
"1-	c #A4760F",
"2-	c #9E730E",
"3-	c #A67A0C",
"4-	c #976B06",
"5-	c #8D6008",
"6-	c #A67A13",
"7-	c #96690D",
"8-	c #93650B",
"9-	c #936507",
"0-	c #8E6105",
"a-	c #8A5D03",
"b-	c #8C5E02",
"c-	c #895C02",
"d-	c #8D6002",
"e-	c #8E6002",
"f-	c #A47905",
"g-	c #B0831F",
"h-	c #AC7F21",
"i-	c #986A14",
"j-	c #9B6E18",
"k-	c #A4771E",
"l-	c #9D7014",
"m-	c #9E7109",
"n-	c #A97D0B",
"o-	c #AB7F0C",
"p-	c #B18513",
"q-	c #AB7E11",
"r-	c #AE8213",
"s-	c #A5780A",
"t-	c #A47907",
"u-	c #9F760D",
"v-	c #906B12",
"w-	c #513B08",
"x-	c #2D2008",
"y-	c #AD7A14",
"z-	c #A87B0E",
"A-	c #A3770E",
"B-	c #A17509",
"C-	c #986C08",
"D-	c #A17410",
"E-	c #B3871A",
"F-	c #A67A10",
"G-	c #966A09",
"H-	c #916405",
"I-	c #936704",
"J-	c #A07504",
"K-	c #B1851C",
"L-	c #A5771B",
"M-	c #A17319",
"N-	c #A17412",
"O-	c #986A0B",
"P-	c #A57A0B",
"Q-	c #AF8213",
"R-	c #A47710",
"S-	c #AC7F18",
"T-	c #A97D10",
"U-	c #A47906",
"V-	c #A37808",
"W-	c #9B720B",
"X-	c #89650E",
"Y-	c #513C09",
"Z-	c #2E2107",
"`-	c #A37011",
" ;	c #A4780F",
".;	c #A27506",
"+;	c #A87C0A",
"@;	c #9F720C",
"#;	c #AB7F15",
"$;	c #A1750E",
"%;	c #996C08",
"&;	c #8B5D04",
"*;	c #976B04",
"=;	c #8F6103",
"-;	c #8E6108",
";;	c #A67910",
">;	c #B28617",
",;	c #B1841C",
"';	c #B98D1D",
");	c #A37614",
"!;	c #AA7F0E",
"~;	c #A77A12",
"{;	c #A77A0D",
"];	c #9A7108",
"^;	c #866108",
"/;	c #533E08",
"(;	c #2E2207",
"_;	c #A16E0E",
":;	c #A6780D",
"<;	c #936608",
"[;	c #976A09",
"};	c #8C5E03",
"|;	c #895C03",
"1;	c #875A02",
"2;	c #8C5E04",
"3;	c #916404",
"4;	c #9D7001",
"5;	c #9A6E05",
"6;	c #A07307",
"7;	c #A67B0C",
"8;	c #B08413",
"9;	c #B08414",
"0;	c #AB7F16",
"a;	c #B1851E",
"b;	c #AA7E0B",
"c;	c #A77B09",
"d;	c #9C6F0A",
"e;	c #A1740B",
"f;	c #A77C0C",
"g;	c #8A650B",
"h;	c #503A07",
"i;	c #2D1F06",
"j;	c #A87514",
"k;	c #AE8112",
"l;	c #9D720E",
"m;	c #A27708",
"n;	c #976A08",
"o;	c #946804",
"p;	c #946904",
"q;	c #916505",
"r;	c #8C6004",
"s;	c #8F6303",
"t;	c #976C04",
"u;	c #9A6E01",
"v;	c #9A6F04",
"w;	c #9B7005",
"x;	c #A3780A",
"y;	c #BC9121",
"z;	c #AB7F10",
"A;	c #A67A11",
"B;	c #B98E1E",
"C;	c #B4881E",
"D;	c #AB7F18",
"E;	c #AA7E17",
"F;	c #A87C16",
"G;	c #AF8415",
"H;	c #AA7E10",
"I;	c #A87D14",
"J;	c #966C10",
"K;	c #84600B",
"L;	c #4F3A06",
"M;	c #2C1F05",
"N;	c #B1801C",
"O;	c #B2871B",
"P;	c #9C7315",
"Q;	c #9C730C",
"R;	c #946A08",
"S;	c #8D6303",
"T;	c #8D6304",
"U;	c #8D6302",
"V;	c #916803",
"W;	c #956B07",
"X;	c #9E740D",
"Y;	c #9D7409",
"Z;	c #A1780D",
"`;	c #A07711",
" >	c #A87F16",
".>	c #A27916",
"+>	c #9B7208",
"@>	c #987005",
"#>	c #8E6503",
"$>	c #936A02",
"%>	c #936A03",
"&>	c #926905",
"*>	c #8E6406",
"=>	c #906704",
"->	c #916703",
";>	c #926901",
">>	c #8C6202",
",>	c #8F6602",
"'>	c #956C02",
")>	c #956C03",
"!>	c #956C04",
"~>	c #986E03",
"{>	c #966D04",
"]>	c #966C05",
"^>	c #946B06",
"/>	c #9E750C",
"(>	c #A57B15",
"_>	c #B1871E",
":>	c #AE851B",
"<>	c #A97F16",
"[>	c #A37912",
"}>	c #9E7413",
"|>	c #9C7212",
"1>	c #A57C12",
"2>	c #AC831B",
"3>	c #A98018",
"4>	c #A87E19",
"5>	c #AE851F",
"6>	c #AE851C",
"7>	c #AE8520",
"8>	c #AB8218",
"9>	c #A57C11",
"0>	c #A37A15",
"a>	c #9D7317",
"b>	c #97701A",
"c>	c #876412",
"d>	c #4F3B0A",
"e>	c #2C1F07",
"f>	c #A3741B",
"g>	c #A17917",
"h>	c #87620B",
"i>	c #866206",
"j>	c #856106",
"k>	c #7E5903",
"l>	c #7D5803",
"m>	c #805B03",
"n>	c #7D5804",
"o>	c #805B06",
"p>	c #86610A",
"q>	c #886408",
"r>	c #89640D",
"s>	c #977215",
"t>	c #936E15",
"u>	c #8A650C",
"v>	c #876307",
"w>	c #866109",
"x>	c #825E06",
"y>	c #7F5B03",
"z>	c #815D01",
"A>	c #7D5802",
"B>	c #7C5703",
"C>	c #7E5A05",
"D>	c #815C08",
"E>	c #866209",
"F>	c #846005",
"G>	c #7F5A04",
"H>	c #775202",
"I>	c #846003",
"J>	c #835F03",
"K>	c #866106",
"L>	c #8A660D",
"M>	c #936E14",
"N>	c #957118",
"O>	c #9A761D",
"P>	c #9B771D",
"Q>	c #916C17",
"R>	c #896413",
"S>	c #896414",
"T>	c #98741A",
"U>	c #A17D21",
"V>	c #977316",
"W>	c #977317",
"X>	c #9E7A1D",
"Y>	c #9A7619",
"Z>	c #99751F",
"`>	c #936F12",
" ,	c #906B16",
".,	c #8B670F",
"+,	c #886513",
"@,	c #7C5D12",
"#,	c #483509",
"$,	c #291D05",
"%,	c #966A1A",
"&,	c #715612",
"*,	c #5B4610",
"=,	c #584314",
"-,	c #594516",
";,	c #544012",
">,	c #523E10",
",,	c #513C0D",
"',	c #4F3A0B",
"),	c #4A3606",
"!,	c #4B3603",
"~,	c #493403",
"{,	c #4B3602",
"],	c #4A3602",
"^,	c #493402",
"/,	c #493502",
"(,	c #4A3503",
"_,	c #463102",
":,	c #473202",
"<,	c #432E02",
"[,	c #463103",
"},	c #473303",
"|,	c #463201",
"1,	c #483303",
"2,	c #4A3502",
"3,	c #4B3505",
"4,	c #4B3506",
"5,	c #4E3A0A",
"6,	c #533E0C",
"7,	c #55400D",
"8,	c #56410E",
"9,	c #513C0E",
"0,	c #533E13",
"a,	c #584318",
"b,	c #604B21",
"c,	c #614C1E",
"d,	c #624D1F",
"e,	c #644F1E",
"f,	c #634E1D",
"g,	c #5D4815",
"h,	c #5B4613",
"i,	c #5B4713",
"j,	c #5C4815",
"k,	c #564113",
"l,	c #5D4919",
"m,	c #5A4717",
"n,	c #564212",
"o,	c #584518",
"p,	c #56451A",
"q,	c #413415",
"r,	c #271A05",
"s,	c #624613",
"t,	c #413012",
"u,	c #413113",
"v,	c #453518",
"w,	c #46371B",
"x,	c #403116",
"y,	c #3D2E12",
"z,	c #36260E",
"A,	c #37270E",
"B,	c #36260A",
"C,	c #342404",
"D,	c #2F1F01",
"E,	c #312101",
"F,	c #312102",
"G,	c #2F1F02",
"H,	c #2E1E02",
"I,	c #2B1B02",
"J,	c #2A1A01",
"K,	c #2D1D01",
"L,	c #302001",
"M,	c #2C1C01",
"N,	c #291901",
"O,	c #261601",
"P,	c #291900",
"Q,	c #2C1D00",
"R,	c #2E1E00",
"S,	c #2B1B00",
"T,	c #2B1C02",
"U,	c #271A03",
"V,	c #2B1D04",
"W,	c #2D1E02",
"X,	c #312103",
"Y,	c #302003",
"Z,	c #342406",
"`,	c #342407",
" '	c #37280B",
".'	c #38280B",
"+'	c #3A2A0E",
"@'	c #392A0E",
"#'	c #342507",
"$'	c #37280C",
"%'	c #3B2B13",
"&'	c #41331A",
"*'	c #44351B",
"='	c #43341A",
"-'	c #46371E",
";'	c #433419",
">'	c #3C2C10",
",'	c #3C2C12",
"''	c #3B2C12",
")'	c #3D2E14",
"!'	c #403018",
"~'	c #43341B",
"{'	c #44351A",
"]'	c #3C2D13",
"^'	c #44351C",
"/'	c #40321A",
"('	c #352711",
"_'	c #A9720B",
":'	c #A7700B",
"<'	c #AF7A0F",
"['	c #AD7914",
"}'	c #AD7B14",
"|'	c #A6730F",
"1'	c #A26F11",
"2'	c #9D6A0A",
"3'	c #A26F0E",
"4'	c #A97617",
"5'	c #A8761B",
"6'	c #A77511",
"7'	c #A77415",
"8'	c #B2801C",
"9'	c #A67314",
"0'	c #966307",
"a'	c #8A5702",
"b'	c #915E02",
"c'	c #946201",
"d'	c #905D01",
"e'	c #895601",
"f'	c #835001",
"g'	c #8C5901",
"h'	c #936001",
"i'	c #946401",
"j'	c #8E5F02",
"k'	c #7E5302",
"l'	c #462B05",
"m'	c #774B04",
"n'	c #916108",
"o'	c #A27109",
"p'	c #A06E08",
"q'	c #A6730E",
"r'	c #AE7C13",
"s'	c #B7851E",
"t'	c #AB7911",
"u'	c #AE7C18",
"v'	c #AA7917",
"w'	c #A4720C",
"x'	c #A27007",
"y'	c #A16F07",
"z'	c #9D6A09",
"A'	c #9F6D0A",
"B'	c #9F6D0F",
"C'	c #9D6A13",
"D'	c #986416",
"E'	c #9D6A14",
"F'	c #9F6B17",
"G'	c #9D6A1C",
"H'	c #A7741F",
"I'	c #AA771A",
"J'	c #9E6B13",
"K'	c #9A6808",
"L'	c #A06D0D",
"M'	c #A06E0B",
"N'	c #A77510",
"O'	c #A4730A",
"P'	c #A37008",
"Q'	c #A97A23",
"R'	c #B48516",
"S'	c #B08213",
"T'	c #A97B0F",
"U'	c #AC7E0E",
"V'	c #A77A0C",
"W'	c #AA7D0C",
"X'	c #A77A09",
"Y'	c #9D6F0E",
"Z'	c #9F700F",
"`'	c #9E700D",
" )	c #9C6E09",
".)	c #966804",
"+)	c #8C5D03",
"@)	c #936502",
"#)	c #8F6002",
"$)	c #8C5D02",
"%)	c #996B02",
"&)	c #8D5E04",
"*)	c #8C5D04",
"=)	c #926404",
"-)	c #936405",
";)	c #8D6503",
">)	c #624505",
",)	c #311F05",
"')	c #885602",
"))	c #9F7205",
"!)	c #B28614",
"~)	c #AC7F0F",
"{)	c #B28513",
"])	c #AE810D",
"^)	c #AC7F10",
"/)	c #A87B10",
"()	c #9B6C12",
"_)	c #9D6E16",
":)	c #9C6D13",
"<)	c #A47618",
"[)	c #A1721B",
"})	c #9E6F18",
"|)	c #A47517",
"1)	c #B08317",
"2)	c #9F710F",
"3)	c #97680D",
"4)	c #92640B",
"5)	c #96670B",
"6)	c #AA7D0E",
"7)	c #AE820E",
"8)	c #AD7F10",
"9)	c #B28414",
"0)	c #B48A1C",
"a)	c #B98E22",
"b)	c #A57919",
"c)	c #94680B",
"d)	c #A0750D",
"e)	c #9E740B",
"f)	c #A37812",
"g)	c #AD8215",
"h)	c #A67B15",
"i)	c #996E0C",
"j)	c #93670A",
"k)	c #9C7105",
"l)	c #996F04",
"m)	c #966B05",
"n)	c #9A6F03",
"o)	c #8F6302",
"p)	c #875C02",
"q)	c #845802",
"r)	c #845702",
"s)	c #835702",
"t)	c #865A03",
"u)	c #875B04",
"v)	c #875B06",
"w)	c #895C07",
"x)	c #895D06",
"y)	c #916606",
"z)	c #946A05",
"A)	c #916903",
"B)	c #7E5A03",
"C)	c #4D3707",
"D)	c #372609",
"E)	c #956202",
"F)	c #906602",
"G)	c #956A03",
"H)	c #996E04",
"I)	c #A0750C",
"J)	c #9C7112",
"K)	c #956A13",
"L)	c #976B17",
"M)	c #A87C20",
"N)	c #9B6F15",
"O)	c #A87D1E",
"P)	c #A17620",
"Q)	c #9F731F",
"R)	c #946815",
"S)	c #91640E",
"T)	c #8F640E",
"U)	c #9B6F14",
"V)	c #92660E",
"W)	c #9E7313",
"X)	c #A47A0E",
"Y)	c #A3780D",
"Z)	c #A1760B",
"`)	c #A4790F",
" !	c #AB8014",
".!	c #B1861D",
"+!	c #AB7F1C",
"@!	c #AB7E20",
"#!	c #A6791E",
"$!	c #A17418",
"%!	c #A37618",
"&!	c #986B11",
"*!	c #A77B19",
"=!	c #BC911F",
"-!	c #906309",
";!	c #8C5F06",
">!	c #906305",
",!	c #936A01",
"'!	c #503A0A",
")!	c #3C2C0D",
"!!	c #996602",
"~!	c #9E7207",
"{!	c #9A6E08",
"]!	c #9E720B",
"^!	c #A67A0F",
"/!	c #986B0D",
"(!	c #9A6D12",
"_!	c #A1741B",
":!	c #B38623",
"<!	c #AB7E1C",
"[!	c #A77A1F",
"}!	c #A3761E",
"|!	c #966810",
"1!	c #966811",
"2!	c #A57816",
"3!	c #A97D16",
"4!	c #AA7F0F",
"5!	c #AB800E",
"6!	c #B08513",
"7!	c #AD8010",
"8!	c #A47714",
"9!	c #BB8F1C",
"0!	c #B48819",
"a!	c #996C0D",
"b!	c #936607",
"c!	c #916302",
"d!	c #8E6104",
"e!	c #775203",
"f!	c #513D14",
"g!	c #433217",
"h!	c #9A6801",
"i!	c #996C03",
"j!	c #936804",
"k!	c #BB8F20",
"l!	c #996B14",
"m!	c #A47715",
"n!	c #AC7F1E",
"o!	c #C09424",
"p!	c #B48721",
"q!	c #B1841E",
"r!	c #A67917",
"s!	c #AF8220",
"t!	c #9B6D15",
"u!	c #A07316",
"v!	c #B28622",
"w!	c #AC8018",
"x!	c #9F7212",
"y!	c #A17413",
"z!	c #B88C1E",
"A!	c #AD820E",
"B!	c #9E710F",
"C!	c #AA7E16",
"D!	c #A67A17",
"E!	c #9F7213",
"F!	c #A47713",
"G!	c #B1851A",
"H!	c #A37718",
"I!	c #94670A",
"J!	c #7F5A03",
"K!	c #564114",
"L!	c #9A6901",
"M!	c #956906",
"N!	c #B3861D",
"O!	c #A97C16",
"P!	c #B98D1E",
"Q!	c #9C6E13",
"R!	c #BE9221",
"S!	c #AB7E17",
"T!	c #A97C1A",
"U!	c #A7791D",
"V!	c #AB7E1E",
"W!	c #A0721A",
"X!	c #A07319",
"Y!	c #9C6F12",
"Z!	c #996B13",
"`!	c #9C6E18",
" ~	c #AE811E",
".~	c #AB7F14",
"+~	c #B4881F",
"@~	c #9C7007",
"#~	c #A07501",
"$~	c #936706",
"%~	c #976E01",
"&~	c #835E03",
"*~	c #5A4515",
"=~	c #443415",
"-~	c #9B7009",
";~	c #B98E1C",
">~	c #B1851D",
",~	c #BB8E20",
"'~	c #B48817",
")~	c #9E7113",
"!~	c #9E7112",
"~~	c #A07315",
"{~	c #A87C1F",
"]~	c #A87B1B",
"^~	c #A87B1E",
"/~	c #A4771B",
"(~	c #A37606",
"_~	c #A5790B",
":~	c #AA7D13",
"<~	c #AD811C",
"[~	c #BE921F",
"}~	c #B88C20",
"|~	c #B1841A",
"1~	c #946B01",
"2~	c #845F04",
"3~	c #5A4414",
"4~	c #976502",
"5~	c #9D6F07",
"6~	c #976B0A",
"7~	c #9F7309",
"8~	c #A0730E",
"9~	c #AC8012",
"0~	c #A87D0A",
"a~	c #B48717",
"b~	c #A27513",
"c~	c #A07312",
"d~	c #AD8021",
"e~	c #A37714",
"f~	c #A87B17",
"g~	c #AE811B",
"h~	c #B78A1D",
"i~	c #8A5C03",
"j~	c #966C02",
"k~	c #533D0E",
"l~	c #3B2B0D",
"m~	c #976601",
"n~	c #956A05",
"o~	c #9E7209",
"p~	c #A1740D",
"q~	c #A97E0D",
"r~	c #A6790C",
"s~	c #A6791D",
"t~	c #AB7E1D",
"u~	c #AF831F",
"v~	c #A87B1D",
"w~	c #B98E1F",
"x~	c #BA8E24",
"y~	c #B08221",
"z~	c #AF821A",
"A~	c #A87D0D",
"B~	c #AD8118",
"C~	c #AE821C",
"D~	c #B3861A",
"E~	c #4D3708",
"F~	c #39280A",
"G~	c #926604",
"H~	c #AA7E0A",
"I~	c #A4770D",
"J~	c #A97B22",
"K~	c #AB7D22",
"L~	c #B28522",
"M~	c #AF8212",
"N~	c #AE8311",
"O~	c #AD8114",
"P~	c #B68A1F",
"Q~	c #AB7E18",
"R~	c #BF9320",
"S~	c #BC901D",
"T~	c #AE811A",
"U~	c #A6791C",
"V~	c #A57917",
"W~	c #A67A18",
"X~	c #A57A06",
"Y~	c #9B6E01",
"Z~	c #A17404",
"`~	c #8F6205",
" {	c #8B6102",
".{	c #7A5502",
"+{	c #4C3706",
"@{	c #372707",
"#{	c #996701",
"${	c #946903",
"%{	c #996D08",
"&{	c #A4780D",
"*{	c #9B6D14",
"={	c #9E7115",
"-{	c #B68922",
";{	c #A97C1C",
">{	c #BB8F1B",
",{	c #B88B1E",
"'{	c #B88D1A",
"){	c #9C700B",
"!{	c #9D700A",
"~{	c #96690A",
"{{	c #956907",
"]{	c #8F6105",
"^{	c #795402",
"/{	c #4A3403",
"({	c #322103",
"_{	c #A37805",
":{	c #AC7F13",
"<{	c #AE8210",
"[{	c #B08416",
"}{	c #AB800D",
"|{	c #A77B0F",
"1{	c #B98D19",
"2{	c #A7791C",
"3{	c #996C12",
"4{	c #9E710A",
"5{	c #A37703",
"6{	c #875903",
"7{	c #8D5F03",
"8{	c #815C01",
"9{	c #4D3703",
"0{	c #322003",
"a{	c #966301",
"b{	c #9E7403",
"c{	c #A87C11",
"d{	c #AB7F0D",
"e{	c #AF830F",
"f{	c #A57A08",
"g{	c #AC800F",
"h{	c #A87B19",
"i{	c #AB7E15",
"j{	c #9B6E13",
"k{	c #A17510",
"l{	c #936508",
"m{	c #9A6D08",
"n{	c #A27702",
"o{	c #875A04",
"p{	c #8E6106",
"q{	c #916307",
"r{	c #A57905",
"s{	c #7E5A02",
"t{	c #4A3401",
"u{	c #322101",
"v{	c #996E01",
"w{	c #A17601",
"x{	c #A67A07",
"y{	c #A87C08",
"z{	c #AF8411",
"A{	c #A67912",
"B{	c #B58A1C",
"C{	c #AC800D",
"D{	c #A67B0D",
"E{	c #A97D12",
"F{	c #A07309",
"G{	c #946706",
"H{	c #9D7004",
"I{	c #8B5E05",
"J{	c #A97D0A",
"K{	c #9C7104",
"L{	c #856001",
"M{	c #4D3801",
"N{	c #322201",
"O{	c #9C6A07",
"P{	c #9D7006",
"Q{	c #A4770F",
"R{	c #B28714",
"S{	c #986B08",
"T{	c #956809",
"U{	c #A97C0D",
"V{	c #9B6E11",
"W{	c #94670C",
"X{	c #9C6F0C",
"Y{	c #956807",
"Z{	c #986B03",
"`{	c #A37803",
" ]	c #8D6102",
".]	c #8A6002",
"+]	c #4C3602",
"@]	c #342302",
"#]	c #A16F0B",
"$]	c #9E7105",
"%]	c #9A7001",
"&]	c #9A6D06",
"*]	c #9A6D0D",
"=]	c #A97E0A",
"-]	c #9E720A",
";]	c #9D700C",
">]	c #AE8310",
",]	c #4A3404",
"']	c #372606",
")]	c #A3720A",
"!]	c #A37604",
"~]	c #986E02",
"{]	c #926409",
"]]	c #8F6204",
"^]	c #94670D",
"/]	c #986B0C",
"(]	c #956808",
"_]	c #9B6F07",
":]	c #916407",
"<]	c #926402",
"[]	c #765102",
"}]	c #4B3504",
"|]	c #352405",
"1]	c #9B6904",
"2]	c #976903",
"3]	c #94670B",
"4]	c #8A5D04",
"5]	c #8C5E06",
"6]	c #976B09",
"7]	c #9C6F07",
"8]	c #9B6E07",
"9]	c #A07313",
"0]	c #9D710D",
"a]	c #A27703",
"b]	c #483203",
"c]	c #312004",
"d]	c #905D02",
"e]	c #8D5E03",
"f]	c #966906",
"g]	c #91640B",
"h]	c #92640A",
"i]	c #986B09",
"j]	c #976A04",
"k]	c #8D5F05",
"l]	c #97690E",
"m]	c #A57915",
"n]	c #9D7011",
"o]	c #8C5F04",
"p]	c #805B01",
"q]	c #301F04",
"r]	c #8B5801",
"s]	c #8A5B04",
"t]	c #8D6106",
"u]	c #9A6E07",
"v]	c #966A08",
"w]	c #906205",
"x]	c #95680C",
"y]	c #9A6D0F",
"z]	c #976A06",
"A]	c #916306",
"B]	c #8E6005",
"C]	c #926407",
"D]	c #916408",
"E]	c #9C6E11",
"F]	c #9E7019",
"G]	c #A27519",
"H]	c #A07317",
"I]	c #9F7115",
"J]	c #986C01",
"K]	c #956A02",
"L]	c #956B01",
"M]	c #7C5602",
"N]	c #493306",
"O]	c #342307",
"P]	c #905E01",
"Q]	c #8B5D03",
"R]	c #8D6108",
"S]	c #996B10",
"T]	c #94660F",
"U]	c #8E6009",
"V]	c #8D5F07",
"W]	c #906308",
"X]	c #9D7015",
"Y]	c #A97C1B",
"Z]	c #976911",
"`]	c #91630A",
" ^	c #956707",
".^	c #916409",
"+^	c #976A0E",
"@^	c #A1731A",
"#^	c #A3761D",
"$^	c #AD811E",
"%^	c #AF831E",
"&^	c #946709",
"*^	c #996C0B",
"=^	c #9B6E0B",
"-^	c #483109",
";^	c #3A290B",
">^	c #986601",
",^	c #906408",
"'^	c #96690E",
")^	c #93660A",
"!^	c #956908",
"~^	c #9E710D",
"{^	c #A07219",
"]^	c #9C6F15",
"^^	c #93650C",
"/^	c #93650A",
"(^	c #996D09",
"_^	c #936705",
":^	c #996C0F",
"<^	c #90630A",
"[^	c #976A12",
"}^	c #996B15",
"|^	c #A2751E",
"1^	c #B08324",
"2^	c #B58921",
"3^	c #A17317",
"4^	c #A87B1A",
"5^	c #986A0F",
"6^	c #946610",
"7^	c #9A6C0D",
"8^	c #8E6403",
"9^	c #7B5603",
"0^	c #513B13",
"a^	c #3F3014",
"b^	c #895D08",
"c^	c #95680B",
"d^	c #A3760F",
"e^	c #93650E",
"f^	c #96680D",
"g^	c #9B6E15",
"h^	c #9A6D15",
"i^	c #9F7217",
"j^	c #A87B1C",
"k^	c #9A6D0E",
"l^	c #996C09",
"m^	c #986A10",
"n^	c #94660D",
"o^	c #9A6D17",
"p^	c #A77A20",
"q^	c #B1841D",
"r^	c #A57817",
"s^	c #A77B17",
"t^	c #9F7215",
"u^	c #AD801A",
"v^	c #A97D1A",
"w^	c #A4761E",
"x^	c #A1731B",
"y^	c #A17316",
"z^	c #A27704",
"A^	c #885B02",
"B^	c #885D02",
"C^	c #7B5602",
"D^	c #523D16",
"E^	c #3F2F14",
"F^	c #8C5902",
"G^	c #8E6004",
"H^	c #956A0A",
"I^	c #9B6E0F",
"J^	c #A87B12",
"K^	c #986B10",
"L^	c #9D7012",
"M^	c #A0721C",
"N^	c #AB7D1D",
"O^	c #9F721B",
"P^	c #946609",
"Q^	c #9B7003",
"R^	c #8F6104",
"S^	c #946807",
"T^	c #92640C",
"U^	c #92650C",
"V^	c #966910",
"W^	c #95670E",
"X^	c #9D6F18",
"Y^	c #A97C1D",
"Z^	c #A87A1E",
"`^	c #A57818",
" /	c #A07311",
"./	c #B38714",
"+/	c #A97C22",
"@/	c #A87A21",
"#/	c #A2751C",
"$/	c #916801",
"%/	c #584212",
"&/	c #3E2E13",
"*/	c #8A5803",
"=/	c #8D5F06",
"-/	c #996D0C",
";/	c #A97B1D",
">/	c #9F7219",
",/	c #A67918",
"'/	c #9D7010",
")/	c #A27518",
"!/	c #916308",
"~/	c #936707",
"{/	c #95690A",
"]/	c #986B0B",
"^/	c #93650F",
"//	c #986A12",
"(/	c #926508",
"_/	c #A4771D",
":/	c #A47716",
"</	c #AD801F",
"[/	c #B38620",
"}/	c #A07413",
"|/	c #95680D",
"1/	c #A47803",
"2/	c #8B5F02",
"3/	c #966D01",
"4/	c #805B02",
"5/	c #533D14",
"6/	c #3C2B14",
"7/	c #8B5803",
"8/	c #986C0B",
"9/	c #A97B23",
"0/	c #A87B21",
"a/	c #AC7E21",
"b/	c #B08319",
"c/	c #B38719",
"d/	c #8F610B",
"e/	c #8E6109",
"f/	c #8A5D05",
"g/	c #8E6007",
"h/	c #A07308",
"i/	c #8D6007",
"j/	c #8F6108",
"k/	c #90620B",
"l/	c #B58821",
"m/	c #9B6E0D",
"n/	c #9E7303",
"o/	c #895F02",
"p/	c #744E03",
"q/	c #4F3911",
"r/	c #936102",
"s/	c #9A6F0B",
"t/	c #A5781F",
"u/	c #A7791F",
"v/	c #A17416",
"w/	c #9A6C13",
"x/	c #9C6F0F",
"y/	c #8F6206",
"z/	c #976A0A",
"A/	c #895C05",
"B/	c #96690C",
"C/	c #A57911",
"D/	c #A67A1B",
"E/	c #AD811F",
"F/	c #9E7114",
"G/	c #966A0C",
"H/	c #966A06",
"I/	c #9C7101",
"J/	c #885C02",
"K/	c #724D03",
"L/	c #4E3810",
"M/	c #392914",
"N/	c #855203",
"O/	c #8E5F03",
"P/	c #8F6309",
"Q/	c #96690F",
"R/	c #9E7118",
"S/	c #AB7F20",
"T/	c #A57821",
"U/	c #A1741D",
"V/	c #A1741C",
"W/	c #986B13",
"X/	c #A0750E",
"Y/	c #9A6E0F",
"Z/	c #8F6308",
"`/	c #906404",
" (	c #8A5E02",
".(	c #8C6002",
"+(	c #8D6005",
"@(	c #8B5E08",
"#(	c #895C06",
"$(	c #8B5F03",
"%(	c #885E04",
"&(	c #865B08",
"*(	c #8F650A",
"=(	c #986D14",
"-(	c #A77E1C",
";(	c #A9801F",
">(	c #A3791F",
",(	c #9D721C",
"'(	c #946A14",
")(	c #91670F",
"!(	c #976D0E",
"~(	c #966C08",
"{(	c #875D06",
"](	c #895F06",
"^(	c #8A6003",
"/(	c #835903",
"((	c #895F03",
"_(	c #8F6502",
":(	c #7E5402",
"<(	c #7D5302",
"[(	c #7A5202",
"}(	c #704C03",
"|(	c #4F3A10",
"1(	c #3D2D12",
"2(	c #8B5A02",
"3(	c #8E6204",
"4(	c #8D6409",
"5(	c #966C0D",
"6(	c #996F17",
"7(	c #9C711D",
"8(	c #9E7319",
"9(	c #A37A16",
"0(	c #A98019",
"a(	c #996F14",
"b(	c #8E6311",
"c(	c #966B19",
"d(	c #9B701C",
"e(	c #9F7519",
"f(	c #9C7214",
"g(	c #936A0A",
"h(	c #875D05",
"i(	c #8A6005",
"j(	c #956B06",
"k(	c #926807",
"l(	c #956B04",
"m(	c #8E6502",
"n(	c #835902",
"o(	c #805502",
"p(	c #815703",
"q(	c #895F05",
"r(	c #875D03",
"s(	c #8B6202",
"t(	c #845A02",
"u(	c #744F03",
"v(	c #7A5604",
"w(	c #785205",
"x(	c #744F05",
"y(	c #805B0D",
"z(	c #916C1C",
"A(	c #95711C",
"B(	c #926D1B",
"C(	c #855F17",
"D(	c #8B6617",
"E(	c #835E11",
"F(	c #7A5509",
"G(	c #744F04",
"H(	c #785302",
"I(	c #7A5602",
"J(	c #856202",
"K(	c #7C5802",
"L(	c #704B02",
"M(	c #6E4902",
"N(	c #6F4C02",
"O(	c #6C4D02",
"P(	c #4D390D",
"Q(	c #3B2B0F",
"R(	c #875902",
"S(	c #825904",
"T(	c #876306",
"U(	c #89640B",
"V(	c #926E19",
"W(	c #95701D",
"X(	c #866113",
"Y(	c #916D12",
"Z(	c #825D11",
"`(	c #815B0F",
" _	c #805B11",
"._	c #876218",
"+_	c #8C6717",
"@_	c #86600D",
"#_	c #7F5A07",
"$_	c #825E05",
"%_	c #856104",
"&_	c #835E04",
"*_	c #846103",
"=_	c #866303",
"-_	c #7C5701",
";_	c #754F03",
">_	c #785303",
",_	c #825E02",
"'_	c #744F02",
")_	c #453102",
"!_	c #4B3703",
"~_	c #4C3609",
"{_	c #4D380E",
"]_	c #4D380F",
"^_	c #5B4615",
"/_	c #584313",
"(_	c #564117",
"__	c #553F17",
":_	c #5B461E",
"<_	c #574314",
"[_	c #513C17",
"}_	c #48330E",
"|_	c #48330A",
"1_	c #493406",
"2_	c #4C3805",
"3_	c #4B3604",
"4_	c #4A3501",
"5_	c #493501",
"6_	c #4A3601",
"7_	c #473201",
"8_	c #453002",
"9_	c #463202",
"0_	c #3F2C02",
"a_	c #36280A",
"b_	c #33240A",
"c_	c #7B5001",
"d_	c #5C4003",
"e_	c #55400A",
"f_	c #574312",
"g_	c #543E15",
"h_	c #523D14",
"i_	c #5B4718",
"j_	c #5C4819",
"k_	c #564215",
"l_	c #513C13",
"m_	c #533E16",
"n_	c #59441D",
"o_	c #5F4A1E",
"p_	c #5D4917",
"q_	c #4F3A0C",
"r_	c #4F3A0A",
"s_	c #513D0A",
"t_	c #503B08",
"u_	c #4D3806",
"v_	c #4D3805",
"w_	c #442F04",
"x_	c #402B03",
"y_	c #453003",
"z_	c #442E02",
"A_	c #412C02",
"B_	c #432E01",
"C_	c #221601",
"D_	c #261A04",
"E_	c #2D220B",
"F_	c #2F230E",
"G_	c #30240E",
"H_	c #2D220D",
"I_	c #2E210D",
"J_	c #2E220E",
"K_	c #382C17",
"L_	c #392E19",
"M_	c #3C311D",
"N_	c #342914",
"O_	c #3C301A",
"P_	c #322612",
"Q_	c #312512",
"R_	c #2B1F0A",
"S_	c #2B2008",
"T_	c #2A1E06",
"U_	c #271B03",
"V_	c #241901",
"W_	c #221700",
"X_	c #241800",
"Y_	c #231700",
"Z_	c #201401",
"`_	c #231801",
" :	c #241801",
".:	c #261A02",
"+:	c #251902",
"@:	c #211602",
"#:	c #221701",
"$:	c #291E0B",
"%:	c #3E2402",
"&:	c #241701",
"*:	c #261903",
"=:	c #251A04",
"-:	c #261A08",
";:	c #271B0A",
">:	c #2D200F",
",:	c #362A18",
"':	c #3B2F1A",
"):	c #3A2E16",
"!:	c #3A2F18",
"~:	c #3E321B",
"{:	c #40341E",
"]:	c #3C311B",
"^:	c #382D18",
"/:	c #2D210B",
"(:	c #2C2109",
"_:	c #2C200A",
"::	c #2A1E08",
"<:	c #2A1E07",
"[:	c #291D06",
"}:	c #271B05",
"|:	c #271B04",
"1:	c #241803",
"2:	c #231702",
"3:	c #231802",
"4:	c #211600",
"5:	c #221600",
"  . + @ # $ % & * = - ; > , ' ) ! ~ { ] ^ / ( _ _ : < [ } | 1 2 3 4 5 6 7 8 9 0 a b c d e f g h i j k l l m n o p q r s t u v w ",
"x y z A B C D E F G H I J K L M N O P Q R S T U T V T W T T W X Y Z `  ...+.@.#.$.%.&.*.=.-.;.>.,.'.).!.~.{.].^./.(._.:.<.[.}.|.",
"1.2.3.4.5.6.7.8.9.0.a.b.c.d.e.f.g.h.i.j.h.k.g.l.k.i.m.n.k.o.p.q.r.s.t.u.v.w.x.y.z.A.B.C.D.E.F.G.H.I.J.K.L.M.g.g.k.p.g.n.N.O.P.Q.",
"R.S.T.U.V.W.X.Y.Z.`. +.+++@+#+$+%+&+*+=+-+;+>+,+&+'+&+$+)+!+~+$+{+]+^+/+(+_+:+<+[+}+}+|+1+2+3+4+5+6+7+M !+-+8+9+8+0+a+b+c+d+e+f+",
"g+h+i+j+k+l+m+n+o+p+(+q+r+s+t+u+v+$+w+x+y+z+-+A+B+C+;+D+E+F+G+H+u+I+J+K+L+M+N+O+P+V.Q+R+S+T+U+/+V+W+X+Y+Z+`+ @.@+@@@#@$@%@&@*@=@",
"g+-@;@>@,@'@)@!@l+~@{@]@^@u+/@(@_@:@<@[@}@|@1@*+2@+@3@4@5@Z+6@7@,.F+8@9@0@a@b@a@2+c@d@d@e@f@g@h@i@j@I+{+k@l@~+8+2.,+9+$@m@n@o@p@",
"q@r@s@t@u@v@w@x@y@z@A@B@C@D@7+E@F@G@G@H@I@1@-++@+@S J@K@>+ @T ,+$+$+L@5+'@M@N@O@P@<+Q@R@S@T@p+U@V@W@j@X@k@Y@Z@`@,+ #.#$@+#@###$#",
"%#&#*#=#-#;#>#,#'#)#!#Z.~#{#u+]#H@^#/#(#.@3@;+_#a+8+:#<#K@[#&+&+}#|#F@,.1#2#3#4#5#`.6#7#8#!#9#v@0#a#b#c#d#<@e#E+f#g#h#i#j#k#l#m#",
"n#o#p#w@q#r#s#s#t#u#l+v#w#x#y#z#A#B#E+|@8+C#.#D#E#F#q.G#H#I#J#*+2@I@K#L#M#K N#B@O#e@P#Q#R#S#T#0@U#V#W#@+X#F+Y#Y@_@Z#P ;+`#n@ $.$",
"+$@$#$x@$$%$]@&$U+*$=$-$N+;$>$,$'$t@$+-+1@,+)$!$~${$]$Z#^$/$($-+_$+@8+L#:$<$[$:+}$|$1$2$3$P#4$5$6$7$3#'$8$7+9$/@0$a$b$c$d$e$f$g$",
"h$i$j$k$l$m$n$-$A@o$p$q$r$s$t$4#8$u$v+z+-+8+>+v$w$g#~+x$P G#y$z$[#I#A$B$M#C$,@D$E$F$G$J+O+H$I$J$K$k@2#k$D@L$2#<$M$N$f#O$P$Q$R$S$",
"T$U$V$W$X$Y$Z$`$7# %0@o$.%+%@%#%<$$%H+K#;+,+B+3@J#%%]$%%-+&%)$.#*%[#=%Z#Y+_.z#-%;%>%,%<+y@'%)%!%Z+A#~%{%]%u+t@^%/%w+a$4@(%_%R$:%",
"<%[%}%|%1%2%3%4%5%6%7%8%T@J+X.9%0%a%b%k@E@x$I@>+8+$+Z#c%M >+h#&+A+I@,+d%_@e%f%g%h%!#i%c@j%l+k%]#v+l%t@m%4#n%3#o%p%H@Z@:@q%r%s%t%",
"u%[%v%s#w%x%x%y%z%A%B%G$C%D%2%Z.'@E%p%^#F%:@,+*+G%)+G+H%:@I% @ @&+l.#@%%w+J%K%L%4+T#Q#M%N%O%b%H@N$$+]#_.P%6+'$,@5+#+w+I@Q%R%S%T%",
", U%V%W%X%Y%Z%O+Z$`% &.&+&@&#&$&%&&&*&=&-&;&;++@,+8+>&E@x$,&'&w+3@&+&+,+l@0$e%)&z Q#!&~&{&]&^&H+x$w+/&(&_&-%k$y#z#7+L#:#:&<&[&}&",
"|&1&2&3&4&F 5&,%6&7&q$2%8&9&0&a&b&F+D+&+c&>&;+d&a+9+~+N  @e&`+f&&+&+z+%%E@L@u+g&h&O%i&s$j&p+k&l&|@z+@+u+x#m&4#b#y#n&7@$@m@o&p&q&",
"r&U@s&t&u&v&e@w&x&y&z&A&1$t$B&C&D&E&v+,.F&G&J#($K@[#h#&+h#_#2.'+B+v$Z#l&7@H&I&4+J&K&L&M&N&O&V@5+P&,.C&X@,@Q&R&R&S&E%y#T&U&V&W&:%",
"X&Y&Z&`&Y$ *.*M&+*P@<+@*#*.*$*%*&*****)+)+I@K@I#,+=+.# #=*,+-*B+;+;*>*,*'*X@5$)*!*~*{*p$]*6&*$^*/*(*_*D&:*-%4+7$8$y#<*[*}*|*1*2*",
"3*4*5*6*x%f@7*)#8*M%9*0*a*b*c*Z@M d*e*N$(#^$%%.@-*($-+_#f*d&g*}#g*w+E+h*C$i*j*k*l*m*o$n*o*p*q*r*s*t*u*2#-%6$v*$$&$w*x*y*z*A*B*C*",
"D*E*F*x&:+M&y%G*e@T#z&3%H*I*J*d*K*e#L***H@G+M*N$]$3@9+N*_#8+8+2.8+%+O*P*[%Q*R*S*T*Z$U*V*W*X*Y*9#'#Z*`* =.=_&I++=,#@='$#=$=%=&=*=",
"==i@-=s$;=>=,=b*3+'=)=!='%~={=]=^=/=(=T&l&M*_=I%G#:=[#>+_# #w+ @Z#/%<=[=6*}=!@|=1=2=3=4=5=6=7=.*8=9=!#0=Y$$.a=+*b=c=4+4+d=e=P.f=",
"g=C@h=i=)@j=k=l=m=n=o=p=q=r=s=t=u=v=w=x=y=w$z=9+ #A=B=C=3@K#$+%+v+g&=#L$D=k+E=F=G=H=w*I=X@/@C&J= *K=L=t$M=2=M&N=g&O=P=Q=R=S=R$T=",
"U=V=W=X=Y=;#b%Z=`= -.-+-@-#-$-%-&-*-=-9+J#--D#K@;-_#F#>-.#8+,-H@v+z#'-7+5$T+)-!-~-{-]-O*8$^-I&*./-,%(-_-6%:-.&D$k$<$K W#<-[-}-}&",
"|-1-2-i@3-/@^#f#4-5-l=6-I 7-8-9-0-a-;-b-[#;-D#c-F#g#d-e-($1@I@2.;+f-E@l%a#g-h-i-j-k-l->#m-n-o-p-5$4+q-#%r-c@,=W+s-t@<$t-u-v-w-x-",
"y-z-V$A-B-]#^#^#>@C-D-E-v&F-G-&*c%H#E#--d-d-I#;*H-I-_#E#;-E#($N*&+J-G@4-D@K-N+L-)-M-N-$$O-P-x#j=Q-R-/*a%S-2=T-b#D&U-k@V-W-X-Y-Z-",
"`-`*t. ;@=.;>&,.E@1#+;@;#;$;%;B$w$A$&;!$h.K@;*~+,&*;,*=;!$B=J#g#&+x$Y+-;<=;;>;,;';n+);x&w@b#!; *1%}=~;!@2%P@{;+;/@1#e%]%];^;/;(;",
"_;:;z.b%@+f#$+3@w+^#s#<;E%[;e*d%};~$|;1;c-&%2;x=3;*-I%3;A$9+8+f&4;8+5;E+6;@=7;k+8;;%o$U#<*l$D$9;0;m$`.a;~&J=l$b;c;d;e;f;W-g;h;i;",
"j;k;l;p%m;**z+p.&+M#=#@=#=n;G+o;:#{$J@1;E#J@>-p;q;r;s;t;b+v$-+8+u;I@v;[@w;F@V-x;u*g@y;)#z;A;`%B;C;N=D;7*E;F;R+G;H;F-/-I;J;K;L;M;",
"N;O;P;Q;R;S;T;U;V;W;X;Y;Z;`; >.>u-+>@>#>c+$>%>&>*>&>=>->;>>>,>'>j#)>!>~>{>]>^>];/>(>_>:><>[>[>}>|>1>2>3>4>5>6>7>8>9>0>a>b>c>d>e>",
"f>g>h>i>j>k>l>m>n>o>p>q>r>s>t>u>v>w>x>y>z>A>B>C>D>E>F>G>e$H>n@&@z>z>z>Q$<&I>J>m>K>L>M>N>O>P>Q>R>S>T>U>V>W>X>Y>Z>t>`> ,.,+,@,#,$,",
"%,&,*,=,-,;,>,,,f$',),!,~,{,],^,/,(,(,_,/,:,<,[,^,},(,:,|,_,1,~,(,/,2,!,3,4,5,d>6,7,8,9,0,a,b,c,d,e,f,g,h,i,j,k,B*l,m,n,o,p,q,r,",
"s,t,u,v,w,x,y,z,A,B,C,D,E,F,G,H,H,G,I,H,J,K,L,M,N,O,P,Q,R,S,T,U,V,W,X,Y,Z,`, '.'+'@' '#'$'%'&'*'='-';'>',''')'!'*'~'{']'='^'/'('",
"_':'<'['}'|'1'2'3'4'5'6'7'8'9'0'j ! a'b'| c'! d'e'f'g'h'i'j'k'l'm'n'o'p'q'r's't'u'v'w'x'y'z'A'B'C'D'E'F'G'H'I'J'q K'L'M'N'O'P'Q'",
"R'S'T'U'#.V'W'X'K Y'Z'P%/*`' ).)c%+)@)#)$)%)+)&)*)=)-)L#o.;)>),)')))T&F&m&k;!)J ~){)])^)/)()_):)~-M-<)[)})|)1)2)3)4)5)4*6)7)8)9)",
"0)a)b)c)d)e)f)g)h)i)j)k)l)m)n)o)p)q)r)s)s)t)u)v)w)x)y)z)A)B)C)D)E)w+F)m.G)H)K.l)F*I)j$J)K)L)M)N)O)P)Q)R)S)T)U)V)W)X)Y)Z)`) !.!+!",
">;@!#!$!%!&!*!=!=$ -7--!]$ #4@d- #F#D#b-c-4@3;;!>!;!4-J-,!H>'!)!!!P =%|@D+~!{!]!x@4+^!/!(!_!:!<!K-[!}!N)|!1!2!m$3!D$4!5!6!C;c@9;",
"7!8!I$j=9!l*<!0!h&X*a!b!};*%c!*%y$>+T 9+1@=-=-3@,+d!d%i#$>e!f!g!h!i!j!/#Y@}+[+,%k!c@I$l!m!n!o!p!q!r!s!I*t!u!v!!#w!P@x!y!E;z!r-A!",
"y#B!C!G$T@D!E!F!G!H!I!2;{$D#9+ #.@+@+@I@8+K@!$&*J%N$I@,+Q%J!K!v,L!l@M!1#D@4+N!O!v&P!:+Q!C!!&R!!*S!T!U!V!W!X!#&9@D$Y!1!Z!`! ~N#2#",
"k@3-S&.~E;{*)@+~q!B!@~x=G#*%J#i!~+l.#~&+>+-+A$$~v+[@x$|@%~&~*~=~L!@$-~_&A-0&8&j&;~>~2$B@,%,~'~y&)~!~~~@&{~@!8%q+X=m!]~^~/~o+t+(~",
")&_~;;:~<~6#[~}~|~)&l@~+2.I@2.,+;++@&+I@,+,+:=,&f#,--&z+1~2~3~u,4~5~6~X#7~8~n$F-9~2=5$0~.=!#a~*$S-b~c~~=)=d~e~6*D$f~'%^~g~B@^-u+",
"m%Q=h@$$F!K&h~G$>$O*-@&+-+,+d&>+g*@@R -+d-y==-i~E#8+8+i#j~J>k~l~m~a$n~A#o~p~q~r~}=X=y#t-t&s~t~u~,;|~v~<!i%:!.&Y$P!w~x~y~z~k;A~'$",
"f@/-y%B~C~D~9@b%P%:.>&I@+@u;0+,+x$(@J-,-i!y=};=-v$+@'+-*c+n@E~F~4~^.G~r.~!t-H~r~A-`&3#u+I~S*!=J~K~L~e@M~N~O~L=1$q$;=P~Q~T#R~S~5%",
"T~U~C~V~W~O~R&`&,@X~]$J#J#Y~I@Z~Z+Y+`~I%:=3@N*A=>+,++@ # {.{+{@{#{y+${*;#+L@k@)&5+'-%{1#&{*{={C!i=-{;{.=E%y# =>{,{[~'{W+!)';7#)#",
".%u#a.o+){!{~{0$,.}@;+u;&+I@G#K*(*{{M*]{:=&+d&+@c&.@B+|#U;^{/{({#{W G)l@^#[@_{,.G&:@N$&*g&@-F;r- =L&:{5#[*X~<{9@@*R~[{}{|{*$P~0!",
"1{T+{-2{3{4{t@M$Z+5{P J@ #F#6{7{>*Z#@@)+9+B+,+&+l@**N$9+F)8{9{0{a{.@b{x$[@}@5{,-,-v+^#^#B-`&c{`&x#+;d{e{u*f{g{f@:-6%(-'@6*P@h{i{",
"'@y%n=j{k{l{m{>&n{I@&+f&g*:=o{p{q{F+c#r{J-,-i!&+b+*;F&|@m@s{t{u{#{}#v{w{#~&+8+y+I@G%/#P&x{u@/%7@_@(@y{z{T-y#S&A{B{.~C{p%b=D{j&0#",
"E{T-W%/*F{G{/#8+;+,+2.H{)+)$~$I{b!X#7+'$J{'$F%N$>+-+K{c$:&L{M{N{O{M j~-+2@B+S @@&+;+Z@G{E&P{D+_#>+,-X@z#g%$&a#Q{R{.=b#S{T{]!D-U{",
"V{W{X{3#)&Y{(#2@8+;+.@Z{g*+@F#*-M*F%u+'$3#X$<$r@`{8+8+ ].]@#+]@]#]$]%]C#>+'+@@~+D+w+_@&]H%3;g#*+8+N T&<;*]x*_~^-`&=]g&G{F+^=8--]",
"8-;]'#>]j@^%f#9+*%9+@@I@S S C=Z{G@F+%*A#)&k$@+c#$+;+I@m.p)^{,]'])]!]~],+&+x$>&>&(*%;{+Q*{]Y{e*N*,+]$]];!^]/]3#C&u*d;{+_@M$(]_]M!",
":]^@k+W@J=C$ @J#--<]+@B+S g*C=,+a$%*K#,.Z+Z+(@S.w+8+N* # {[]}]|]1]2]M.Z{,+[@c#g*F@>@~{3]<=P&D+($N*i~4]5]Q*6]o~7]u*a&8]_@7@H#z=:=",
"H%X+9]B!0]@=H@,+.#/$I@$@ #I@=+I@D+,*>+H{a]}@z+$+,+K@3@A=>>&@b]c]d]e]A$*;[@/@c#)+i!f]t=g]u*F+~+[#&+_#H-h]W{O*@=6@i]3]b![@j]d!k]l&",
"~!l]m]n]k%5+k@z+'&B$*;E#3@S I@@@)+8+2@w+,-I@ #o].#d-b-=-U;p]b]q]r]s]t]u]b&v]:]`~,&w]x]y]Q{C&>&y=($x=G@5+D@a&/@&*6;{#{+z]A]B]C]D]",
"E]F]G]H]I])*D-i$:]Y{<;e*v+$+I@8+-*.@*+*+S *+ #J#J]C=d-K]L]M]N]O]P]Q]R]x]S]T]U]V]D]W]X]n=Y]Z]`]V]_= ^#+y*6]%{F+F+!%i**][*.^D]O-+^",
"@^#^-{$^U!%^W.~;k%v]&^*^=^#=H@,+I@g#-+}#3@I#A=+@N*_#d-9+%@e!-^;^>^7{,^'^Z]*])^!^,#~^{^]^g~.-y]^^/^(^Y@d*H%_^>&c#y*k%:^i]<^/^[^}^",
"3{|^1^2^.*3^{^l*4^5^l]6^7^;#+;v+K#>&(@@@I@K@($[#$@=+-*3@8^9^0^a^| s]b^c^d^x]e^f^g^M-h^|!i^j^k^z]e*c%e*f#M*w]z]E@<$l^]-m^n^V{1!|!",
"o^T*p^q^r^s^t^u^v^w^x^y^j{Q{`&L@F+z^(@'.H@9+[#I#A^I@x+k.B^C^D^E^F^G^H^I^J^K^H*L^M^N^3{{=O^n]P^3;Q^K@Q]Z@I%R^S^F@X@f].^T^U^ -V^W^",
"X^D!Y^Z^T*`^ /O~./(++/@/#/N@X$X@/&B#e%#+E@w+&;a-=;8+Y~d&$/^{%/&/*/=/-/H*$^a*Y^;/>/,/'/)/q=&$!/c%w$[#:#R^$~{+^#,.&]G{~/k&{/]/^///",
"5-(/1!_/2=:/</[/}$+*}/!-|/{#z#v+H@1/K##@,- @;*)$b-v$2/C#3/4/5/6/7/~.8/)%9/0/'=a/b/c/ /C~]^d/e/f/!$a-=;7{=/v]5;d%w+E+g/h/#+^$i/j/",
"d!G^k/'/.~*$ ~o*l/*{m/%&~!1#'*r.$+@@}@n/ @@@&+3@I#*%A^J@o/p/q/%'r/H#s/T]t/p^u/~=D%v/l!Y^w/x/h@y/o]c%{$K@q.3;J#z$.#)$f/z/^=w=*-z=",
"|;A/5-B/&!C/D/J~E/F/G/H/D+v;:@x=J@8+n/8+I/>+ #c&>+v{A^J/k'K/L/M/N/O/P/Q/R/S/T/U/V/g^o^t/W/X/Y/Z/&;/$`/c$%% (=-.(*%o)+(@(#($(A+;-",
" {%(&(*(=(-(;(>(,('()(!(~({(](^(/(((.]_(U;F)c+Q%F)%@:(<([(}(|(1(2(3(4(5(6(7(8(9(0(a(b(c(d(e(f(g(h(i(j(k(l(U&m(n(o(p(q(%(r(s(_(t(",
"u(v(w(x(y(z(U>A(B(C(D(E(F(x(G(.{[]H>H>H(I(A>r%J(K([]L(M(N(O(P(Q(R(S(T(U(V(W(X(`>Y(Z(`( _._+_W(@_#_$_%_&_*_=_J>-_H>;_>_^{.{,_n@'_",
")_!_~_{_]_=,^_/_(___:_<_[_}_|_1_2_3_/,4_5_4_6_6_4_7_8_<,9_0_a_b_c_d_/;e_f_g_h_i_j_k_l_m_n_o_p_q_r_s_t_u_v_v_),w_x_y_:,z_A_4_|,B_",
"C_D_E_F_G_H_I_J_K_L_M_N_O_P_Q_R_S_T_U_V_W_X_Y_Z_`_ : :.:+:@:#:$:%:&:*:=:-:;:>:,:':):!:~:{:]:^:F_/:(:_:::<:[:::}:|:1:2:3: :C_4:5:"};
