/* XPM */
static char * Grass_07_128x128_xpm[] = {
"64 64 2841 2",
"  	c #8E8E86",
". 	c #77746C",
"+ 	c #535C40",
"@ 	c #313318",
"# 	c #313718",
"$ 	c #2E3816",
"% 	c #2B3912",
"& 	c #364128",
"* 	c #8F8E86",
"= 	c #475F2E",
"- 	c #334116",
"; 	c #354517",
"> 	c #2B3E10",
", 	c #314212",
"' 	c #304614",
") 	c #344915",
"! 	c #364722",
"~ 	c #65685B",
"{ 	c #A6A69F",
"] 	c #9D9A95",
"^ 	c #88887E",
"/ 	c #30381E",
"( 	c #75766A",
"_ 	c #8E8B84",
": 	c #96948C",
"< 	c #A9AAA0",
"[ 	c #505540",
"} 	c #2C3214",
"| 	c #646058",
"1 	c #A5A39D",
"2 	c #94918C",
"3 	c #5E624F",
"4 	c #42591C",
"5 	c #3F5916",
"6 	c #2B4011",
"7 	c #314814",
"8 	c #3A4C15",
"9 	c #3D5516",
"0 	c #283710",
"a 	c #2A3611",
"b 	c #283911",
"c 	c #27360F",
"d 	c #2E3213",
"e 	c #273011",
"f 	c #242E10",
"g 	c #25290E",
"h 	c #263212",
"i 	c #2E3D14",
"j 	c #334613",
"k 	c #2A3C11",
"l 	c #2F4413",
"m 	c #375016",
"n 	c #354B14",
"o 	c #2F4012",
"p 	c #314512",
"q 	c #2E3F13",
"r 	c #2D3519",
"s 	c #363B26",
"t 	c #354815",
"u 	c #314412",
"v 	c #324611",
"w 	c #4B5A33",
"x 	c #4A5935",
"y 	c #40452E",
"z 	c #3B4026",
"A 	c #2D2A15",
"B 	c #2F2A17",
"C 	c #363B1A",
"D 	c #37421B",
"E 	c #333D20",
"F 	c #59594C",
"G 	c #2D3F17",
"H 	c #3C461A",
"I 	c #42581C",
"J 	c #33451A",
"K 	c #414C2B",
"L 	c #334419",
"M 	c #364422",
"N 	c #8B8B83",
"O 	c #918E89",
"P 	c #9D9A96",
"Q 	c #AAA8A3",
"R 	c #7F7C75",
"S 	c #5F5F50",
"T 	c #373125",
"U 	c #6B665E",
"V 	c #68625B",
"W 	c #858679",
"X 	c #4B5431",
"Y 	c #2E3415",
"Z 	c #413D34",
"` 	c #9A9992",
" .	c #707267",
"..	c #32441B",
"+.	c #2E4011",
"@.	c #2E4513",
"#.	c #2F4314",
"$.	c #2B3111",
"%.	c #394816",
"&.	c #314713",
"*.	c #26370F",
"=.	c #2B3410",
"-.	c #342C16",
";.	c #2F2C17",
">.	c #39331C",
",.	c #2C2E15",
"'.	c #262912",
").	c #262F11",
"!.	c #2D3C12",
"~.	c #314313",
"{.	c #374F16",
"].	c #314716",
"^.	c #263910",
"/.	c #273310",
"(.	c #3B4A16",
"_.	c #2E3E13",
":.	c #243311",
"<.	c #344A13",
"[.	c #2A390F",
"}.	c #334A13",
"|.	c #324712",
"1.	c #384F15",
"2.	c #3B4D1C",
"3.	c #293F11",
"4.	c #364E15",
"5.	c #3B4818",
"6.	c #36371A",
"7.	c #303516",
"8.	c #303C17",
"9.	c #2D3714",
"0.	c #3C4024",
"a.	c #4F553B",
"b.	c #2C4012",
"c.	c #374D17",
"d.	c #485932",
"e.	c #616353",
"f.	c #8B8980",
"g.	c #555E43",
"h.	c #3A4B23",
"i.	c #817C76",
"j.	c #9C9994",
"k.	c #8F8C86",
"l.	c #A8A6A2",
"m.	c #9B9894",
"n.	c #87827A",
"o.	c #433624",
"p.	c #3B3429",
"q.	c #353025",
"r.	c #2D291A",
"s.	c #333819",
"t.	c #2E3716",
"u.	c #2E381E",
"v.	c #434635",
"w.	c #304718",
"x.	c #293A10",
"y.	c #273811",
"z.	c #2C3C1B",
"A.	c #2C3D15",
"B.	c #3C4A18",
"C.	c #344715",
"D.	c #2F4611",
"E.	c #2C3F12",
"F.	c #2B3E12",
"G.	c #2C2A12",
"H.	c #40341C",
"I.	c #322B18",
"J.	c #312916",
"K.	c #322C18",
"L.	c #2B2313",
"M.	c #252911",
"N.	c #2C3712",
"O.	c #324314",
"P.	c #2F4016",
"Q.	c #2E4213",
"R.	c #314712",
"S.	c #324713",
"T.	c #3C4D17",
"U.	c #344916",
"V.	c #375018",
"W.	c #415E1A",
"X.	c #2E4312",
"Y.	c #25360F",
"Z.	c #304813",
"`.	c #3B5415",
" +	c #2A4011",
".+	c #283B10",
"++	c #354F16",
"@+	c #394619",
"#+	c #2F2E17",
"$+	c #303216",
"%+	c #283611",
"&+	c #344B15",
"*+	c #33431C",
"=+	c #324517",
"-+	c #2A3513",
";+	c #334A16",
">+	c #365119",
",+	c #374A20",
"'+	c #455528",
")+	c #374322",
"!+	c #36471C",
"~+	c #645F56",
"{+	c #918D88",
"]+	c #9A9793",
"^+	c #ACAAA5",
"/+	c #B1AFAB",
"(+	c #7D7C71",
"_+	c #38371E",
":+	c #3B361D",
"<+	c #342D19",
"[+	c #343319",
"}+	c #322E17",
"|+	c #373319",
"1+	c #2F3A15",
"2+	c #2B3512",
"3+	c #263710",
"4+	c #283A10",
"5+	c #32431A",
"6+	c #808376",
"7+	c #707464",
"8+	c #2A3D15",
"9+	c #314613",
"0+	c #344B14",
"a+	c #2A3A10",
"b+	c #2F3414",
"c+	c #334119",
"d+	c #312C14",
"e+	c #3A321B",
"f+	c #302B17",
"g+	c #332B18",
"h+	c #2E2816",
"i+	c #313219",
"j+	c #2D3416",
"k+	c #2A3910",
"l+	c #2F4115",
"m+	c #2E4016",
"n+	c #2C4112",
"o+	c #304512",
"p+	c #364A16",
"q+	c #3B5217",
"r+	c #375216",
"s+	c #25370F",
"t+	c #2A3E10",
"u+	c #385115",
"v+	c #2A3F11",
"w+	c #304612",
"x+	c #354A14",
"y+	c #324315",
"z+	c #383F1B",
"A+	c #3F431F",
"B+	c #42521C",
"C+	c #374818",
"D+	c #394F1D",
"E+	c #808176",
"F+	c #566347",
"G+	c #273710",
"H+	c #2B4013",
"I+	c #2E4913",
"J+	c #293B10",
"K+	c #324914",
"L+	c #2E3A12",
"M+	c #3A4A1C",
"N+	c #65645A",
"O+	c #908D89",
"P+	c #AEACA8",
"Q+	c #ABA8A4",
"R+	c #979590",
"S+	c #485332",
"T+	c #405221",
"U+	c #5B5B49",
"V+	c #343119",
"W+	c #36361A",
"X+	c #3A3419",
"Y+	c #40451D",
"Z+	c #353B17",
"`+	c #2E3316",
" @	c #263211",
".@	c #26360F",
"+@	c #394424",
"@@	c #7E7B75",
"#@	c #989691",
"$@	c #707168",
"%@	c #303F1D",
"&@	c #283D10",
"*@	c #293E11",
"=@	c #2D2E12",
"-@	c #37331A",
";@	c #342F18",
">@	c #303317",
",@	c #34421A",
"'@	c #2F3B16",
")@	c #2C3913",
"!@	c #39471B",
"~@	c #2F3C15",
"{@	c #3B4918",
"]@	c #324A14",
"^@	c #344C14",
"/@	c #364C14",
"(@	c #2C3B10",
"_@	c #293C10",
":@	c #334D13",
"<@	c #344E14",
"[@	c #3C5717",
"}@	c #395213",
"|@	c #3A4C17",
"1@	c #393E1B",
"2@	c #373A1A",
"3@	c #48611D",
"4@	c #334D15",
"5@	c #3F4C2E",
"6@	c #8F8C87",
"7@	c #898B80",
"8@	c #344519",
"9@	c #2E4012",
"0@	c #2D3D11",
"a@	c #293D10",
"b@	c #23300F",
"c@	c #2C3B13",
"d@	c #42522D",
"e@	c #87837D",
"f@	c #95918C",
"g@	c #989690",
"h@	c #525F40",
"i@	c #354915",
"j@	c #37431D",
"k@	c #4F4E36",
"l@	c #3D3B1D",
"m@	c #39461B",
"n@	c #3D461C",
"o@	c #3C4B1D",
"p@	c #3B4B18",
"q@	c #39371A",
"r@	c #3A4518",
"s@	c #474634",
"t@	c #88867F",
"u@	c #A9A7A2",
"v@	c #7C7F73",
"w@	c #304516",
"x@	c #344C13",
"y@	c #344816",
"z@	c #3D4419",
"A@	c #313818",
"B@	c #2A3312",
"C@	c #2E3B15",
"D@	c #374918",
"E@	c #303815",
"F@	c #333815",
"G@	c #2E3915",
"H@	c #314614",
"I@	c #374D15",
"J@	c #24360F",
"K@	c #2B3C11",
"L@	c #304410",
"M@	c #313E12",
"N@	c #2A3D10",
"O@	c #324B12",
"P@	c #3C5515",
"Q@	c #324812",
"R@	c #3C5316",
"S@	c #3B481B",
"T@	c #455E1D",
"U@	c #3F4E1B",
"V@	c #35371A",
"W@	c #384619",
"X@	c #424D30",
"Y@	c #95928C",
"Z@	c #9C9A95",
"`@	c #585D4C",
" #	c #324A12",
".#	c #3B5416",
"+#	c #344813",
"@#	c #25320F",
"##	c #202E0D",
"$#	c #2D4012",
"%#	c #4B5535",
"&#	c #A19E99",
"*#	c #828A77",
"=#	c #38531B",
"-#	c #3B5518",
";#	c #3B521F",
">#	c #3B5319",
",#	c #3B5318",
"'#	c #304414",
")#	c #333914",
"!#	c #3B4D19",
"~#	c #4E5E1D",
"{#	c #3D471A",
"]#	c #394819",
"^#	c #3A4219",
"/#	c #3E421A",
"(#	c #354618",
"_#	c #3B4427",
":#	c #59574A",
"<#	c #9B9A93",
"[#	c #465436",
"}#	c #364D16",
"|#	c #314615",
"1#	c #394618",
"2#	c #424B1B",
"3#	c #3B4618",
"4#	c #373E16",
"5#	c #2E3F14",
"6#	c #383918",
"7#	c #354417",
"8#	c #395018",
"9#	c #2B3F11",
"0#	c #374414",
"a#	c #2C3813",
"b#	c #344417",
"c#	c #2E3A13",
"d#	c #273A10",
"e#	c #374915",
"f#	c #324213",
"g#	c #334B13",
"h#	c #364D14",
"i#	c #405817",
"j#	c #2C3014",
"k#	c #333E15",
"l#	c #313817",
"m#	c #313218",
"n#	c #333E1A",
"o#	c #2E4613",
"p#	c #3D5025",
"q#	c #8A8781",
"r#	c #9F9D98",
"s#	c #98998E",
"t#	c #2E3D1E",
"u#	c #324912",
"v#	c #2C3F10",
"w#	c #2C4011",
"x#	c #363F26",
"y#	c #2D4013",
"z#	c #2C4212",
"A#	c #414633",
"B#	c #34481E",
"C#	c #3B5516",
"D#	c #384E17",
"E#	c #3C561A",
"F#	c #385517",
"G#	c #334D14",
"H#	c #2D420F",
"I#	c #354612",
"J#	c #445E18",
"K#	c #3D5416",
"L#	c #415419",
"M#	c #303613",
"N#	c #2E3913",
"O#	c #314113",
"P#	c #364A14",
"Q#	c #2E4314",
"R#	c #3C4929",
"S#	c #384327",
"T#	c #293710",
"U#	c #2E3D12",
"V#	c #3B4219",
"W#	c #41521C",
"X#	c #41461D",
"Y#	c #334418",
"Z#	c #2C3D12",
"`#	c #374716",
" $	c #2E3813",
".$	c #242E0F",
"+$	c #293910",
"@$	c #293810",
"#$	c #2C3F11",
"$$	c #334213",
"%$	c #2C3511",
"&$	c #2C3C12",
"*$	c #304513",
"=$	c #2B4211",
"-$	c #2C3E10",
";$	c #314513",
">$	c #273810",
",$	c #2A3912",
"'$	c #2E3914",
")$	c #37391A",
"!$	c #2D3515",
"~$	c #2E3817",
"{$	c #36481E",
"]$	c #86837D",
"^$	c #838079",
"/$	c #807F77",
"($	c #4A5739",
"_$	c #2D4211",
":$	c #424D2E",
"<$	c #8E8D86",
"[$	c #364226",
"}$	c #314812",
"|$	c #2C4110",
"1$	c #283D0F",
"2$	c #304611",
"3$	c #2E4813",
"4$	c #2F4713",
"5$	c #405A17",
"6$	c #394D14",
"7$	c #344814",
"8$	c #344A14",
"9$	c #3C5017",
"0$	c #2D3913",
"a$	c #304015",
"b$	c #3F4B19",
"c$	c #2A3511",
"d$	c #28360F",
"e$	c #29380F",
"f$	c #2C3D11",
"g$	c #3A3F18",
"h$	c #313C16",
"i$	c #354714",
"j$	c #384317",
"k$	c #414F1D",
"l$	c #394D18",
"m$	c #495E29",
"n$	c #3D511B",
"o$	c #2E3E14",
"p$	c #364117",
"q$	c #342F17",
"r$	c #353A19",
"s$	c #374518",
"t$	c #272E0F",
"u$	c #2D3810",
"v$	c #313F13",
"w$	c #304312",
"x$	c #344A12",
"y$	c #3E5516",
"z$	c #334C13",
"A$	c #304412",
"B$	c #334012",
"C$	c #24330F",
"D$	c #283313",
"E$	c #313B16",
"F$	c #394A15",
"G$	c #242F10",
"H$	c #263011",
"I$	c #212E0E",
"J$	c #25380F",
"K$	c #24370E",
"L$	c #293714",
"M$	c #2B3D17",
"N$	c #2D4315",
"O$	c #314414",
"P$	c #334513",
"Q$	c #273B0F",
"R$	c #2D4412",
"S$	c #36481C",
"T$	c #5E5E54",
"U$	c #4B513D",
"V$	c #334813",
"W$	c #2D4110",
"X$	c #283F10",
"Y$	c #21330E",
"Z$	c #374B14",
"`$	c #374B15",
" %	c #2D3E12",
".%	c #24320F",
"+%	c #354A13",
"@%	c #3A5417",
"#%	c #283711",
"$%	c #384916",
"%%	c #2C3611",
"&%	c #384C16",
"*%	c #2F3F14",
"=%	c #333B15",
"-%	c #353618",
";%	c #344016",
">%	c #3A4816",
",%	c #2D3D13",
"'%	c #485239",
")%	c #A7A99F",
"!%	c #6B7759",
"~%	c #2A3D11",
"{%	c #323914",
"]%	c #2E2F14",
"^%	c #3A4317",
"/%	c #374016",
"(%	c #2D3D14",
"_%	c #313E13",
":%	c #394F15",
"<%	c #314511",
"[%	c #2F4411",
"}%	c #314A13",
"|%	c #2A3A0F",
"1%	c #3A4D15",
"2%	c #314214",
"3%	c #303B13",
"4%	c #333E17",
"5%	c #323616",
"6%	c #3B4619",
"7%	c #2B3913",
"8%	c #324015",
"9%	c #2A3B11",
"0%	c #23340F",
"a%	c #304713",
"b%	c #2B3F12",
"c%	c #2A3E11",
"d%	c #3D5223",
"e%	c #4D5839",
"f%	c #5A6248",
"g%	c #394A23",
"h%	c #24350E",
"i%	c #344C16",
"j%	c #22350E",
"k%	c #20320E",
"l%	c #2F3D13",
"m%	c #25350F",
"n%	c #293B0E",
"o%	c #2E4211",
"p%	c #28380F",
"q%	c #304113",
"r%	c #3E5917",
"s%	c #334C14",
"t%	c #344F15",
"u%	c #3C5917",
"v%	c #354D15",
"w%	c #2F3B13",
"x%	c #394A19",
"y%	c #2E3214",
"z%	c #283411",
"A%	c #314715",
"B%	c #364014",
"C%	c #364419",
"D%	c #3D412D",
"E%	c #86837C",
"F%	c #909285",
"G%	c #44592B",
"H%	c #405718",
"I%	c #344013",
"J%	c #394217",
"K%	c #42401D",
"L%	c #2E3216",
"M%	c #353F1A",
"N%	c #2B3614",
"O%	c #3C531A",
"P%	c #384E14",
"Q%	c #2D3E10",
"R%	c #2C390F",
"S%	c #334113",
"T%	c #303C13",
"U%	c #2D2F13",
"V%	c #3D421B",
"W%	c #3E4B1B",
"X%	c #42551D",
"Y%	c #363B19",
"Z%	c #343C18",
"`%	c #2A3412",
" &	c #354A17",
".&	c #434E34",
"+&	c #6F7265",
"@&	c #66635A",
"#&	c #7D7B73",
"$&	c #99998F",
"%&	c #898780",
"&&	c #9E9E95",
"*&	c #646A57",
"=&	c #3A4C20",
"-&	c #2E4412",
";&	c #2E4212",
">&	c #2B3B11",
",&	c #2D3B11",
"'&	c #2B3B10",
")&	c #304314",
"!&	c #253411",
"~&	c #2A3D0F",
"{&	c #374A14",
"]&	c #364E16",
"^&	c #304613",
"/&	c #27380F",
"(&	c #2C4311",
"_&	c #3A5314",
":&	c #2F4613",
"<&	c #344B13",
"[&	c #2F4112",
"}&	c #2E4311",
"|&	c #425522",
"1&	c #444D31",
"2&	c #464C37",
"3&	c #41441B",
"4&	c #544C25",
"5&	c #404B1C",
"6&	c #323619",
"7&	c #343D1A",
"8&	c #3F541F",
"9&	c #394E19",
"0&	c #324815",
"a&	c #454F19",
"b&	c #393A17",
"c&	c #363C17",
"d&	c #342E16",
"e&	c #353019",
"f&	c #352C18",
"g&	c #3E491B",
"h&	c #373D1B",
"i&	c #323E16",
"j&	c #2B3611",
"k&	c #304712",
"l&	c #374E14",
"m&	c #2D4313",
"n&	c #424E30",
"o&	c #9A9C91",
"p&	c #A8A5A0",
"q&	c #A3A19B",
"r&	c #6A665F",
"s&	c #84817A",
"t&	c #A29F9B",
"u&	c #9A9691",
"v&	c #8E8C85",
"w&	c #959A8A",
"x&	c #646C59",
"y&	c #314517",
"z&	c #334616",
"A&	c #2B3F10",
"B&	c #314612",
"C&	c #29360F",
"D&	c #27370F",
"E&	c #23330E",
"F&	c #293E10",
"G&	c #2D4111",
"H&	c #354E14",
"I&	c #3E5316",
"J&	c #374E16",
"K&	c #344819",
"L&	c #2B3B15",
"M&	c #3E5A18",
"N&	c #314913",
"O&	c #2F3E12",
"P&	c #3B4E17",
"Q&	c #344613",
"R&	c #3B5315",
"S&	c #344914",
"T&	c #364819",
"U&	c #484E1C",
"V&	c #3D431B",
"W&	c #3E4D1D",
"X&	c #3A4B1B",
"Y&	c #314316",
"Z&	c #304214",
"`&	c #2C3D14",
" *	c #314815",
".*	c #314914",
"+*	c #404A1A",
"@*	c #39391A",
"#*	c #37361B",
"$*	c #38341A",
"%*	c #333619",
"&*	c #322918",
"**	c #3B391C",
"=*	c #2E3617",
"-*	c #373F1A",
";*	c #363F19",
">*	c #313B14",
",*	c #314413",
"'*	c #344C12",
")*	c #2E4413",
"!*	c #3C482E",
"~*	c #727169",
"{*	c #A4A29D",
"]*	c #908D88",
"^*	c #A7A5A1",
"/*	c #93908B",
"(*	c #9A9791",
"_*	c #97948E",
":*	c #7F7B76",
"<*	c #92918A",
"[*	c #707564",
"}*	c #344A15",
"|*	c #3A541A",
"1*	c #455331",
"2*	c #334912",
"3*	c #355014",
"4*	c #24320D",
"5*	c #364E14",
"6*	c #20300D",
"7*	c #354814",
"8*	c #3F551D",
"9*	c #3A4822",
"0*	c #808275",
"a*	c #909287",
"b*	c #7C7E72",
"c*	c #8A8F80",
"d*	c #5C6C4B",
"e*	c #324514",
"f*	c #3D5115",
"g*	c #394E15",
"h*	c #374D14",
"i*	c #394824",
"j*	c #7A7E6C",
"k*	c #787D63",
"l*	c #3E4F1D",
"m*	c #3D5319",
"n*	c #324813",
"o*	c #415617",
"p*	c #3D5819",
"q*	c #334515",
"r*	c #2F3D14",
"s*	c #2D3A14",
"t*	c #304515",
"u*	c #38461C",
"v*	c #3B3D1D",
"w*	c #36391C",
"x*	c #374B18",
"y*	c #314215",
"z*	c #2E3A14",
"A*	c #324614",
"B*	c #34481B",
"C*	c #26390F",
"D*	c #24390F",
"E*	c #2F4019",
"F*	c #666759",
"G*	c #68635C",
"H*	c #706B64",
"I*	c #75716A",
"J*	c #84827A",
"K*	c #96958E",
"L*	c #9D9B96",
"M*	c #5A5D4C",
"N*	c #374A17",
"O*	c #3A511A",
"P*	c #596840",
"Q*	c #3F501B",
"R*	c #353D16",
"S*	c #374116",
"T*	c #3A4A17",
"U*	c #334313",
"V*	c #2C4111",
"W*	c #304411",
"X*	c #3A4616",
"Y*	c #354018",
"Z*	c #334618",
"`*	c #3F4E1A",
" =	c #524F41",
".=	c #817E78",
"+=	c #625E55",
"@=	c #817E79",
"#=	c #535E46",
"$=	c #38491C",
"%=	c #3D5216",
"&=	c #3D5117",
"*=	c #374C1C",
"==	c #6D6B62",
"-=	c #676D59",
";=	c #304416",
">=	c #384D14",
",=	c #334814",
"'=	c #354C14",
")=	c #334A14",
"!=	c #374C14",
"~=	c #2E4111",
"{=	c #324A13",
"]=	c #324714",
"^=	c #304014",
"/=	c #304116",
"(=	c #3A4E19",
"_=	c #354318",
":=	c #3D511C",
"<=	c #354C15",
"[=	c #2F4514",
"}=	c #2A3612",
"|=	c #4B523C",
"1=	c #898C7E",
"2=	c #666A5E",
"3=	c #2F3D21",
"4=	c #2E4117",
"5=	c #575B47",
"6=	c #74706A",
"7=	c #8D8B84",
"8=	c #82807A",
"9=	c #75726A",
"0=	c #9F9F97",
"a=	c #6E7265",
"b=	c #38431C",
"c=	c #464620",
"d=	c #354016",
"e=	c #43541F",
"f=	c #3D5016",
"g=	c #313913",
"h=	c #2A2E12",
"i=	c #373A16",
"j=	c #2F3514",
"k=	c #324215",
"l=	c #2C4113",
"m=	c #375215",
"n=	c #364D15",
"o=	c #334816",
"p=	c #334315",
"q=	c #2D3417",
"r=	c #69665E",
"s=	c #5E5B51",
"t=	c #646556",
"u=	c #7B7C71",
"v=	c #7A7B6F",
"w=	c #314319",
"x=	c #2C4411",
"y=	c #30451C",
"z=	c #78786B",
"A=	c #4E5A3E",
"B=	c #2B4212",
"C=	c #2C3E11",
"D=	c #2A4010",
"E=	c #2F4313",
"F=	c #2C3E12",
"G=	c #364216",
"H=	c #314318",
"I=	c #354F17",
"J=	c #394F19",
"K=	c #3C5019",
"L=	c #395317",
"M=	c #2D4513",
"N=	c #2E4318",
"O=	c #2D4317",
"P=	c #525D41",
"Q=	c #9A9893",
"R=	c #9E9C97",
"S=	c #85867B",
"T=	c #6E7264",
"U=	c #475E2F",
"V=	c #34441A",
"W=	c #585D4A",
"X=	c #96958D",
"Y=	c #5A584D",
"Z=	c #353D24",
"`=	c #384820",
" -	c #485634",
".-	c #384316",
"+-	c #3E501B",
"@-	c #3E5315",
"#-	c #2E3812",
"$-	c #344019",
"%-	c #2F3E17",
"&-	c #293915",
"*-	c #354D13",
"=-	c #384E15",
"--	c #385015",
";-	c #3C4E15",
">-	c #304213",
",-	c #394125",
"'-	c #5B604B",
")-	c #34441C",
"!-	c #3E4D2B",
"~-	c #596547",
"{-	c #3C4E22",
"]-	c #2E430F",
"^-	c #364B15",
"/-	c #2F4317",
"(-	c #767A6B",
"_-	c #3D4E29",
":-	c #2A3C10",
"<-	c #395115",
"[-	c #324612",
"}-	c #3F5816",
"|-	c #314312",
"1-	c #344515",
"2-	c #354316",
"3-	c #2F4515",
"4-	c #2F3E15",
"5-	c #364B1A",
"6-	c #334916",
"7-	c #3D5125",
"8-	c #5E6453",
"9-	c #8A8A82",
"0-	c #6E7562",
"a-	c #394D1D",
"b-	c #A6A39F",
"c-	c #726E69",
"d-	c #8E8A86",
"e-	c #B7B7B0",
"f-	c #89917C",
"g-	c #4F6037",
"h-	c #464E32",
"i-	c #555A45",
"j-	c #4C4E3E",
"k-	c #6F7160",
"l-	c #A09F98",
"m-	c #85887B",
"n-	c #364B18",
"o-	c #324B15",
"p-	c #363D16",
"q-	c #3C4519",
"r-	c #293A11",
"s-	c #293C11",
"t-	c #2C4213",
"u-	c #3D5317",
"v-	c #2A3710",
"w-	c #2E3F12",
"x-	c #46581B",
"y-	c #2D4113",
"z-	c #2B3D12",
"A-	c #394415",
"B-	c #314411",
"C-	c #3F5715",
"D-	c #374B13",
"E-	c #485435",
"F-	c #334717",
"G-	c #2F4512",
"H-	c #2A3A16",
"I-	c #425131",
"J-	c #6B6D61",
"K-	c #3B472A",
"L-	c #27390F",
"M-	c #344B12",
"N-	c #334212",
"O-	c #303E15",
"P-	c #253710",
"Q-	c #A2A49A",
"R-	c #A3A19C",
"S-	c #7E7A75",
"T-	c #8C8B83",
"U-	c #3D4E26",
"V-	c #75756C",
"W-	c #A19E9A",
"X-	c #76716B",
"Y-	c #9C9995",
"Z-	c #7E7D73",
"`-	c #43502B",
" ;	c #9B9C91",
".;	c #AEADA4",
"+;	c #87877A",
"@;	c #737068",
"#;	c #8E8B86",
"$;	c #75796C",
"%;	c #575E4C",
"&;	c #475136",
"*;	c #394F14",
"=;	c #395315",
"-;	c #2D4212",
";;	c #293712",
">;	c #2C3D16",
",;	c #263510",
"';	c #374717",
");	c #2E3F11",
"!;	c #2A3811",
"~;	c #2F3413",
"{;	c #262F10",
"];	c #303E12",
"^;	c #28370E",
"/;	c #394C14",
"(;	c #364913",
"_;	c #2F4414",
":;	c #3B4A22",
"<;	c #525646",
"[;	c #84867B",
"};	c #9B9893",
"|;	c #A3A09C",
"1;	c #85847E",
"2;	c #2D3A1E",
"3;	c #3A452C",
"4;	c #343F20",
"5;	c #384518",
"6;	c #323C14",
"7;	c #2F3A13",
"8;	c #28390F",
"9;	c #2A3A12",
"0;	c #404C2F",
"a;	c #777C6B",
"b;	c #B1AFAA",
"c;	c #B3B2AD",
"d;	c #A09E99",
"e;	c #87837E",
"f;	c #4E5343",
"g;	c #515443",
"h;	c #88847F",
"i;	c #999691",
"j;	c #827D79",
"k;	c #A19F9A",
"l;	c #595C4D",
"m;	c #35441B",
"n;	c #A4A39E",
"o;	c #A5A39E",
"p;	c #A9A8A2",
"q;	c #8C8983",
"r;	c #7A7B71",
"s;	c #465532",
"t;	c #464E36",
"u;	c #6D725E",
"v;	c #3E5222",
"w;	c #405717",
"x;	c #324915",
"y;	c #2F4513",
"z;	c #3C5617",
"A;	c #313815",
"B;	c #2F3215",
"C;	c #2A3411",
"D;	c #28330F",
"E;	c #2B3712",
"F;	c #2B3B12",
"G;	c #314013",
"H;	c #2C3811",
"I;	c #2C3B12",
"J;	c #303C14",
"K;	c #2A2912",
"L;	c #354715",
"M;	c #363A15",
"N;	c #343015",
"O;	c #3D4A1C",
"P;	c #425227",
"Q;	c #384915",
"R;	c #505A3E",
"S;	c #908E88",
"T;	c #8F8D88",
"U;	c #9E9B97",
"V;	c #96928D",
"W;	c #B2B0AB",
"X;	c #919189",
"Y;	c #656B59",
"Z;	c #B4B2AE",
"`;	c #A1A09A",
" >	c #75746C",
".>	c #646456",
"+>	c #384222",
"@>	c #2A3B13",
"#>	c #505544",
"$>	c #78756F",
"%>	c #817C77",
"&>	c #AEACA7",
"*>	c #979790",
"=>	c #626854",
"->	c #3F512C",
";>	c #354B19",
">>	c #474E38",
",>	c #5B5A51",
"'>	c #8E8C86",
")>	c #7D7972",
"!>	c #666359",
"~>	c #3A481E",
"{>	c #3B4D1A",
"]>	c #7C7971",
"^>	c #97948F",
"/>	c #96948E",
"(>	c #545B43",
"_>	c #525C41",
":>	c #606753",
"<>	c #395016",
"[>	c #37491D",
"}>	c #3B4D24",
"|>	c #344014",
"1>	c #333E14",
"2>	c #2A2814",
"3>	c #313A17",
"4>	c #343E15",
"5>	c #374A16",
"6>	c #334614",
"7>	c #344115",
"8>	c #384216",
"9>	c #373D18",
"0>	c #40381E",
"a>	c #323618",
"b>	c #363818",
"c>	c #3F3B1A",
"d>	c #3C2E1A",
"e>	c #41361D",
"f>	c #364316",
"g>	c #384716",
"h>	c #333E13",
"i>	c #485C22",
"j>	c #6B6C5A",
"k>	c #85837C",
"l>	c #B9B8B4",
"m>	c #75766E",
"n>	c #585B4E",
"o>	c #9B9993",
"p>	c #8F9088",
"q>	c #5A5F4F",
"r>	c #434B32",
"s>	c #34451F",
"t>	c #6D7160",
"u>	c #475135",
"v>	c #67615A",
"w>	c #504D3F",
"x>	c #40422F",
"y>	c #394C22",
"z>	c #3E5617",
"A>	c #21310C",
"B>	c #2E4512",
"C>	c #2B4113",
"D>	c #374720",
"E>	c #4B5A31",
"F>	c #374224",
"G>	c #344912",
"H>	c #3A4919",
"I>	c #817F79",
"J>	c #76756C",
"K>	c #475236",
"L>	c #717863",
"M>	c #807D75",
"N>	c #91908A",
"O>	c #374028",
"P>	c #304013",
"Q>	c #2C3C11",
"R>	c #20310D",
"S>	c #384F16",
"T>	c #2F3816",
"U>	c #272E12",
"V>	c #303B16",
"W>	c #282F14",
"X>	c #314115",
"Y>	c #324414",
"Z>	c #42571C",
"`>	c #313B15",
" ,	c #464121",
".,	c #3D3E1C",
"+,	c #343A19",
"@,	c #39341C",
"#,	c #323219",
"$,	c #303914",
"%,	c #363A17",
"&,	c #334115",
"*,	c #33411A",
"=,	c #616851",
"-,	c #5F5F51",
";,	c #6B6760",
">,	c #7C7972",
",,	c #606355",
"',	c #283414",
"),	c #2D3C19",
"!,	c #283C13",
"~,	c #21320E",
"{,	c #34441B",
"],	c #6D6F64",
"^,	c #7D7973",
"/,	c #575A4C",
"(,	c #31311A",
"_,	c #453C30",
":,	c #353E19",
"<,	c #2A3B12",
"[,	c #26380F",
"},	c #2B4111",
"|,	c #253A0E",
"1,	c #263A10",
"2,	c #22320E",
"3,	c #3C5616",
"4,	c #384A15",
"5,	c #3F462E",
"6,	c #3F4D2E",
"7,	c #707660",
"8,	c #9E9D96",
"9,	c #989790",
"0,	c #8C8A84",
"a,	c #7B8070",
"b,	c #2E4015",
"c,	c #3B4F17",
"d,	c #273A0F",
"e,	c #2D4312",
"f,	c #2B3F13",
"g,	c #2D3D15",
"h,	c #364818",
"i,	c #385417",
"j,	c #304814",
"k,	c #2D4512",
"l,	c #40481B",
"m,	c #3B401A",
"n,	c #41381E",
"o,	c #3B371B",
"p,	c #283513",
"q,	c #334415",
"r,	c #333514",
"s,	c #323917",
"t,	c #2D3B15",
"u,	c #273414",
"v,	c #293611",
"w,	c #293314",
"x,	c #333417",
"y,	c #292D11",
"z,	c #253311",
"A,	c #4C4F3D",
"B,	c #888580",
"C,	c #74736B",
"D,	c #2E3A18",
"E,	c #2D3816",
"F,	c #273B11",
"G,	c #324913",
"H,	c #25340E",
"I,	c #263A0F",
"J,	c #304A14",
"K,	c #304913",
"L,	c #3A452A",
"M,	c #ABACA4",
"N,	c #B3B1AC",
"O,	c #92908A",
"P,	c #9D9D95",
"Q,	c #87867C",
"R,	c #84847B",
"S,	c #324120",
"T,	c #2D3E11",
"U,	c #253810",
"V,	c #283E12",
"W,	c #364416",
"X,	c #394018",
"Y,	c #384517",
"Z,	c #2E4416",
"`,	c #345215",
" '	c #2C3D13",
".'	c #36441C",
"+'	c #353C19",
"@'	c #3B3C1B",
"#'	c #40381D",
"$'	c #312F18",
"%'	c #303817",
"&'	c #253210",
"*'	c #273111",
"='	c #353716",
"-'	c #2D2E14",
";'	c #35441A",
">'	c #344817",
",'	c #283910",
"''	c #2E3C13",
")'	c #374517",
"!'	c #2E2E13",
"~'	c #2B2C12",
"{'	c #2C3C13",
"]'	c #58624A",
"^'	c #B6B4AF",
"/'	c #A8A7A1",
"('	c #434A35",
"_'	c #27340F",
":'	c #26350E",
"<'	c #2F4013",
"['	c #334B14",
"}'	c #344021",
"|'	c #ADAEA5",
"1'	c #A1A398",
"2'	c #9E9D95",
"3'	c #7F7D74",
"4'	c #98988F",
"5'	c #5E6354",
"6'	c #24370F",
"7'	c #24380F",
"8'	c #2A4111",
"9'	c #3E5C17",
"0'	c #394817",
"a'	c #434D1F",
"b'	c #3B501D",
"c'	c #2E4516",
"d'	c #3A4B15",
"e'	c #354D17",
"f'	c #303A13",
"g'	c #3B391A",
"h'	c #353718",
"i'	c #363E1B",
"j'	c #354319",
"k'	c #343815",
"l'	c #363619",
"m'	c #343D1B",
"n'	c #384B15",
"o'	c #344415",
"p'	c #2D3914",
"q'	c #5F6752",
"r'	c #9A9892",
"s'	c #8D8A85",
"t'	c #7B7670",
"u'	c #7C7A74",
"v'	c #6C6E64",
"w'	c #36491C",
"x'	c #283B0F",
"y'	c #2F3F13",
"z'	c #334217",
"A'	c #2C4017",
"B'	c #293717",
"C'	c #32421E",
"D'	c #2F3A21",
"E'	c #394625",
"F'	c #324616",
"G'	c #324615",
"H'	c #6D6962",
"I'	c #94928C",
"J'	c #ABA9A5",
"K'	c #96968D",
"L'	c #9B9A94",
"M'	c #324023",
"N'	c #2B3D10",
"O'	c #413B1B",
"P'	c #374019",
"Q'	c #2D4413",
"R'	c #294011",
"S'	c #2B4012",
"T'	c #2F2E14",
"U'	c #3D331D",
"V'	c #38301B",
"W'	c #3D3A1D",
"X'	c #2E3E16",
"Y'	c #374015",
"Z'	c #302E13",
"`'	c #383518",
" )	c #51513A",
".)	c #5E694A",
"+)	c #5F7549",
"@)	c #435B28",
"#)	c #374D1D",
"$)	c #4E5F37",
"%)	c #616E48",
"&)	c #3E4A2A",
"*)	c #7C7E6F",
"=)	c #8D8A84",
"-)	c #6C715F",
";)	c #4B5736",
">)	c #2A3B14",
",)	c #283B11",
"')	c #2F3B14",
"))	c #52583F",
"!)	c #86897B",
"~)	c #6A685E",
"{)	c #6D6D62",
"])	c #6A6F5D",
"^)	c #495439",
"/)	c #2D4214",
"()	c #324512",
"_)	c #2A3111",
":)	c #524D44",
"<)	c #83807B",
"[)	c #87847E",
"})	c #ADABA6",
"|)	c #B8B6B2",
"1)	c #A6A49F",
"2)	c #556148",
"3)	c #334A12",
"4)	c #3B4717",
"5)	c #374815",
"6)	c #344D14",
"7)	c #2F3818",
"8)	c #263215",
"9)	c #2E4612",
"0)	c #343618",
"a)	c #292B15",
"b)	c #353319",
"c)	c #3F4321",
"d)	c #363517",
"e)	c #3C3619",
"f)	c #484734",
"g)	c #8F8F80",
"h)	c #A0A096",
"i)	c #989B8E",
"j)	c #5A624D",
"k)	c #67685C",
"l)	c #807D77",
"m)	c #78746D",
"n)	c #817F76",
"o)	c #485534",
"p)	c #48582D",
"q)	c #3F5A21",
"r)	c #2E4019",
"s)	c #2A381B",
"t)	c #2F4116",
"u)	c #324513",
"v)	c #353616",
"w)	c #383527",
"x)	c #68655D",
"y)	c #59604B",
"z)	c #3B5022",
"A)	c #324918",
"B)	c #283410",
"C)	c #394A16",
"D)	c #333D16",
"E)	c #413D30",
"F)	c #746F69",
"G)	c #6F6A63",
"H)	c #97958F",
"I)	c #878580",
"J)	c #4B5140",
"K)	c #2B3E15",
"L)	c #334714",
"M)	c #273610",
"N)	c #3F5717",
"O)	c #364616",
"P)	c #344217",
"Q)	c #333C16",
"R)	c #372C18",
"S)	c #363F1B",
"T)	c #2F3717",
"U)	c #393A27",
"V)	c #727167",
"W)	c #8F8D85",
"X)	c #999A90",
"Y)	c #575D4C",
"Z)	c #9B9994",
"`)	c #928F8A",
" !	c #84817B",
".!	c #4F5A3F",
"+!	c #808075",
"@!	c #8B8B82",
"#!	c #86877D",
"$!	c #838578",
"%!	c #767C6A",
"&!	c #263911",
"*!	c #2D3915",
"=!	c #383C19",
"-!	c #303716",
";!	c #344318",
">!	c #3A3E1C",
",!	c #25390F",
"'!	c #2B3813",
")!	c #3C491A",
"!!	c #323916",
"~!	c #4C4939",
"{!	c #948F87",
"]!	c #77726A",
"^!	c #68645B",
"/!	c #7F7E75",
"(!	c #334713",
"_!	c #394B14",
":!	c #304011",
"<!	c #2C4412",
"[!	c #2E4712",
"}!	c #2D4112",
"|!	c #2B3E11",
"1!	c #2D3A13",
"2!	c #313D16",
"3!	c #2F4215",
"4!	c #2F4612",
"5!	c #304413",
"6!	c #394F17",
"7!	c #3B4516",
"8!	c #303414",
"9!	c #483E1F",
"0!	c #44371E",
"a!	c #393F1C",
"b!	c #37491A",
"c!	c #323E1D",
"d!	c #6C6A61",
"e!	c #A8A7A0",
"f!	c #A8A6A0",
"g!	c #737966",
"h!	c #827F7A",
"i!	c #979690",
"j!	c #79766E",
"k!	c #A1A19A",
"l!	c #4F5F3C",
"m!	c #96948F",
"n!	c #9F9C98",
"o!	c #7E7E74",
"p!	c #2B381A",
"q!	c #21300F",
"r!	c #2A3814",
"s!	c #303C15",
"t!	c #2E4313",
"u!	c #2B3713",
"v!	c #394E18",
"w!	c #384919",
"x!	c #44541B",
"y!	c #383A26",
"z!	c #9B9A8D",
"A!	c #A2A396",
"B!	c #747266",
"C!	c #484C34",
"D!	c #28370F",
"E!	c #334519",
"F!	c #3A4821",
"G!	c #283C10",
"H!	c #2D4311",
"I!	c #344219",
"J!	c #2D3F15",
"K!	c #263711",
"L!	c #23340E",
"M!	c #293B0F",
"N!	c #454F1D",
"O!	c #3F461D",
"P!	c #324017",
"Q!	c #303616",
"R!	c #362D19",
"S!	c #3A3A1C",
"T!	c #2E3616",
"U!	c #2C3A11",
"V!	c #3F4725",
"W!	c #585B4B",
"X!	c #42532C",
"Y!	c #3D4D1E",
"Z!	c #3C4D25",
"`!	c #53633C",
" ~	c #545B47",
".~	c #414F2E",
"+~	c #9A9792",
"@~	c #B6B4B0",
"#~	c #928E8A",
"$~	c #A7A5A0",
"%~	c #464E3D",
"&~	c #2B3D13",
"*~	c #283A11",
"=~	c #2E4614",
"-~	c #4D6430",
";~	c #37461C",
">~	c #354916",
",~	c #5E5F51",
"'~	c #6F6E62",
")~	c #3F4125",
"!~	c #2F3C13",
"~~	c #576146",
"{~	c #85857D",
"]~	c #404B2C",
"^~	c #283C11",
"/~	c #2D3B12",
"(~	c #2A3712",
"_~	c #283212",
":~	c #2F4316",
"<~	c #3A4118",
"[~	c #3A3C1A",
"}~	c #43511E",
"|~	c #3C4418",
"1~	c #333915",
"2~	c #342E19",
"3~	c #313619",
"4~	c #2C3614",
"5~	c #262E0F",
"6~	c #384326",
"7~	c #535D44",
"8~	c #626956",
"9~	c #95938D",
"0~	c #465235",
"a~	c #3B5417",
"b~	c #2F4212",
"c~	c #36491B",
"d~	c #6F6D65",
"e~	c #AAA8A4",
"f~	c #BCBAB6",
"g~	c #6C6F63",
"h~	c #24340F",
"i~	c #304212",
"j~	c #304110",
"k~	c #2F4412",
"l~	c #4A5D37",
"m~	c #8F8F86",
"n~	c #5F6F49",
"o~	c #385216",
"p~	c #2E4113",
"q~	c #313D17",
"r~	c #3B4C1E",
"s~	c #686E54",
"t~	c #8A8882",
"u~	c #888680",
"v~	c #33401F",
"w~	c #293D0F",
"x~	c #2F4214",
"y~	c #2D3512",
"z~	c #313616",
"A~	c #434F1A",
"B~	c #314119",
"C~	c #364C17",
"D~	c #2A3F12",
"E~	c #354912",
"F~	c #394017",
"G~	c #3B3A1C",
"H~	c #3A421B",
"I~	c #353B16",
"J~	c #353C1A",
"K~	c #3D491C",
"L~	c #2E3413",
"M~	c #222C0E",
"N~	c #404624",
"O~	c #999890",
"P~	c #A5A49E",
"Q~	c #565D47",
"R~	c #3A5115",
"S~	c #304A13",
"T~	c #425029",
"U~	c #767468",
"V~	c #8C8884",
"W~	c #A9A7A3",
"X~	c #84867C",
"Y~	c #283B12",
"Z~	c #354B13",
"`~	c #2F3B11",
" {	c #26340E",
".{	c #222F0C",
"+{	c #2B4110",
"@{	c #334E14",
"#{	c #374A1E",
"${	c #5F5E54",
"%{	c #4C563C",
"&{	c #41451A",
"*{	c #3C4119",
"={	c #364017",
"-{	c #3D4429",
";{	c #505141",
">{	c #6E6B63",
",{	c #686A5D",
"'{	c #1D2C0C",
"){	c #273B10",
"!{	c #333715",
"~{	c #343518",
"{{	c #2B3C13",
"]{	c #385116",
"^{	c #283811",
"/{	c #24360E",
"({	c #2E4411",
"_{	c #3D491E",
":{	c #394B19",
"<{	c #394A17",
"[{	c #344317",
"}{	c #3A4818",
"|{	c #333C15",
"1{	c #2D3113",
"2{	c #34301A",
"3{	c #5C5C4F",
"4{	c #49523D",
"5{	c #2F4415",
"6{	c #395416",
"7{	c #2F4712",
"8{	c #3E482B",
"9{	c #B6B3AF",
"0{	c #374627",
"a{	c #1F2A0D",
"b{	c #364815",
"c{	c #2C3411",
"d{	c #212F0D",
"e{	c #355115",
"f{	c #344413",
"g{	c #2D3E13",
"h{	c #364A17",
"i{	c #3F581B",
"j{	c #3A4D1A",
"k{	c #3C541F",
"l{	c #44562C",
"m{	c #364D17",
"n{	c #434E30",
"o{	c #212F0E",
"p{	c #384417",
"q{	c #363819",
"r{	c #314012",
"s{	c #2A3B10",
"t{	c #334812",
"u{	c #2F4310",
"v{	c #293E0F",
"w{	c #2C3E14",
"x{	c #304514",
"y{	c #344616",
"z{	c #42571B",
"A{	c #3A4718",
"B{	c #3E411A",
"C{	c #302B14",
"D{	c #343E1D",
"E{	c #293A13",
"F{	c #263610",
"G{	c #314121",
"H{	c #30421E",
"I{	c #243610",
"J{	c #344F14",
"K{	c #2E3F18",
"L{	c #3A3E2C",
"M{	c #2F3E1C",
"N{	c #2E4112",
"O{	c #263310",
"P{	c #323F13",
"Q{	c #2A2B12",
"R{	c #2B3910",
"S{	c #1E2A0B",
"T{	c #253B0F",
"U{	c #24350D",
"V{	c #2F4110",
"W{	c #364C11",
"X{	c #3A5215",
"Y{	c #334413",
"Z{	c #324B14",
"`{	c #2C4211",
" ]	c #344615",
".]	c #354617",
"+]	c #354B15",
"@]	c #3F5917",
"#]	c #374424",
"$]	c #87887E",
"%]	c #4C583D",
"&]	c #334216",
"*]	c #354C16",
"=]	c #313914",
"-]	c #303517",
";]	c #384F13",
">]	c #293811",
",]	c #2D3F10",
"']	c #2B4010",
")]	c #2F4111",
"!]	c #313C14",
"~]	c #283610",
"{]	c #2F3914",
"]]	c #3C481C",
"^]	c #2E3E15",
"/]	c #2C3B17",
"(]	c #4C5341",
"_]	c #92918B",
":]	c #898A7F",
"<]	c #5B644F",
"[]	c #23370E",
"}]	c #283810",
"|]	c #353418",
"1]	c #312E17",
"2]	c #353E16",
"3]	c #2A340F",
"4]	c #283A0E",
"5]	c #334712",
"6]	c #2E4511",
"7]	c #345014",
"8]	c #394A24",
"9]	c #495239",
"0]	c #364C19",
"a]	c #314415",
"b]	c #65685A",
"c]	c #737369",
"d]	c #3E4620",
"e]	c #383C18",
"f]	c #2D3C13",
"g]	c #334114",
"h]	c #312F17",
"i]	c #242A12",
"j]	c #303C16",
"k]	c #344414",
"l]	c #344913",
"m]	c #324D14",
"n]	c #304914",
"o]	c #303F12",
"p]	c #2C3912",
"q]	c #2D3313",
"r]	c #282F11",
"s]	c #2D3814",
"t]	c #444E33",
"u]	c #7D7E75",
"v]	c #7C7771",
"w]	c #A9A6A2",
"x]	c #505542",
"y]	c #344D15",
"z]	c #324C14",
"A]	c #1F2F0D",
"B]	c #2D3D12",
"C]	c #2F3313",
"D]	c #373117",
"E]	c #2E2D17",
"F]	c #2C2814",
"G]	c #323017",
"H]	c #2C3011",
"I]	c #304012",
"J]	c #2F3E13",
"K]	c #334015",
"L]	c #2C3A12",
"M]	c #314711",
"N]	c #394A14",
"O]	c #314912",
"P]	c #365014",
"Q]	c #3A4D17",
"R]	c #76766C",
"S]	c #5E6052",
"T]	c #374515",
"U]	c #3B411A",
"V]	c #4D4F3D",
"W]	c #434B30",
"X]	c #384617",
"Y]	c #313D14",
"Z]	c #2F2B13",
"`]	c #473B1F",
" ^	c #292813",
".^	c #2B3A14",
"+^	c #344617",
"@^	c #3C5115",
"#^	c #304812",
"$^	c #435A18",
"%^	c #304111",
"&^	c #313B13",
"*^	c #333614",
"=^	c #373416",
"-^	c #3A4316",
";^	c #3C461E",
">^	c #727562",
",^	c #AAA8A1",
"'^	c #AAA9A3",
")^	c #7D7975",
"!^	c #9B9D91",
"~^	c #344321",
"{^	c #2F2D15",
"]^	c #322B19",
"^^	c #36351B",
"/^	c #35361A",
"(^	c #323118",
"_^	c #353118",
":^	c #2C2C14",
"<^	c #23200F",
"[^	c #2D2A13",
"}^	c #2F3513",
"|^	c #2E3E12",
"1^	c #363F18",
"2^	c #313717",
"3^	c #2E4110",
"4^	c #374F15",
"5^	c #414828",
"6^	c #334117",
"7^	c #475531",
"8^	c #807E77",
"9^	c #94928D",
"0^	c #444B2E",
"a^	c #323413",
"b^	c #2E3416",
"c^	c #3E4C22",
"d^	c #323814",
"e^	c #353115",
"f^	c #44361E",
"g^	c #332818",
"h^	c #2B2715",
"i^	c #283114",
"j^	c #263611",
"k^	c #374C13",
"l^	c #3D5116",
"m^	c #3B4E15",
"n^	c #314112",
"o^	c #273110",
"p^	c #395216",
"q^	c #37471A",
"r^	c #494C3A",
"s^	c #9C9A94",
"t^	c #929089",
"u^	c #A3A49B",
"v^	c #919089",
"w^	c #7B7772",
"x^	c #4A513D",
"y^	c #253410",
"z^	c #202D0D",
"A^	c #282D10",
"B^	c #2C3012",
"C^	c #343917",
"D^	c #343317",
"E^	c #323418",
"F^	c #383E1C",
"G^	c #2B3017",
"H^	c #31361A",
"I^	c #35361B",
"J^	c #322A18",
"K^	c #2B2915",
"L^	c #2D3216",
"M^	c #322B16",
"N^	c #333818",
"O^	c #262611",
"P^	c #2B2B13",
"Q^	c #2E3015",
"R^	c #353719",
"S^	c #333D15",
"T^	c #394713",
"U^	c #405617",
"V^	c #495C2F",
"W^	c #66675A",
"X^	c #32411E",
"Y^	c #586646",
"Z^	c #7A7770",
"`^	c #8B8982",
" /	c #39321D",
"./	c #343B17",
"+/	c #364116",
"@/	c #3A4018",
"#/	c #393519",
"$/	c #35371C",
"%/	c #363A1D",
"&/	c #32391A",
"*/	c #1F270F",
"=/	c #364A12",
"-/	c #334914",
";/	c #3D5518",
">/	c #3D5019",
",/	c #3A4617",
"'/	c #3B4417",
")/	c #41431C",
"!/	c #565045",
"~/	c #726D66",
"{/	c #86857D",
"]/	c #555648",
"^/	c #222D0E",
"//	c #313014",
"(/	c #2F2C14",
"_/	c #3B351C",
":/	c #362E1A",
"</	c #372E1A",
"[/	c #3C451D",
"}/	c #2D3617",
"|/	c #313C1C",
"1/	c #363C1A",
"2/	c #322F1A",
"3/	c #35381A",
"4/	c #343617",
"5/	c #2F2B15",
"6/	c #323216",
"7/	c #3E451C",
"8/	c #2B2814",
"9/	c #312717",
"0/	c #2F3317",
"a/	c #313E18",
"b/	c #344119",
"c/	c #314314",
"d/	c #445917",
"e/	c #465C18",
"f/	c #375017",
"g/	c #454A37",
"h/	c #6D6D61",
"i/	c #3D4F26",
"j/	c #575D4A",
"k/	c #828076",
"l/	c #5A5E40",
"m/	c #40491D",
"n/	c #43531D",
"o/	c #3E511A",
"p/	c #3E4B1D",
"q/	c #405020",
"r/	c #3D491B",
"s/	c #38351A",
"t/	c #2E2915",
"u/	c #252410",
"v/	c #303112",
"w/	c #374814",
"x/	c #344713",
"y/	c #3C4D19",
"z/	c #3C4A19",
"A/	c #3E4919",
"B/	c #423F1B",
"C/	c #3F381B",
"D/	c #37311B",
"E/	c #8E8C83",
"F/	c #A8A79E",
"G/	c #8C8982",
"H/	c #84847A",
"I/	c #3C4525",
"J/	c #2D3B14",
"K/	c #2F3C14",
"L/	c #2B3612",
"M/	c #353617",
"N/	c #342E18",
"O/	c #38351C",
"P/	c #3B371D",
"Q/	c #39401A",
"R/	c #343B19",
"S/	c #34311B",
"T/	c #3A331A",
"U/	c #343318",
"V/	c #3B361A",
"W/	c #39301A",
"X/	c #393718",
"Y/	c #363118",
"Z/	c #2E2616",
"`/	c #333718",
" (	c #324814",
".(	c #374E15",
"+(	c #3B5314",
"@(	c #344D13",
"#(	c #3A4C23",
"$(	c #5B5B4F",
"%(	c #39402A",
"&(	c #3C4622",
"*(	c #3E4621",
"=(	c #3B4E19",
"-(	c #425E19",
";(	c #455D1D",
">(	c #364217",
",(	c #373316",
"'(	c #3A3E19",
")(	c #302E18",
"!(	c #373118",
"~(	c #2D3114",
"{(	c #3C4F17",
"](	c #2C3B11",
"^(	c #3C5117",
"/(	c #354616",
"((	c #353C16",
"_(	c #363116",
":(	c #3E3E1C",
"<(	c #354117",
"[(	c #394517",
"}(	c #3A421D",
"|(	c #59564B",
"1(	c #A3A399",
"2(	c #9C9D93",
"3(	c #8D8E83",
"4(	c #545C45",
"5(	c #374A18",
"6(	c #313915",
"7(	c #38461B",
"8(	c #3D411E",
"9(	c #383B1A",
"0(	c #373D1C",
"a(	c #36461A",
"b(	c #314317",
"c(	c #303E16",
"d(	c #363218",
"e(	c #353016",
"f(	c #3A371B",
"g(	c #3A351B",
"h(	c #2C2713",
"i(	c #312C16",
"j(	c #362C1A",
"k(	c #313415",
"l(	c #3A451B",
"m(	c #3B3E1F",
"n(	c #283310",
"o(	c #394D13",
"p(	c #3A4E13",
"q(	c #35471A",
"r(	c #3A4A29",
"s(	c #565A4C",
"t(	c #2F4017",
"u(	c #304912",
"v(	c #3D4E16",
"w(	c #3F471B",
"x(	c #484E1F",
"y(	c #38401A",
"z(	c #333016",
"A(	c #382A19",
"B(	c #342916",
"C(	c #313D15",
"D(	c #323D1A",
"E(	c #38421A",
"F(	c #394721",
"G(	c #747568",
"H(	c #8B8B81",
"I(	c #636755",
"J(	c #3D541B",
"K(	c #425C1A",
"L(	c #3D3919",
"M(	c #2D3815",
"N(	c #293412",
"O(	c #384616",
"P(	c #2C3F14",
"Q(	c #3E351D",
"R(	c #3E2F1D",
"S(	c #38321C",
"T(	c #454221",
"U(	c #343F17",
"V(	c #373719",
"W(	c #39361C",
"X(	c #303B15",
"Y(	c #303417",
"Z(	c #313116",
"`(	c #282E10",
" _	c #2F4311",
"._	c #626756",
"+_	c #606653",
"@_	c #364D13",
"#_	c #3F4A19",
"$_	c #3C4917",
"%_	c #354415",
"&_	c #313E16",
"*_	c #2C2B15",
"=_	c #312C17",
"-_	c #334913",
";_	c #354B12",
">_	c #2B3D11",
",_	c #293312",
"'_	c #323317",
")_	c #353816",
"!_	c #324317",
"~_	c #43522B",
"{_	c #807E76",
"]_	c #3F4A2E",
"^_	c #3E5817",
"/_	c #394417",
"(_	c #324116",
"__	c #2C3F13",
":_	c #314B15",
"<_	c #293C13",
"[_	c #303719",
"}_	c #303119",
"|_	c #35301A",
"1_	c #41421D",
"2_	c #3C3A19",
"3_	c #483B20",
"4_	c #494423",
"5_	c #333F15",
"6_	c #2F3F15",
"7_	c #313E17",
"8_	c #38481C",
"9_	c #252F0E",
"0_	c #26390E",
"a_	c #3C5315",
"b_	c #46592F",
"c_	c #94938C",
"d_	c #596448",
"e_	c #365016",
"f_	c #354215",
"g_	c #425919",
"h_	c #364B17",
"i_	c #2F3716",
"j_	c #2E2C15",
"k_	c #322F17",
"l_	c #384515",
"m_	c #364914",
"n_	c #444E2A",
"o_	c #53623C",
"p_	c #5F6552",
"q_	c #707363",
"r_	c #76786C",
"s_	c #6D745D",
"t_	c #596048",
"u_	c #3B4E1C",
"v_	c #334020",
"w_	c #273711",
"x_	c #3D4417",
"y_	c #3C4118",
"z_	c #343715",
"A_	c #324515",
"B_	c #2A3E12",
"C_	c #273C11",
"D_	c #33461C",
"E_	c #30411B",
"F_	c #314117",
"G_	c #2E3917",
"H_	c #37301A",
"I_	c #433D1F",
"J_	c #4A3E20",
"K_	c #2E3012",
"L_	c #364516",
"M_	c #364917",
"N_	c #273910",
"O_	c #26370E",
"P_	c #303713",
"Q_	c #2D4011",
"R_	c #6C6E61",
"S_	c #495733",
"T_	c #334024",
"U_	c #2D4314",
"V_	c #384C15",
"W_	c #3E4D18",
"X_	c #373F16",
"Y_	c #383D17",
"Z_	c #2C2512",
"`_	c #2E2D14",
" :	c #364018",
".:	c #2C3812",
"+:	c #324715",
"@:	c #75746A",
"#:	c #8F8F84",
"$:	c #84817C",
"%:	c #757169",
"&:	c #8F8E83",
"*:	c #3C4824",
"=:	c #2F4510",
"-:	c #344116",
";:	c #2A3D13",
">:	c #314813",
",:	c #2D4414",
"':	c #314A14",
"):	c #324415",
"!:	c #373B19",
"~:	c #404320",
"{:	c #3A3B1C",
"]:	c #3D321B",
"^:	c #3D371A",
"/:	c #43421C",
"(:	c #313515",
"_:	c #2B3711",
"::	c #2B2B12",
"<:	c #2C3312",
"[:	c #313E1E",
"}:	c #87847F",
"|:	c #3A4C24",
"1:	c #484F37",
"2:	c #87857F",
"3:	c #515646",
"4:	c #3D5617",
"5:	c #3E4D17",
"6:	c #394F16",
"7:	c #42441B",
"8:	c #393918",
"9:	c #2F2A14",
"0:	c #36421A",
"a:	c #324019",
"b:	c #344416",
"c:	c #425618",
"d:	c #3E471D",
"e:	c #3A4522",
"f:	c #3D462E",
"g:	c #414A31",
"h:	c #445128",
"i:	c #494D36",
"j:	c #474A2C",
"k:	c #344612",
"l:	c #374F14",
"m:	c #364F14",
"n:	c #3B5517",
"o:	c #22300F",
"p:	c #2A3F10",
"q:	c #263B10",
"r:	c #384E1A",
"s:	c #3A4C1E",
"t:	c #38411B",
"u:	c #424821",
"v:	c #3F411E",
"w:	c #2E2E16",
"x:	c #302E14",
"y:	c #303114",
"z:	c #364515",
"A:	c #2C3412",
"B:	c #2D3215",
"C:	c #606354",
"D:	c #AFADA8",
"E:	c #8A8782",
"F:	c #475032",
"G:	c #7E7D75",
"H:	c #75766D",
"I:	c #2F4511",
"J:	c #3A5515",
"K:	c #4C691D",
"L:	c #435C19",
"M:	c #364716",
"N:	c #383B16",
"O:	c #2F2E15",
"P:	c #353915",
"Q:	c #2C3B14",
"R:	c #2A3816",
"S:	c #354717",
"T:	c #394416",
"U:	c #263110",
"V:	c #3B4A17",
"W:	c #364615",
"X:	c #363E15",
"Y:	c #3E4823",
"Z:	c #3B4A20",
"`:	c #324312",
" <	c #354513",
".<	c #3A5517",
"+<	c #304215",
"@<	c #314514",
"#<	c #2A3711",
"$<	c #293212",
"%<	c #293911",
"&<	c #324C13",
"*<	c #304615",
"=<	c #364E18",
"-<	c #344918",
";<	c #394D1B",
"><	c #3F4A1E",
",<	c #41421F",
"'<	c #3B301B",
")<	c #2E2515",
"!<	c #323117",
"~<	c #383916",
"{<	c #353116",
"]<	c #2F2514",
"^<	c #2A3015",
"/<	c #35421A",
"(<	c #4E4D3D",
"_<	c #837F79",
":<	c #9D9B95",
"<<	c #8B8782",
"[<	c #4B553D",
"}<	c #365215",
"|<	c #3D4718",
"1<	c #3D4219",
"2<	c #383217",
"3<	c #3E381B",
"4<	c #2E3D15",
"5<	c #263412",
"6<	c #334414",
"7<	c #303916",
"8<	c #304017",
"9<	c #3D3E19",
"0<	c #383317",
"a<	c #2B3112",
"b<	c #394617",
"c<	c #495132",
"d<	c #888C79",
"e<	c #3D4829",
"f<	c #324413",
"g<	c #304112",
"h<	c #2B3E14",
"i<	c #303E14",
"j<	c #2A2913",
"k<	c #2F3F12",
"l<	c #384C19",
"m<	c #455B1F",
"n<	c #3A301C",
"o<	c #3C311D",
"p<	c #382D1A",
"q<	c #38331A",
"r<	c #41431D",
"s<	c #324916",
"t<	c #45572A",
"u<	c #60614F",
"v<	c #827F76",
"w<	c #646457",
"x<	c #85857A",
"y<	c #818277",
"z<	c #374624",
"A<	c #344E15",
"B<	c #354015",
"C<	c #323D17",
"D<	c #3A461A",
"E<	c #313714",
"F<	c #283A12",
"G<	c #303E17",
"H<	c #2C2F17",
"I<	c #334617",
"J<	c #41531F",
"K<	c #616355",
"L<	c #3D4E23",
"M<	c #475039",
"N<	c #303F1B",
"O<	c #23310E",
"P<	c #23350E",
"Q<	c #253811",
"R<	c #2D4213",
"S<	c #34411B",
"T<	c #2F3316",
"U<	c #283015",
"V<	c #2D3A16",
"W<	c #273412",
"X<	c #2A3810",
"Y<	c #23330D",
"Z<	c #384B19",
"`<	c #40511D",
" [	c #37391C",
".[	c #35321A",
"+[	c #38371B",
"@[	c #425420",
"#[	c #42501E",
"$[	c #42511C",
"%[	c #343F16",
"&[	c #2E4215",
"*[	c #40581A",
"=[	c #4B5439",
"-[	c #76736B",
";[	c #656A56",
">[	c #838574",
",[	c #8D8E84",
"'[	c #354C13",
")[	c #3F5C17",
"![	c #375116",
"~[	c #344919",
"{[	c #304715",
"][	c #3E501C",
"^[	c #243211",
"/[	c #3A411A",
"([	c #363617",
"_[	c #353D19",
":[	c #363E1A",
"<[	c #3C501A",
"[[	c #43611A",
"}[	c #395017",
"|[	c #3E4C1C",
"1[	c #3F482D",
"2[	c #989791",
"3[	c #919486",
"4[	c #3B422C",
"5[	c #324613",
"6[	c #314A15",
"7[	c #344719",
"8[	c #333A19",
"9[	c #273413",
"0[	c #293A14",
"a[	c #273812",
"b[	c #2F4312",
"c[	c #26330F",
"d[	c #3B4E1B",
"e[	c #334219",
"f[	c #3A4E1B",
"g[	c #314217",
"h[	c #2E3D16",
"i[	c #253511",
"j[	c #334B17",
"k[	c #646758",
"l[	c #78766F",
"m[	c #4F5D35",
"n[	c #596346",
"o[	c #384D15",
"p[	c #354E15",
"q[	c #385315",
"r[	c #344A17",
"s[	c #263810",
"t[	c #364517",
"u[	c #2F3E16",
"v[	c #353C18",
"w[	c #3A4A1A",
"x[	c #354718",
"y[	c #334512",
"z[	c #2E3B12",
"A[	c #42492E",
"B[	c #898681",
"C[	c #88857E",
"D[	c #98988E",
"E[	c #6C7063",
"F[	c #283616",
"G[	c #273C10",
"H[	c #304315",
"I[	c #3B4A1C",
"J[	c #2D3C10",
"K[	c #25350D",
"L[	c #21300D",
"M[	c #243410",
"N[	c #313E11",
"O[	c #25330F",
"P[	c #2F4114",
"Q[	c #3A561A",
"R[	c #293A12",
"S[	c #364C13",
"T[	c #395215",
"U[	c #465B32",
"V[	c #747469",
"W[	c #6F7363",
"X[	c #65695A",
"Y[	c #314417",
"Z[	c #415324",
"`[	c #808077",
" }	c #9F9D97",
".}	c #888880",
"+}	c #293D11",
"@}	c #2B390F",
"#}	c #242C0E",
"$}	c #2C4310",
"%}	c #27350F",
"&}	c #303812",
"*}	c #21300E",
"=}	c #304714",
"-}	c #385217",
";}	c #425A17",
">}	c #365013",
",}	c #2B4112",
"'}	c #566048",
")}	c #7B7D70",
"!}	c #3D4E21",
"~}	c #3A4D14",
"{}	c #3A5217",
"]}	c #385016",
"^}	c #3B4E27",
"/}	c #686A60",
"(}	c #85837D",
"_}	c #696C60",
":}	c #355015",
"<}	c #2E4514",
"[}	c #2C4413",
"}}	c #334C15",
"|}	c #2C4013",
"1}	c #384E16",
"2}	c #6D6C63",
"3}	c #8B8883",
"4}	c #807C76",
"5}	c #66685E",
"6}	c #334018",
"7}	c #373F15",
"8}	c #2A2C10",
"9}	c #292911",
"0}	c #344D16",
"a}	c #2B3A11",
"b}	c #395515",
"c}	c #385117",
"d}	c #575D4B",
"e}	c #3B481D",
"f}	c #384817",
"g}	c #4F5A41",
"h}	c #AEB0A6",
"i}	c #B9B7B3",
"j}	c #6B6A5F",
"k}	c #3E502A",
"l}	c #283C0F",
"m}	c #365015",
"n}	c #3C5215",
"o}	c #4F583E",
"p}	c #979591",
"q}	c #8A8B80",
"r}	c #47503A",
"s}	c #25350E",
"t}	c #2D3811",
"u}	c #323717",
"v}	c #2A2C13",
"w}	c #314616",
"x}	c #334C16",
"y}	c #21310D",
"z}	c #43512C",
"A}	c #314714",
"B}	c #444F1B",
"C}	c #35391A",
"D}	c #333814",
"E}	c #2E3C15",
"F}	c #354614",
"G}	c #404D28",
"H}	c #676559",
"I}	c #818378",
"J}	c #364B1E",
"K}	c #364B13",
"L}	c #3B4B16",
"M}	c #3E4D27",
"N}	c #807C77",
"O}	c #BABAB4",
"P}	c #AAAAA2",
"Q}	c #717966",
"R}	c #333F1D",
"S}	c #535644",
"T}	c #404631",
"U}	c #303E18",
"V}	c #2B3015",
"W}	c #2D3E14",
"X}	c #283510",
"Y}	c #314211",
"Z}	c #2F4211",
"`}	c #38441A",
" |	c #6A695F",
".|	c #6B725D",
"+|	c #42471A",
"@|	c #363815",
"#|	c #2D2713",
"$|	c #322E15",
"%|	c #555F40",
"&|	c #5B6E3F",
"*|	c #34481A",
"=|	c #445A1D",
"-|	c #424D29",
";|	c #3A4F1B",
">|	c #2C3512",
",|	c #324811",
"'|	c #2F4813",
")|	c #263B0F",
"!|	c #83817A",
"~|	c #827F79",
"{|	c #6B655D",
"]|	c #7A776F",
"^|	c #636455",
"/|	c #565749",
"(|	c #4A4B3E",
"_|	c #3F4B2C",
":|	c #323B1B",
"<|	c #3A3C28",
"[|	c #334B12",
"}|	c #3F5516",
"||	c #374D13",
"1|	c #20320D",
"2|	c #405216",
"3|	c #3D4B27",
"4|	c #596249",
"5|	c #374718",
"6|	c #3C4821",
"7|	c #3E4C28",
"8|	c #B5B6AD",
"9|	c #989B8D",
"0|	c #717563",
"a|	c #2D3916",
"b|	c #505D3D",
"c|	c #626554",
"d|	c #384422",
"e|	c #344614",
"f|	c #2D4612",
"g|	c #294010",
"h|	c #3B4023",
"i|	c #444B2A",
"j|	c #3B461D",
"k|	c #3A4B19",
"l|	c #3F5819",
"m|	c #384E18",
"n|	c #25300F",
"o|	c #334014",
"p|	c #2D3C14",
"q|	c #2E4214",
"r|	c #292E11",
"s|	c #2F4210",
"t|	c #3D5615",
"u|	c #47522B",
"v|	c #6F6B63",
"w|	c #565E44",
"x|	c #3B491A",
"y|	c #858779",
"z|	c #9E9F95",
"A|	c #445430",
"B|	c #5B584E",
"C|	c #8B867F",
"D|	c #939187",
"E|	c #394621",
"F|	c #29370F",
"G|	c #374E1B",
"H|	c #3A4E1C",
"I|	c #353E15",
"J|	c #395616",
"K|	c #283A0F",
"L|	c #26350F",
"M|	c #334214",
"N|	c #3B571A",
"O|	c #354D16",
"P|	c #3C4D18",
"Q|	c #253510",
"R|	c #232D0F",
"S|	c #314213",
"T|	c #32401E",
"U|	c #343F21",
"V|	c #7D7F71",
"W|	c #696A5A",
"X|	c #4A493A",
"Y|	c #454235",
"Z|	c #393423",
"`|	c #333B19",
" 1	c #293C0F",
".1	c #354E13",
"+1	c #324411",
"@1	c #354414",
"#1	c #324012",
"$1	c #25360E",
"%1	c #303E13",
"&1	c #2F3213",
"*1	c #384E24",
"=1	c #485338",
"-1	c #3A5317",
";1	c #324716",
">1	c #3C5819",
",1	c #263410",
"'1	c #233310",
")1	c #2C4210",
"!1	c #34471A",
"~1	c #425329",
"{1	c #59574C",
"]1	c #7E8370",
"^1	c #808372",
"/1	c #686254",
"(1	c #46402F",
"_1	c #3D3722",
":1	c #2B3E13",
"<1	c #46651A",
"[1	c #354914",
"}1	c #364614",
"|1	c #2D4511",
"11	c #324B13",
"21	c #303D13",
"31	c #2E3912",
"41	c #484D3D",
"51	c #35471E",
"61	c #435D20",
"71	c #374524",
"81	c #424729",
"91	c #364020",
"01	c #22320D",
"a1	c #273A0E",
"b1	c #3E4F2D",
"c1	c #3E5424",
"d1	c #263811",
"e1	c #2D400F",
"f1	c #3B5215",
"g1	c #273D10",
"h1	c #3C4A28",
"i1	c #66685C",
"j1	c #626259",
"k1	c #6F6B65",
"l1	c #A2A19A",
"m1	c #A9A99F",
"n1	c #99988D",
"o1	c #686857",
"p1	c #293914",
"q1	c #344812",
"r1	c #304211",
"s1	c #324313",
"t1	c #2E4713",
"u1	c #283E11",
"v1	c #3B4529",
"w1	c #424D2F",
"x1	c #354919",
"y1	c #2B3A12",
"z1	c #2D391C",
"A1	c #465038",
"B1	c #787C6D",
"C1	c #92938A",
"D1	c #3A4527",
"E1	c #636254",
"F1	c #88877D",
"G1	c #8F9283",
"H1	c #717A62",
"I1	c #394A1C",
"J1	c #1C280A",
"K1	c #334A19",
"L1	c #595F4D",
"M1	c #686C5B",
"N1	c #5D634E",
"O1	c #435130",
"P1	c #2C4114",
"Q1	c #5E6852",
"R1	c #908F89",
"S1	c #5B5A50",
"T1	c #4F4A3F",
"U1	c #B0B1A7",
"V1	c #AEAFA5",
"W1	c #989A8B",
"X1	c #405023",
"Y1	c #3D4F16",
"Z1	c #364414",
"`1	c #374916",
" 2	c #364A13",
".2	c #3D5916",
"+2	c #364F16",
"@2	c #2C4313",
"#2	c #2D4411",
"$2	c #39491E",
"%2	c #656459",
"&2	c #939589",
"*2	c #848D73",
"=2	c #2C3B16",
"-2	c #3C472A",
";2	c #7F7F75",
">2	c #86867B",
",2	c #67665B",
"'2	c #646B55",
")2	c #313D1B",
"!2	c #3E4826",
"~2	c #76746B",
"{2	c #545946",
"]2	c #22310E",
"^2	c #37451C",
"/2	c #2C3E16",
"(2	c #384913",
"_2	c #2B3D0F",
":2	c #6E7362",
"<2	c #B2B1AC",
"[2	c #AEADA8",
"}2	c #A6A59F",
"|2	c #5A594A",
"12	c #5F5C53",
"22	c #AEB0A3",
"32	c #526A2C",
"42	c #385215",
"52	c #363D14",
"62	c #3A4415",
"72	c #2D3F11",
"82	c #354F14",
"92	c #2D4613",
"02	c #535D3D",
"a2	c #69675D",
"b2	c #69685A",
"c2	c #283215",
"d2	c #3D4A26",
"e2	c #57584B",
"f2	c #444B33",
"g2	c #35441D",
"h2	c #304415",
"i2	c #5F6454",
"j2	c #85897A",
"k2	c #343D1D",
"l2	c #343C1A",
"m2	c #2E3A16",
"n2	c #2E3919",
"o2	c #4B4F38",
"p2	c #25300E",
"q2	c #22300D",
"r2	c #2C3A10",
"s2	c #384B20",
"t2	c #6A6E5F",
"u2	c #424C35",
"v2	c #364F1B",
"w2	c #716F64",
"x2	c #4D563D",
"y2	c #292D17",
"z2	c #656259",
"A2	c #6E6B61",
"B2	c #605951",
"C2	c #8E8B85",
"D2	c #4C5E31",
"E2	c #334610",
"F2	c #384B12",
"G2	c #2A3311",
"H2	c #2A4012",
"I2	c #2F4814",
"J2	c #273410",
"K2	c #323B18",
"L2	c #515042",
"M2	c #6C6C5C",
"N2	c #2A3415",
"O2	c #2D3C17",
"P2	c #273311",
"  . + @ # $ % & * = - ; > , ' ) ! ~ { ] ^ / ( _ : < [ } | 1 2 3 4 5 6 7 8 9 0 a b c d e f g h i j k l m n o p q r s 0 t u v p w ",
"x y z A B C D E F G H I J K L M N O P Q R S T U V W X Y Z `  ...+.@.#.$.%., > &.*.=.-.;.>.,.'.).!.~.{.].^./.(._.:.k <.[.}.|.1.2.",
"3.4.5.6.7.8.9.0.a.b.c.d.e.f.g.h.i.j.k.l.m.n.o.p.q.r.s.t.u.v.w.x.y.z.A.a B.C.D.E.F.G.H.I.J.K.L.M.N.O.P.Q.R.S.T.U.V.W.X.Y.Z.`. +.+",
"&.++@+#+$+%+&+*+=+-+;+>+,+'+)+!+~+{+]+^+/+(+_+:+<+[+}+|+1+2+3+4+5+6+7+8+9+0+a+b+c+d+e+f+g+h+i+j+q k+l+m+n+o+p+q+r+s+E.t+u+|.v+w+",
"x+y+z+A+B+C+D+E+F+G+H+I+J+K+L+M+N+O+P+Q+R+S+T+U+V+W+X+Y+Z+`+ @.@+@@@#@$@%@&@*@=@-@;@>@,@'@)@!@~@{@Q.3+*@Z.]@!.X.^@/@(@_@:@<@[@}@",
"|@C+1@2@3@4@5@6@7@8@t+9@0@a@b@c@d@e@f@g@h@i@j@k@l@m@n@o@p@q@$+z+r@s@t@u@v@w@x@y@z@A@B@C@D@E@F@G@H@I@J@^.n+9+K@L@}.+.M@N@O@P@Q@R@",
"S@T@U@V@W@4.X@Y@Z@`@ #.#+#+#@###$#%#&#*#=#-#;#>#,#'#)#!#~#{#]#^#/#(#_#:#<#[#S.}#|#1#2#3#4#5#6#7#8#Q.9#0#a#b#c#d#n+o e#f#R.g#h#i#",
"j#k#l#m#n#o#p#q#r#s#t#u#v#w#f#x#y#z#A#B#C#D#E#F#G#H#I#o+J#K#L#M#N#O#P#Q#R#S#T#K@U#V#W#n@X#Y#Z#`# $.$+$@$#$$$%$&$*$t =$-$;$>$,$'$",
"b+a#)$!$~$w+{$]$^$/$($Q@_$R.:$<$[$}$|$1$2$3$4$5$6$t+7$8$^@]@9$0$a$b$c$d$e$f$g$h$i$j$k$l$m$n$o$p$q$r$s$t$u$v$w$-$x$y$z$A$B$C$D$E$",
"F$G$H$y.I$J$K$L$M$N$O$P$Q$R$S$T$U$V$W$X$3.Y$Q$Z$`$ %.%0++%_$@%&$#%$%%%f#&%*%=%-%;%>%,%'%)%!%~%i@{%]%^%/%(%_%H@:%<%[%}%|%1%2%3%4%",
"5%6%7%8%9%0%a%b%c%q d%e%f%g%x.h%i%n+j%k%l%m%n%o%p%q%Z#r%s%t%u%v%w%x%y%z%A%H@D#B%C%`$K+D%E%F%G%H%I%J%K%L%M%N%O%P%Q%R%S%T%U%V%W%X%",
"Y%Z%`%Q.y.Q. &.&+&@&#&$&%&&&*&=&-&s+3.;&>&w#,&'&c%)&!&~&V$-&`${&]&$#^&/&(&_&:&<&i$[&}&P#|&1&2&3&4&5&2@6&7&8&9&0&a&b&c&d&e&f&g&h&",
"7&i&j&k&l&m&n&o&p&q&r&s&t&u&v&w&x&y&m C#z&A&B&C&D&E&b.F&G&H&+%I&J&> ;&K&L&M&N&o%O&P&Q&R&S&T&U&V&W&X&Y&Z&`& *;&.*+*@*#*$*%*&***=*",
"-*;*>*,*/&'*)*!*~*{*]*^*/*(*_*:*<*[*}*|*1*~%2*3*f#4*a@5*o+6*o+7*^%8*9*0*a*b*c*d*e*f*g*h*i*j*k*l*m*n*l S.y@D#o*p*U.q*r*s*t*u*v*w*",
"x*y*z*'$A*B*C*D*E*F*G*H*V I*J*K*L*M*N*O*P*Q*R*S*T*U*x.V*Z.F&W*X*Y*Z*`* =.=+=@=#=$=%=_@&=*===-=;=>=,='=)=E.!=~={=]=^=O$/=)&(=_=:=",
"<=[=s*}=|=1=2=3=~=4=5=6=7=8=9=0=a=b=c=d=e=f=g=h=i=j=k=l=m=!=[@n=o=o$p=q=r=s=t=u=v=w=x=n*y=z=A=B=w#C=,*n=Z.w+u D=E=F=G=H=I=J=;%K=",
"L=M=N=O=P=Q=R=S=T=U=V=W=X=K*Y=Z=`=x  -.-+-@-E=#-;%$-%-&-*-=-n*--;-'#U.>-,-'-)-!-~-{-]-^-/-(-_-=$a@:-g#<-[-<&}-_$|-9@1-2-3-4-5-6-",
"7-8-9-0-a-.=b-c-d-e-f-g-h-i-1&j-k-l-m-n-z&b.o-p-q-^=r-s-t-u-v-w-x-@$y-z-A-1-A*B-C-A$D-S.y@E-F-G-h#>=H-I-J-K-L-M-N-E.O-T#h%P-F=F.",
"Q-R-S-T-U-V-W-^+X-Y-Q=Z-`- ;.;+;@;#;$;%;&;*;=;-;;;>;}*n+,;';}=9%^-);3+!;~;{;];|-[&^;/;=-(;c./&_;:;<;[;};|;1;2;3;4;5;6;7;8;9;0;a;",
"b;c;d;e;f;g;h;R=i;j;k;l;m;n;o;p;q;r;s;t;u;v;w;=;x;l=y;z;A;B;C;D;E;F;G;H;I;J;K;C@F=L;M;N;O;P;Q;R;S;T;U;V;W;X;Y;Z;`; >.>+>@>#>$>%>",
"k;&>*>=>->;>>>,>'>)>!>~>{>]>^>/>(>_>:><>[>}>G&J@9+;&A*|>1>2>3>4>5>6>7>8>p$9>0>a>b>c>d>e>f>g>h>i>j>k>d-Z;l>m>n>o>p>q>r>s>t>u>!>v>",
"w>x>y>z>.+A>B>C>D>E>F>G>H>I>J>K>L>M>N>O>P>Q>N&R>v+S>_;T>U>V>W>X>I==-Y>I;Z>`> ,.,+,f+@,#,c+$,%,&,*,=,-,;,>,,,',),!,~,{,],^,/,(,_,",
":,<,[,A$[,x=},|,1,a@2,3,4,5,6,7,8,9,0,a,b,c,x+d,e,o%F&f,g,'#c#h,#.i,j,k,q%l,W%m,n,o,:,p,>;q,r,s,t,u,v,J;w,x,y,z,n+:-A,r#B,C,D,E,",
"Z#F,G,*.H,I,}&J,*@K,&.5*u L,M,N,O,P,Q,R,S,T,^@K+`$~=I,U,V,W,X,Y,Z,`,m @. '.'+'@'#'$'%'&'*'1-='-';'>',''')'!'~'{'' ]'/*m.^'/'('Y.",
"k&c%C#U#_'-;:'c%I,<'0+['&.}'k;|'1'2'3'4'5'6'7'F=G-8'I,&@9'0'a'b'c'6 d'-&e'}#f'g'h'i'i'j'&$N-k'l'm'n'o#''1#o'p'q q'r's't'u'v'w''=",
"x':@a%y'z'A'B'C'D'E'F'd#6 G'H'I'p;J'K'X=L'M'},K@w#N'L-B='=O'P'o$Q'R'S'&.^=#.&$T'U'V'W'b=X'Y'Z'`' ).)+)@)#)$)%)&)*)=)-);)>),)c%o#",
":@s%) ')))!)~){)])^)/)*.()_):)<)[)k;})|)1)2)3)9#4)5)6)J,a%''7)8)@>n+a@},9)m&N@e*0)a)b)c)$+d)e)f)g)h)i)j)k)l)m)n)o)p)q)r)s)t)4+^.",
"^.u)8>v)w)x)y)z)A)d#> B)C)D)E)F)G)H)6@I)J)K);&o+7$L)R'd#.%w+M)G$}*n w#x'v+]@G,N)O)P)Q)R)S)T)U)V)W)X)&&Y)Z)^>`) !.!+!@!#!$!%!&!v+",
"K@*!=!-!;!>!3%V*,!B>> '!)!!!~!{!]!^!/!1&8$(!_!:!) Q'<![!}!|!1!2!3!Y>b.4!w+5!6!7!{%8!9!0!a!b!c!d!e!O,f!g!h!i!j!k!l!m!n!h;<)o!p!n+",
"q!r!s!Q't!q*u!*.y;]@^@v!w!x!y!z!A!B!C!D!}&E!F!(!}!S'G!&+H!R$M)I!J!K!|!L!G!M!h*N!O!P!Q!R!S!T!U!V!9=.=W!X!Y!Z!`! ~.~+~@~^*#~$~%~.+",
"z#&~;+h%x't+*~=~v+}!v%-~;~>~5#,~'~)~P!!~~~{~]~2%J+Y.b ^~/~(~q _~w@:~/&o+V*w+G&<~[~}~|~1~2~3~4~5~6~7~8~9~0~[=a~b~c~d~+~e~f~Q g~h~",
"q );i~Y.j~k~{=z#e,L)l~m~n~o~p~q~r~_={$s~t~u~v~b l=w~G#x~y~z~A~B~C~*~D~o+*@E~[-F~G~H~%,I~}+J~K~L~M~N~O~P~Q~9+J+R~S~T~U~V~@~W~X~Y~",
"M)Z~`~ {.{V*+{@{R$x@#{${%{h*) &{*{={-{;{>{,{#.&.,)'{){6>!{~{8%{{]{^{/{ +L!/&({b.$ _{:{<{=%[{}{|{1{2{3{4{5{6{H&&@7{N&8{^,9{N>0{x@",
"a{x+b{c{d{~%Q$.+1,4!e{--0+f{g{h{i{j{z'&.k{l{A$m{n{o{,;t p{q{A;r{s{U#w$t{u{v{n+ +y#w{x{m%6 y{z{A{B{C{D{E{F{1,G{H{I{J{=$K{L{M{d,N{",
"O{1~P{Q{R{S{T{[,U{V{w+W{X{Y{w$Z{`{ ].]+]@]c%a@#]$]%]&]^=*]=]-]B@}*O&A$;]9#Z{E.F&>]n+_$,]'])]!]~]3%{]]]^]/](]_]:]<]t%8'[](@F;}]^&",
"|]1]z~x,2]3]/&_!w+[&()i~4]5]p 6]7]i~Y#'#8]9]0]a]b]c]d]e]f]g]h]i]j]y%k]l]m]n]o]A$k+9;p]e#k o'q]T%}]r]s]t]u]v]w]l.x]y]z]A]L-B]C]D]",
"E]F]$*G]j#T'_'H]I]J]<%K]L]M]N]O]4!P]9$Q]R]R+S]T]U]V]W]X]Y]Z]`] ^w,.^+^@^#^+%$^%^:-&'H$&^A**^=^-^I~;^>^,^'^)^{+!^~^*.}!.+E&r*{^]^",
"#,^^/^(^_^[+:^<^[^}^|^1^2^#$-;C*3^4^5^6^7^8^9^0^a^b^c^d^e^f^g^h^i^j^O]k^l^m^o+n^!.p+o^ %p^&^W,q^b%r^s^t^u^v^w^x^y^z^A^B^C^D^E^F^",
"G^H^I^J^K^L^M^1]N^O^P^Q^R^S^(!#$T^U^V^W^X^Y^Z^`^ /./+/@/#/I^$/%/&/*/J+=/[&N{s%-/;/>/Z&7>,/'/q-)/b>!/~/7={/R ]/w{,;^///(/_/:/</[/",
"}/|/1/2/3/4/5/6/7/8/9/0/a/b/c/R&d/e/f/g/h/i/j/k/l/m/n/o/p/q/r/s/t/u/v/w/*.T#+/9+x/L#y/z/A/B/4#C/D/E/F/G/r'H/I/J/K/L/M/N/O/P/@ a/",
"L$Q/R/S/T/U/V/W/X/Y/Z/`//. (.(+(R&G>@(#($(%(4=&(*(n$=(-(-(;(>(,('()(!(~(E.Z#6;{(](^(/(((_(:(<([(}(|(1(2(3(4(^#&]5(6(7(8(9(0(a(b(",
"c(d(e(f(g(h(i(j(k(l(m(Y%n(~&<.o(h#p(N@S'q(,=r(s(t(`&&+)=u(v(w(x(y(z(A(B(l%i~|! 'w#L=V.y-C(D(E(6;2!F(G(H(I(J(K(_.L()!M(N(O(m+P(:&",
"a$Q(R(S(T(U(V(W(+'X(Y(Z(`()],&'& _S&d,C=V$8#._+_l=^&P-`{H!@_#_$_%_&_*_=_0)p=g*-_+%o(;_a%>_,_'_)_!_5{~_{_]_4^^_{(0'/_(___+]f/b.:_",
"<_[_}_|_1_2_3_4_5_6_7_8_)@U#9_c 0_-/4$a_[-b_c_d_}&B>Y.a@G!e_f_g_8%h_i_%*j_k_l_m_|-n_o_p_q_r_s_t_u_0&Z.v_w_|.]@M)x_y_z_A_g#:&B_C_",
"j,b(D_E_F_G_H_I_J_K_L_M_6>-&N_O_>&P_Q_l]) R_Q=S_d#T_U_#^G-},V_W_i@7*X_Y_Z_`_ :.:+:@:#:Z@m.$:%:&:*:6 =:^@:-#.)*+]f]S%-:;:B_}!Z{a%",
"}&>:++,:':):!:~:{:]:^:/:(:B]n*w$_:::<:x/[:}:m!|:1:2:3:_$A$z]4:5:6:7:y_8:9:0:a:b:c:d:e:+@f:g:h:i:j:P>k:;$>=l:m:n:b~[,<_o:_.)=:& (",
"+.y]p:q:,!g{r:s:t:u:v:w:x:y:z:](A:B:j#b+C:D:E:F:G:O H:I:<-J:K:L:M:N:O:P:Q:R:S:T:c#U:Q:O{L/V:W:[(X:Y:Z:`:P#v% <.<l=*@+<@<!~[./{#<",
"$<%<&<w#){)&*<=<-<;<><,<'<)<!<~<{<]<^</<(<_<^$:<<<S;[<}<n }$|<1<X,2<6#3<4<5<;$6<7</]8<9<0<a<1-b<-!c<d<e<|!f<g<-;h~B_h<i<;;h%G+>]",
"j<a< (k<3+}*E.s-a@l<m<1/n<o<p<q<r<s.`+s<t<u<v<w<x<y<z<A<-_}.B<C<b#D<B;E<L F<9+L;s!a(G<@/R^H<I<6!+:J<K<L<M<N<Q>O<P<&@Q<G!4$R<S<T<",
"U<V<W<X<h~e,Y<-;L!5#Z<`< [.[+[@[#[$[%[&[*[=[-[;[>[,[*='[S.)[![~[{[]{D#a(][9;t!#.^[):/[([_[:[<[[[i,}[|[1[2[3[4[3+$#I,1,5[J+6[7[8[",
"*!9[0[a[z#4$z#w#b[c[i O)d[e[f[>'g[y{h[i[(!j[k[l[m[n[5{o[V$A&,=p[s%q[G'y#r[s[9%t[u[8$}^v[w[S:x[) > y[z[A[B[C[D[E[F[_$G[ (.@b[H[I[",
"J[K[L[M[G#t+9%N[O[P[Q[x~R[y@b~S[k~()Z#$#T[`{U[V[W[0&9  ]Z#8;*@b[__x X[e'z]k,,'|^Q.*]Y~Y[z&l S&y]~=f{@.Z[`[K* }&#.}K-+}[%A*6!:&D$",
"&$8;@}#}$}k %}&}*}=}-}7 U,~%&.C=O@;}|.w$>}I,,}'})}!}~}{}z-<&]}^}/}(}_}4.:}o#['Z#<}[}}}m |}a]1}]=N'R~H!2%2}3}4}{+'^Z)5}6}+$}]a[Q>",
"C)7}8}9}K@0}F=y#B>Q'n++}C*a}J+S'A$&.-_4!b}':({c}d}e}f}A$]=6!g}h}i}j}k}l}-_.*^&/(o#9)g#T,&+m}5[*;+%n}C*r-o}E:p}1)|'b;^*q}r}h<s}t}",
"5=u}q$v}w-r-w}x}B>G!s{m%5[=-y}V*> J+>'z}A}}!0+B}C}D}E}F}-$G}H}U;I}J}O]G-:%O#y;H@t!I:W$4+8'a%n}R@K}S[R@L}M}N}B,^*O}:<o;k;P}Q}R}S}",
"T}U}V}w:W}X}P(d,|!}.N{;&@^Y}N'H!Z}Y{`} |.|P;&,+|@|#|$|%|&|*|=|-|;|S[ &>|4,n+},s-D~V$,|'|)|*@8$o+|.l:<.4^L !|~|{|]|J>^|/|(|_|:|<|",
"#.a%W}S:c%](+.w+[|4! +{=}|||`{K$1|i~2|3|m)X)4|5|6|7|p'u=8|9|0|a|l]b|c|d|e|w#3$6 f|w+&@p~g|:-E=_@S.E&V*u#:-h|i|j|k|J=c,[&J&l|m|y{",
"n|o|p|q|C=r|,&V$t{9)s|J{x@t|K,J+,!x.G>v+u|v|w|x|y|z|A|B|C|W-D|E|F|G|H| ]I|o r-o~J|}!]@J&'& (%_~=S'n+K||.k&L|i@M|b[i~N{b.N|O|X>P|",
"y-<{D&!;Q|R|, ~.S|G!M!x.]@V*e,k },=-}&S~o-T|J!U|@;f@V|W|X|Y|Z|`|`%~]e|U*Z}+.!= 1.1+1@1U*#1B]X]4^R$I,&<({`{$1%1&1)@A}*1=1{.-1;1>1",
".*I<,1B_&,'1);'].+C*v+_@#^|$,}+] (/@#^)1R$^~s+)&!1~1{1]1^1/1(1_1Q{:1z- (<1()>=9#b}n=l][1}19#}. +[%|1&@11>:Q_2131H[|!4151N{V*y;61",
"718191r!M)M)01a1s[b1c1d1e1}$f1X.|!y;*@4$`{g14$N{h1i1j1k1l1m1n1o1~$p1n+q1r1s1$#G!=$G,c%R.:-t1O]b%u14! +a@:@9+v1w1}>x1|!y1z1A1B1C1",
"D1E1F1G1H1I1n^J1K1L1M1N1O1t{V$5[s+~=G!C*G&6)P1Q1T-R1S1T1r=U1V1W1X1r[C#5[Y1Z1`1 2.2<!:&+2J@G[}%&@D=@2#2p:G-J+$2%2&2*2=2-2;2>2,2'2",
")2!2;{~2{2g[!.]2H,a@G$^2/2,'(2_2){_@-&}.t%+::2<2[2}2|2w)12^$D:223242C#F$5262s172O]82v+0+Q.b.e, +l}F&92`{:&M[X>02a2b2c2d2e2f2g2h2",
"i2j2k2j+l2m26-n2o2+^/~p2q2r2n =$`{9#s2t2u2v2w2>,9~9-x2y2z2A2B2C2D2w+E2F2`:(@G2X}}.^.H2I2k<J2b%-;N@2,V*Q_4!t!S|K2L2M2N2O2P2)]s{a%"};
