/* XPM */
static char * Tile_02_128x128_xpm[] = {
"64 64 1549 2",
"  	c #6A6157",
". 	c #7B7164",
"+ 	c #645C52",
"@ 	c #6C6459",
"# 	c #675E53",
"$ 	c #7C7266",
"% 	c #7B7165",
"& 	c #766C61",
"* 	c #7B7367",
"= 	c #766D62",
"- 	c #6B6358",
"; 	c #70675C",
"> 	c #7B7266",
", 	c #7E7568",
"' 	c #6C6051",
") 	c #5F5850",
"! 	c #857D71",
"~ 	c #736A5F",
"{ 	c #766E63",
"] 	c #7B7267",
"^ 	c #665B4E",
"/ 	c #4C3E30",
"( 	c #4F4133",
"_ 	c #44382C",
": 	c #473B2E",
"< 	c #4A3D30",
"[ 	c #4E4134",
"} 	c #6C6357",
"| 	c #72695D",
"1 	c #584D41",
"2 	c #58524B",
"3 	c #807A70",
"4 	c #7C756A",
"5 	c #797268",
"6 	c #7A7165",
"7 	c #6C6152",
"8 	c #4E4235",
"9 	c #504336",
"0 	c #71695F",
"a 	c #746C61",
"b 	c #7A7367",
"c 	c #7F7669",
"d 	c #7D7468",
"e 	c #7F786C",
"f 	c #7E766C",
"g 	c #5A5249",
"h 	c #4F4B44",
"i 	c #81796D",
"j 	c #756D62",
"k 	c #756D63",
"l 	c #80796F",
"m 	c #7C756B",
"n 	c #7C766B",
"o 	c #817A6F",
"p 	c #807A72",
"q 	c #817B74",
"r 	c #797267",
"s 	c #786C5C",
"t 	c #776C60",
"u 	c #615950",
"v 	c #5B5246",
"w 	c #847A6B",
"x 	c #7B7264",
"y 	c #7B7263",
"z 	c #807667",
"A 	c #857B6C",
"B 	c #7D7364",
"C 	c #7C7263",
"D 	c #877E6F",
"E 	c #82786A",
"F 	c #786F61",
"G 	c #7C7365",
"H 	c #857C6E",
"I 	c #8E8475",
"J 	c #695C4E",
"K 	c #554D43",
"L 	c #887E70",
"M 	c #8E8474",
"N 	c #7A7264",
"O 	c #7E7668",
"P 	c #867E70",
"Q 	c #83796B",
"R 	c #92887A",
"S 	c #998F80",
"T 	c #8C8173",
"U 	c #918779",
"V 	c #857B6D",
"W 	c #706658",
"X 	c #4D4135",
"Y 	c #514A40",
"Z 	c #888173",
"` 	c #8A8375",
" .	c #898073",
"..	c #8F8678",
"+.	c #90877A",
"@.	c #888074",
"#.	c #877F72",
"$.	c #8C8475",
"%.	c #807768",
"&.	c #877E70",
"*.	c #938A7B",
"=.	c #8A8070",
"-.	c #5B4F42",
";.	c #534B41",
">.	c #8A8173",
",.	c #8B8273",
"'.	c #867D6F",
").	c #857D70",
"!.	c #8C8679",
"~.	c #938D80",
"{.	c #908A7D",
"].	c #898376",
"^.	c #918A7E",
"/.	c #90897C",
"(.	c #958D80",
"_.	c #978F80",
":.	c #6D6153",
"<.	c #484138",
"[.	c #7D7466",
"}.	c #7F7566",
"|.	c #70675A",
"1.	c #73695B",
"2.	c #756C5E",
"3.	c #6F6658",
"4.	c #6F6557",
"5.	c #7F7567",
"6.	c #827869",
"7.	c #71685A",
"8.	c #7C7364",
"9.	c #8D8373",
"0.	c #5F5446",
"a.	c #544C42",
"b.	c #8C8272",
"c.	c #897F6F",
"d.	c #736A5C",
"e.	c #7A7164",
"f.	c #787062",
"g.	c #7D7568",
"h.	c #8C8375",
"i.	c #8A8273",
"j.	c #7C7466",
"k.	c #827B6D",
"l.	c #776E60",
"m.	c #746A5C",
"n.	c #392C1F",
"o.	c #48423A",
"p.	c #7F786B",
"q.	c #837A6D",
"r.	c #827A6C",
"s.	c #847B6D",
"t.	c #776E61",
"u.	c #80786A",
"v.	c #81796B",
"w.	c #827768",
"x.	c #847B6C",
"y.	c #8A8274",
"z.	c #8C8374",
"A.	c #817768",
"B.	c #52473B",
"C.	c #4C443B",
"D.	c #7B7365",
"E.	c #796F61",
"F.	c #797164",
"G.	c #817A6C",
"H.	c #7F776A",
"I.	c #867F72",
"J.	c #847D71",
"K.	c #8B857A",
"L.	c #878073",
"M.	c #999284",
"N.	c #90897A",
"O.	c #5A5044",
"P.	c #595249",
"Q.	c #91897B",
"R.	c #867D6E",
"S.	c #7B7163",
"T.	c #6B6254",
"U.	c #7A7162",
"V.	c #7B7162",
"W.	c #7D7465",
"X.	c #786F60",
"Y.	c #7E7566",
"Z.	c #897E6E",
"`.	c #5C5043",
" +	c #524A3F",
".+	c #887E6E",
"++	c #837969",
"@+	c #756C5F",
"#+	c #807769",
"$+	c #837B6E",
"%+	c #867F71",
"&+	c #847C6E",
"*+	c #7E7567",
"=+	c #776D5E",
"-+	c #3A2D1F",
";+	c #4B453C",
">+	c #817A6D",
",+	c #7A7163",
"'+	c #786F62",
")+	c #797163",
"!+	c #6F6659",
"~+	c #7A7265",
"{+	c #70685B",
"]+	c #837A6B",
"^+	c #898070",
"/+	c #857C6D",
"(+	c #908777",
"_+	c #574C3F",
":+	c #585046",
"<+	c #8C8577",
"[+	c #837B6D",
"}+	c #8A8171",
"|+	c #72695C",
"1+	c #80786C",
"2+	c #7D7669",
"3+	c #7E7669",
"4+	c #888278",
"5+	c #898378",
"6+	c #8F887B",
"7+	c #8F8879",
"8+	c #62574A",
"9+	c #645D54",
"0+	c #8E8678",
"a+	c #6D6456",
"b+	c #706759",
"c+	c #766D5F",
"d+	c #776D5F",
"e+	c #797061",
"f+	c #776E5F",
"g+	c #817767",
"h+	c #564B3E",
"i+	c #4F473D",
"j+	c #7C7363",
"k+	c #7F7668",
"l+	c #857D6F",
"m+	c #878072",
"n+	c #81796A",
"o+	c #7B7062",
"p+	c #514334",
"q+	c #463E35",
"r+	c #797062",
"s+	c #746B5D",
"t+	c #91887A",
"u+	c #544A3F",
"v+	c #7D776B",
"w+	c #6E6659",
"x+	c #7E786C",
"y+	c #837D71",
"z+	c #847E72",
"A+	c #827B6E",
"B+	c #847C6F",
"C+	c #695D4F",
"D+	c #5D564D",
"E+	c #898071",
"F+	c #756B5D",
"G+	c #61584A",
"H+	c #786E5F",
"I+	c #877D6D",
"J+	c #564B3F",
"K+	c #51493E",
"L+	c #6D6558",
"M+	c #7E7667",
"N+	c #8B8171",
"O+	c #594D40",
"P+	c #474037",
"Q+	c #746B5C",
"R+	c #716859",
"S+	c #72695B",
"T+	c #7F7667",
"U+	c #807666",
"V+	c #7E766A",
"W+	c #918A7B",
"X+	c #928A7D",
"Y+	c #574B3F",
"Z+	c #3B3228",
"`+	c #706A5F",
" @	c #7B7467",
".@	c #766E62",
"+@	c #736A5D",
"@@	c #837C70",
"#@	c #7C7569",
"$@	c #7F786D",
"%@	c #868075",
"&@	c #807A6E",
"*@	c #827C70",
"=@	c #958E81",
"-@	c #716558",
";@	c #4C433A",
">@	c #7E7466",
",@	c #7A7061",
"'@	c #5F5649",
")@	c #564D40",
"!@	c #696052",
"~@	c #807668",
"{@	c #50493F",
"]@	c #8B8476",
"^@	c #898173",
"/@	c #776F61",
"(@	c #4F4539",
"_@	c #413A31",
":@	c #797264",
"<@	c #8C8476",
"[@	c #938C7E",
"}@	c #43372A",
"|@	c #2D241B",
"1@	c #736D63",
"2@	c #7C7669",
"3@	c #7E776A",
"4@	c #7C7366",
"5@	c #847D6F",
"6@	c #817B6E",
"7@	c #827C6F",
"8@	c #847D70",
"9@	c #9A9485",
"0@	c #6D6256",
"a@	c #726A5D",
"b@	c #756C5D",
"c@	c #7E7465",
"d@	c #665B4B",
"e@	c #736B5D",
"f@	c #83796A",
"g@	c #53483C",
"h@	c #463F36",
"i@	c #857E70",
"j@	c #918B7D",
"k@	c #4E4439",
"l@	c #423C33",
"m@	c #81786A",
"n@	c #888071",
"o@	c #837C6F",
"p@	c #7F796C",
"q@	c #7F786A",
"r@	c #867B6B",
"s@	c #3E3124",
"t@	c #322920",
"u@	c #777165",
"v@	c #928B7D",
"w@	c #817869",
"x@	c #82796A",
"y@	c #8C8373",
"z@	c #837A6C",
"A@	c #7B7366",
"B@	c #888174",
"C@	c #878074",
"D@	c #5F554A",
"E@	c #50483E",
"F@	c #786E60",
"G@	c #6D6253",
"H@	c #6C6253",
"I@	c #766D5E",
"J@	c #6E6558",
"K@	c #51463A",
"L@	c #433C34",
"M@	c #7A7366",
"N@	c #80796C",
"O@	c #898174",
"P@	c #877F71",
"Q@	c #898274",
"R@	c #787063",
"S@	c #7D7467",
"T@	c #857F73",
"U@	c #868072",
"V@	c #888274",
"W@	c #877B6B",
"X@	c #34291E",
"Y@	c #2E261D",
"Z@	c #766F63",
"`@	c #968E7F",
" #	c #8E8576",
".#	c #8F877A",
"+#	c #837B6C",
"@#	c #888072",
"##	c #827C71",
"$#	c #7E776C",
"%#	c #574E43",
"&#	c #524B42",
"*#	c #5B5143",
"=#	c #5E5243",
"-#	c #7B7262",
";#	c #7E7464",
">#	c #4A4035",
",#	c #938B7C",
"'#	c #887F71",
")#	c #8A8071",
"!#	c #4C4237",
"~#	c #423B32",
"{#	c #776F62",
"]#	c #827A6D",
"^#	c #8D8577",
"/#	c #8B8375",
"(#	c #8D8576",
"_#	c #999080",
":#	c #817464",
"<#	c #33281D",
"[#	c #352C23",
"}#	c #928A7C",
"|#	c #887F70",
"1#	c #7F7768",
"2#	c #938A7A",
"3#	c #817A6E",
"4#	c #574D42",
"5#	c #544D44",
"6#	c #7E7565",
"7#	c #877C6D",
"8#	c #493F34",
"9#	c #413B32",
"0#	c #8D8474",
"a#	c #8B8374",
"b#	c #7D7567",
"c#	c #82796B",
"d#	c #54493D",
"e#	c #453E35",
"f#	c #8C8578",
"g#	c #877D6E",
"h#	c #8F8777",
"i#	c #948B7B",
"j#	c #908879",
"k#	c #928A7A",
"l#	c #9A9384",
"m#	c #8A7E6C",
"n#	c #392C20",
"o#	c #382F25",
"p#	c #80786B",
"q#	c #928A7B",
"r#	c #92897B",
"s#	c #938B7D",
"t#	c #948B7C",
"u#	c #908778",
"v#	c #948C7E",
"w#	c #837D6F",
"x#	c #80796B",
"y#	c #5A5045",
"z#	c #514B42",
"A#	c #8F887A",
"B#	c #8A8172",
"C#	c #7F7769",
"D#	c #897F70",
"E#	c #8D8374",
"F#	c #92897A",
"G#	c #887E6F",
"H#	c #827868",
"I#	c #867C6C",
"J#	c #483D32",
"K#	c #4C453C",
"L#	c #7C7264",
"M#	c #8A8376",
"N#	c #4B443B",
"O#	c #867C6D",
"P#	c #857B6B",
"Q#	c #989183",
"R#	c #948C7D",
"S#	c #817564",
"T#	c #35291E",
"U#	c #392F25",
"V#	c #968F81",
"W#	c #938C7D",
"X#	c #958D7E",
"Y#	c #8E8676",
"Z#	c #857D6E",
"`#	c #867C6E",
" $	c #53493E",
".$	c #756B5E",
"+$	c #797063",
"@$	c #7B7265",
"#$	c #968D7D",
"$$	c #918879",
"%$	c #938B7B",
"&$	c #726859",
"*$	c #4D4235",
"=$	c #534C43",
"-$	c #51473B",
";$	c #4B443C",
">$	c #867D6D",
",$	c #8F8676",
"'$	c #8D8475",
")$	c #786D5D",
"!$	c #352B20",
"~$	c #3A3025",
"{$	c #90887A",
"]$	c #8E877A",
"^$	c #50463B",
"/$	c #473F35",
"($	c #655A4D",
"_$	c #403429",
":$	c #675D50",
"<$	c #8B8274",
"[$	c #8F8677",
"}$	c #958D7F",
"|$	c #625749",
"1$	c #5B4E3F",
"2$	c #7F7464",
"3$	c #524B41",
"4$	c #7B7466",
"5$	c #847D6E",
"6$	c #51463B",
"7$	c #878174",
"8$	c #8B8477",
"9$	c #857C6C",
"0$	c #84796A",
"a$	c #8C8273",
"b$	c #372C20",
"c$	c #3C3227",
"d$	c #8F8778",
"e$	c #898172",
"f$	c #7B7468",
"g$	c #867F73",
"h$	c #8E8677",
"i$	c #4A3E31",
"j$	c #352A1F",
"k$	c #493828",
"l$	c #291E14",
"m$	c #3C2E21",
"n$	c #493A2C",
"o$	c #594C3E",
"p$	c #645748",
"q$	c #635648",
"r$	c #6B5F50",
"s$	c #726658",
"t$	c #685B4B",
"u$	c #483A2B",
"v$	c #392B1F",
"w$	c #403124",
"x$	c #685B4D",
"y$	c #584A3C",
"z$	c #564D42",
"A$	c #726A5C",
"B$	c #766C5D",
"C$	c #7D7263",
"D$	c #4F4337",
"E$	c #494138",
"F$	c #756A5C",
"G$	c #74695A",
"H$	c #6D6254",
"I$	c #665B4D",
"J$	c #716556",
"K$	c #6F6253",
"L$	c #6F6354",
"M$	c #6E6151",
"N$	c #6B5D4D",
"O$	c #675A4B",
"P$	c #6A5C4D",
"Q$	c #685B4C",
"R$	c #3B2F23",
"S$	c #3B3126",
"T$	c #695F52",
"U$	c #6D6356",
"V$	c #6E6456",
"W$	c #706558",
"X$	c #7A7063",
"Y$	c #776F63",
"Z$	c #7A7062",
"`$	c #756959",
" %	c #3E3023",
".%	c #1A140E",
"+%	c #312418",
"@%	c #261C13",
"#%	c #221810",
"$%	c #2A1E14",
"%%	c #2A1E13",
"&%	c #2E2116",
"*%	c #312317",
"=%	c #2F2216",
"-%	c #2F2217",
";%	c #3B2C1E",
">%	c #312316",
",%	c #403325",
"'%	c #413427",
")%	c #3E3327",
"!%	c #3D3329",
"~%	c #403529",
"{%	c #43372B",
"]%	c #3F3327",
"^%	c #3E3328",
"/%	c #483C30",
"(%	c #43382C",
"_%	c #4B3E31",
":%	c #514437",
"<%	c #493D30",
"[%	c #433629",
"}%	c #423426",
"|%	c #30261C",
"1%	c #3F3123",
"2%	c #322417",
"3%	c #332518",
"4%	c #3A2A1C",
"5%	c #2B1F14",
"6%	c #302316",
"7%	c #2E2115",
"8%	c #302216",
"9%	c #2D2015",
"0%	c #322418",
"a%	c #302317",
"b%	c #332519",
"c%	c #302418",
"d%	c #221A11",
"e%	c #241B13",
"f%	c #34261A",
"g%	c #35261A",
"h%	c #342519",
"i%	c #3B2D20",
"j%	c #35281C",
"k%	c #3A2E22",
"l%	c #3B3025",
"m%	c #3C3126",
"n%	c #3A3026",
"o%	c #3D3328",
"p%	c #36281B",
"q%	c #373128",
"r%	c #655A4C",
"s%	c #4C4033",
"t%	c #4D4033",
"u%	c #4C3F32",
"v%	c #4F4437",
"w%	c #524539",
"x%	c #685848",
"y%	c #635444",
"z%	c #5C4D3E",
"A%	c #615344",
"B%	c #655645",
"C%	c #5E5142",
"D%	c #42382D",
"E%	c #29231C",
"F%	c #57514A",
"G%	c #857D72",
"H%	c #857D73",
"I%	c #756F66",
"J%	c #726B62",
"K%	c #726A5F",
"L%	c #7C7367",
"M%	c #726A5E",
"N%	c #6E6356",
"O%	c #746D61",
"P%	c #766D61",
"Q%	c #817669",
"R%	c #594C40",
"S%	c #514B43",
"T%	c #5E5244",
"U%	c #746B61",
"V%	c #6A6054",
"W%	c #6B5E4F",
"X%	c #3F3429",
"Y%	c #3B3127",
"Z%	c #493C2F",
"`%	c #4B3F32",
" &	c #44392C",
".&	c #473B2F",
"+&	c #504234",
"@&	c #655A4B",
"#&	c #493E33",
"$&	c #474137",
"%&	c #72685A",
"&&	c #5A4D3F",
"*&	c #56493A",
"=&	c #554737",
"-&	c #807970",
";&	c #868179",
">&	c #837B6F",
",&	c #7D766A",
"'&	c #7D756A",
")&	c #70685D",
"!&	c #7F766C",
"~&	c #40382F",
"{&	c #8D8272",
"]&	c #928575",
"^&	c #978C7C",
"/&	c #968D7E",
"(&	c #8A8072",
"_&	c #918575",
":&	c #928471",
"<&	c #827565",
"[&	c #837D73",
"}&	c #8C847B",
"|&	c #8A7966",
"1&	c #645645",
"2&	c #5D564B",
"3&	c #9C9484",
"4&	c #989181",
"5&	c #999182",
"6&	c #8A7F70",
"7&	c #544739",
"8&	c #443B31",
"9&	c #9D9586",
"0&	c #9A9181",
"a&	c #8E8372",
"b&	c #9C9487",
"c&	c #978B7A",
"d&	c #514233",
"e&	c #938C7F",
"f&	c #948877",
"g&	c #6D5D4D",
"h&	c #665F57",
"i&	c #635A4D",
"j&	c #70685A",
"k&	c #968B7A",
"l&	c #877966",
"m&	c #4B3C2C",
"n&	c #7B7061",
"o&	c #756D60",
"p&	c #716658",
"q&	c #2D2319",
"r&	c #736B5E",
"s&	c #857969",
"t&	c #453628",
"u&	c #948C7C",
"v&	c #8C8678",
"w&	c #7E7769",
"x&	c #898072",
"y&	c #5C4E40",
"z&	c #6C6354",
"A&	c #6E6557",
"B&	c #5C5243",
"C&	c #5B5346",
"D&	c #9B9183",
"E&	c #807566",
"F&	c #7D7162",
"G&	c #2D241A",
"H&	c #675E52",
"I&	c #71695B",
"J&	c #877F70",
"K&	c #8A7E6F",
"L&	c #3D3024",
"M&	c #696155",
"N&	c #989081",
"O&	c #948D7E",
"P&	c #756D61",
"Q&	c #4F483E",
"R&	c #766E60",
"S&	c #7C7467",
"T&	c #5C5246",
"U&	c #514A41",
"V&	c #827A6B",
"W&	c #827969",
"X&	c #7D7363",
"Y&	c #796E5F",
"Z&	c #3B2E21",
"`&	c #272018",
" *	c #6D6457",
".*	c #877E6E",
"+*	c #91897A",
"@*	c #989082",
"#*	c #827767",
"$*	c #3C2F22",
"%*	c #756E61",
"&*	c #908779",
"**	c #93897A",
"=*	c #544A3E",
"-*	c #4A443B",
";*	c #6F675A",
">*	c #999183",
",*	c #5E5346",
"'*	c #8B8172",
")*	c #8F8779",
"!*	c #999181",
"~*	c #7A6F61",
"{*	c #413325",
"]*	c #262019",
"^*	c #867E6F",
"/*	c #746B5E",
"(*	c #837767",
"_*	c #40362A",
":*	c #797265",
"<*	c #958D7D",
"[*	c #918778",
"}*	c #7C7568",
"|*	c #50473C",
"1*	c #4D473F",
"2*	c #766E61",
"3*	c #837C6E",
"4*	c #978E7F",
"5*	c #9B9383",
"6*	c #62584B",
"7*	c #9C9486",
"8*	c #81786B",
"9*	c #574B3D",
"0*	c #6F675B",
"a*	c #7C6F5F",
"b*	c #3A2D20",
"c*	c #473D31",
"d*	c #8E887D",
"e*	c #918A7C",
"f*	c #8D877A",
"g*	c #534A3F",
"h*	c #524C43",
"i*	c #807A6C",
"j*	c #7C7567",
"k*	c #594F42",
"l*	c #897E6F",
"m*	c #928879",
"n*	c #7E776B",
"o*	c #847C6D",
"p*	c #7F7363",
"q*	c #3D2F22",
"r*	c #41362A",
"s*	c #746C5F",
"t*	c #8D8677",
"u*	c #958E7F",
"v*	c #8B8478",
"w*	c #8D8678",
"x*	c #888276",
"y*	c #857F72",
"z*	c #979083",
"A*	c #878176",
"B*	c #888277",
"C*	c #5B5145",
"D*	c #5F584F",
"E*	c #827B6F",
"F*	c #81796C",
"G*	c #4F4439",
"H*	c #51493F",
"I*	c #7A7365",
"J*	c #473D32",
"K*	c #433D34",
"L*	c #746C60",
"M*	c #443527",
"N*	c #9E9586",
"O*	c #8C867A",
"P*	c #8C877A",
"Q*	c #868074",
"R*	c #564C41",
"S*	c #60574C",
"T*	c #574C40",
"U*	c #4E463C",
"V*	c #8E8575",
"W*	c #766D60",
"X*	c #4A3F34",
"Y*	c #888073",
"Z*	c #928878",
"`*	c #7D7365",
" =	c #908676",
".=	c #8F8576",
"+=	c #6C6153",
"@=	c #8D877B",
"#=	c #857E72",
"$=	c #574E42",
"%=	c #484139",
"&=	c #49433B",
"*=	c #8F877B",
"==	c #978F81",
"-=	c #857968",
";=	c #31281E",
">=	c #8E8779",
",=	c #776A59",
"'=	c #645B4E",
")=	c #8D8679",
"!=	c #817B6F",
"~=	c #948D80",
"{=	c #8C8477",
"]=	c #564D43",
"^=	c #4F4940",
"/=	c #887F6F",
"(=	c #918A7D",
"_=	c #504538",
":=	c #48433B",
"<=	c #777065",
"[=	c #787164",
"}=	c #8D877C",
"|=	c #979082",
"1=	c #847767",
"2=	c #362A1E",
"3=	c #2C241A",
"4=	c #867E71",
"5=	c #6A5F4F",
"6=	c #584F43",
"7=	c #898276",
"8=	c #857E71",
"9=	c #585044",
"0=	c #504A42",
"a=	c #554A3D",
"b=	c #4A443C",
"c=	c #797165",
"d=	c #847E71",
"e=	c #857867",
"f=	c #362A1F",
"g=	c #2E251C",
"h=	c #71685C",
"i=	c #5C5245",
"j=	c #4C463D",
"k=	c #888175",
"l=	c #938C81",
"m=	c #817B71",
"n=	c #595046",
"o=	c #524A40",
"p=	c #8C8376",
"q=	c #584E42",
"r=	c #7E7363",
"s=	c #2C221A",
"t=	c #292119",
"u=	c #847A6C",
"v=	c #4E473D",
"w=	c #71695C",
"x=	c #8B8275",
"y=	c #898277",
"z=	c #64594B",
"A=	c #61584B",
"B=	c #6D6355",
"C=	c #685E50",
"D=	c #6B6153",
"E=	c #655B4D",
"F=	c #5D5143",
"G=	c #574B3E",
"H=	c #625546",
"I=	c #675B4D",
"J=	c #5E5040",
"K=	c #31261B",
"L=	c #292018",
"M=	c #54473A",
"N=	c #605345",
"O=	c #635749",
"P=	c #5F5345",
"Q=	c #615546",
"R=	c #6A5D4E",
"S=	c #655849",
"T=	c #605446",
"U=	c #63584A",
"V=	c #665C4F",
"W=	c #716759",
"X=	c #50463A",
"Y=	c #3C3025",
"Z=	c #392E23",
"`=	c #3D3126",
" -	c #3C3226",
".-	c #392E24",
"+-	c #40362C",
"@-	c #44392E",
"#-	c #41362B",
"$-	c #463A2E",
"%-	c #41352A",
"&-	c #44372A",
"*-	c #3E3429",
"=-	c #584D3F",
"--	c #53493C",
";-	c #413528",
">-	c #423528",
",-	c #34271A",
"'-	c #3D3125",
")-	c #30251A",
"!-	c #32281F",
"~-	c #42362A",
"{-	c #403428",
"]-	c #3F3428",
"^-	c #34271B",
"/-	c #2C1F15",
"(-	c #271B11",
"_-	c #1F160E",
":-	c #1E160F",
"<-	c #201911",
"[-	c #1F1810",
"}-	c #201810",
"|-	c #2C2116",
"1-	c #1D160F",
"2-	c #18120D",
"3-	c #281D14",
"4-	c #1D150F",
"5-	c #201710",
"6-	c #231910",
"7-	c #261B11",
"8-	c #281C12",
"9-	c #372A1E",
"0-	c #362B20",
"a-	c #3A2F24",
"b-	c #3D3227",
"c-	c #3A2E23",
"d-	c #60584C",
"e-	c #7A7266",
"f-	c #817A70",
"g-	c #7E766B",
"h-	c #797167",
"i-	c #7A7267",
"j-	c #776F64",
"k-	c #736C61",
"l-	c #6C655B",
"m-	c #696359",
"n-	c #6D665C",
"o-	c #827A6E",
"p-	c #786A59",
"q-	c #675D52",
"r-	c #756D5F",
"s-	c #7C7265",
"t-	c #726A60",
"u-	c #807A71",
"v-	c #6D655A",
"w-	c #4F4234",
"x-	c #453A2F",
"y-	c #43382B",
"z-	c #5C4E3F",
"A-	c #7B7269",
"B-	c #61584F",
"C-	c #625A52",
"D-	c #827C72",
"E-	c #7D766C",
"F-	c #665E56",
"G-	c #3F352B",
"H-	c #382F27",
"I-	c #383029",
"J-	c #3D3228",
"K-	c #393028",
"L-	c #37312B",
"M-	c #39332C",
"N-	c #3C352E",
"O-	c #473C31",
"P-	c #271F17",
"Q-	c #28221B",
"R-	c #42392F",
"S-	c #35302A",
"T-	c #342E27",
"U-	c #3E342A",
"V-	c #39322B",
"W-	c #40362D",
"X-	c #483C2F",
"Y-	c #4A3D2F",
"Z-	c #514435",
"`-	c #787165",
" ;	c #736A60",
".;	c #6D6458",
"+;	c #665748",
"@;	c #4C443A",
"#;	c #90887B",
"$;	c #979183",
"%;	c #9E9585",
"&;	c #9A9282",
"*;	c #766858",
"=;	c #62594C",
"-;	c #958F82",
";;	c #968F82",
">;	c #9B9487",
",;	c #9A9284",
"';	c #A29C8F",
");	c #9F988C",
"!;	c #92887B",
"~;	c #91897C",
"{;	c #948D7F",
"];	c #8A8276",
"^;	c #8D8476",
"/;	c #989083",
"(;	c #9B9385",
"_;	c #999186",
":;	c #9F988D",
"<;	c #9D978C",
"[;	c #999185",
"};	c #8C8071",
"|;	c #413529",
"1;	c #3E362C",
"2;	c #999388",
"3;	c #938B7E",
"4;	c #999283",
"5;	c #9B958A",
"6;	c #989186",
"7;	c #8C8274",
"8;	c #584D40",
"9;	c #837D70",
"0;	c #66594A",
"a;	c #847B6E",
"b;	c #928C80",
"c;	c #3C2F23",
"d;	c #463F37",
"e;	c #777063",
"f;	c #716555",
"g;	c #32271C",
"h;	c #221C16",
"i;	c #696154",
"j;	c #857E6F",
"k;	c #80796D",
"l;	c #898273",
"m;	c #8B8373",
"n;	c #605548",
"o;	c #8A8275",
"p;	c #7A6F60",
"q;	c #34281C",
"r;	c #31281F",
"s;	c #6E665A",
"t;	c #746859",
"u;	c #221D17",
"v;	c #685F52",
"w;	c #483D31",
"x;	c #4E483F",
"y;	c #6C6355",
"z;	c #928979",
"A;	c #928978",
"B;	c #5F5346",
"C;	c #534B42",
"D;	c #8B8578",
"E;	c #8F887C",
"F;	c #979084",
"G;	c #797266",
"H;	c #7A6E5F",
"I;	c #33271B",
"J;	c #665E53",
"K;	c #807869",
"L;	c #261E17",
"M;	c #28211A",
"N;	c #82796C",
"O;	c #403327",
"P;	c #4D473D",
"Q;	c #6B6051",
"R;	c #2D2218",
"S;	c #645D51",
"T;	c #7D7264",
"U;	c #2A221A",
"V;	c #352B21",
"W;	c #8D8578",
"X;	c #776C5E",
"Y;	c #3B2D21",
"Z;	c #55493C",
"`;	c #565048",
" >	c #8F897B",
".>	c #211B16",
"+>	c #5F574B",
"@>	c #7E7467",
"#>	c #34281E",
"$>	c #948D81",
"%>	c #726759",
"&>	c #32261B",
"*>	c #969084",
"=>	c #918777",
"->	c #514538",
";>	c #736758",
">>	c #2E2319",
",>	c #221C17",
"'>	c #6A6155",
")>	c #8B8376",
"!>	c #554738",
"~>	c #5A5146",
"{>	c #958C7E",
"]>	c #746A5B",
"^>	c #392D20",
"/>	c #5B5147",
"(>	c #4F4942",
"_>	c #8E8679",
":>	c #90897B",
"<>	c #8B8272",
"[>	c #857A6B",
"}>	c #796D5E",
"|>	c #2F2419",
"1>	c #241F19",
"2>	c #8C8579",
"3>	c #8F8575",
"4>	c #64584A",
"5>	c #554E44",
"6>	c #352A1E",
"7>	c #372D23",
"8>	c #6E675B",
"9>	c #898275",
"0>	c #554E45",
"a>	c #7E7262",
"b>	c #2F241A",
"c>	c #27221B",
"d>	c #847C70",
"e>	c #524A41",
"f>	c #7C7162",
"g>	c #2A211A",
"h>	c #686054",
"i>	c #554B3F",
"j>	c #554E47",
"k>	c #948D82",
"l>	c #9C9588",
"m>	c #9F988B",
"n>	c #8E867A",
"o>	c #7F796D",
"p>	c #8A8377",
"q>	c #786D5E",
"r>	c #29211B",
"s>	c #736B5F",
"t>	c #9C9586",
"u>	c #958C7D",
"v>	c #4D4337",
"w>	c #4A4239",
"x>	c #928B7C",
"y>	c #918878",
"z>	c #766C5E",
"A>	c #272019",
"B>	c #211C17",
"C>	c #645C51",
"D>	c #8D867A",
"E>	c #2F251B",
"F>	c #261F19",
"G>	c #7C7468",
"H>	c #7D7569",
"I>	c #483E34",
"J>	c #453F37",
"K>	c #716557",
"L>	c #282019",
"M>	c #251F19",
"N>	c #958E82",
"O>	c #908A7C",
"P>	c #888172",
"Q>	c #544B40",
"R>	c #7E786B",
"S>	c #837D72",
"T>	c #80776A",
"U>	c #2A221B",
"V>	c #6A6256",
"W>	c #988F80",
"X>	c #5A4F42",
"Y>	c #464038",
"Z>	c #8C8576",
"`>	c #6D6354",
" ,	c #2C2219",
".,	c #382E23",
"+,	c #979184",
"@,	c #958E80",
"#,	c #484037",
"$,	c #7A7368",
"%,	c #8E8577",
"&,	c #716A5D",
"*,	c #9A9486",
"=,	c #2D241C",
"-,	c #2D261D",
";,	c #686155",
">,	c #5B5044",
",,	c #403326",
"',	c #3C3125",
"),	c #63574A",
"!,	c #63594B",
"~,	c #645A4D",
"{,	c #786F63",
"],	c #6F6458",
"^,	c #62584C",
"/,	c #736759",
"(,	c #6B5F51",
"_,	c #6C6052",
":,	c #695E50",
"<,	c #675B4C",
"[,	c #433628",
"},	c #30261D",
"|,	c #5C5145",
"1,	c #645A4F",
"2,	c #605549",
"3,	c #615649",
"4,	c #63584B",
"5,	c #6E6355",
"6,	c #726659",
"7,	c #61584C",
"8,	c #685F53",
"9,	c #6A6154",
"0,	c #6D6051",
"a,	c #3C3024",
"b,	c #61574A",
"c,	c #6A5E50",
"d,	c #655C4F",
"e,	c #63594D",
"f,	c #41382F",
"g,	c #5F564A",
"h,	c #665D50",
"i,	c #685D50",
"j,	c #65594A",
"k,	c #695C4D",
"l,	c #695D4E",
"m,	c #6A5E4F",
"n,	c #605547",
"o,	c #5F5549",
"p,	c #685D4F",
"q,	c #251B13",
"r,	c #342619",
"s,	c #322519",
"t,	c #3F3225",
"u,	c #382B1F",
"v,	c #36291C",
"w,	c #35271A",
"x,	c #2E2216",
"y,	c #33261A",
"z,	c #2F2317",
"A,	c #352619",
"B,	c #19130D",
"C,	c #2D2117",
"D,	c #251A11",
"E,	c #281D12",
"F,	c #3F3326",
"G,	c #2E2318",
"H,	c #261B13",
"I,	c #251C14",
"J,	c #3D3023",
"K,	c #322518",
"L,	c #2D1F14",
"M,	c #3B3024",
"N,	c #463B2F",
"O,	c #443A2E",
"P,	c #44392D",
"Q,	c #3C3228",
"R,	c #3E3226",
"S,	c #33291F",
"T,	c #291F16",
"U,	c #2E2217",
"V,	c #392D21",
"W,	c #32251A",
"X,	c #241911",
"Y,	c #211811",
"Z,	c #1F1710",
"`,	c #291D12",
" '	c #3B2F22",
".'	c #2C2016",
"+'	c #52493C",
"@'	c #5C5042",
"#'	c #3A322A",
"$'	c #504435",
"%'	c #504233",
"&'	c #41372E",
"*'	c #3F362E",
"='	c #3A332B",
"-'	c #3C3630",
";'	c #3C362F",
">'	c #3D3731",
",'	c #443A2F",
"''	c #5D5041",
")'	c #362D23",
"!'	c #362F27",
"~'	c #51473C",
"{'	c #453B30",
"]'	c #574A3D",
"^'	c #41372B",
"/'	c #625547",
"('	c #807B74",
"_'	c #847E77",
":'	c #807A73",
"<'	c #7A756C",
"['	c #7A746C",
"}'	c #7B766F",
"|'	c #7A756E",
"1'	c #7B756B",
"2'	c #635950",
"3'	c #5E574E",
"4'	c #787065",
"5'	c #837C74",
"6'	c #847D76",
"7'	c #7E7970",
"8'	c #777068",
"9'	c #6E675D",
"0'	c #645D53",
"a'	c #6C645B",
"b'	c #7B756C",
"c'	c #7F7970",
"d'	c #7C776D",
"e'	c #7E7770",
"f'	c #312A22",
"g'	c #4D4338",
"h'	c #3F352A",
"i'	c #3A322B",
"j'	c #3B352E",
"k'	c #3B342D",
"l'	c #38322B",
"m'	c #3B332C",
"n'	c #463B30",
"o'	c #493E31",
"p'	c #625446",
"q'	c #483C31",
"r'	c #463C30",
"s'	c #867D70",
"t'	c #9A9385",
"u'	c #938A7C",
"v'	c #968D7F",
"w'	c #9E978C",
"x'	c #9D968A",
"y'	c #938C80",
"z'	c #9E988F",
"A'	c #A49D94",
"B'	c #A59E95",
"C'	c #A19A8E",
"D'	c #9E9689",
"E'	c #8B8070",
"F'	c #423A31",
"G'	c #8B867B",
"H'	c #9E988B",
"I'	c #9A9388",
"J'	c #90887C",
"K'	c #A0988A",
"L'	c #50473D",
"M'	c #787064",
"N'	c #827769",
"O'	c #968E81",
"P'	c #9E968B",
"Q'	c #A0988D",
"R'	c #9D978D",
"S'	c #979085",
"T'	c #9B9488",
"U'	c #9B9387",
"V'	c #9F978B",
"W'	c #989184",
"X'	c #8A7F71",
"Y'	c #261F17",
"Z'	c #908677",
"`'	c #736757",
" )	c #2C2218",
".)	c #49433A",
"+)	c #746D60",
"@)	c #706657",
"#)	c #332A20",
"$)	c #736C60",
"%)	c #948B7D",
"&)	c #2A2018",
"*)	c #7A6E5E",
"=)	c #665E52",
"-)	c #9A9081",
";)	c #5D5144",
">)	c #766F62",
",)	c #847E73",
"')	c #342B21",
"))	c #241D16",
"!)	c #231E18",
"~)	c #898175",
"{)	c #7B6F5F",
"])	c #211C16",
"^)	c #988E7F",
"/)	c #9D9485",
"()	c #564C40",
"_)	c #494239",
":)	c #8B8475",
"<)	c #7A7468",
"[)	c #726B5F",
"})	c #786B5B",
"|)	c #211D17",
"1)	c #978F7F",
"2)	c #9D9585",
"3)	c #978E7E",
"4)	c #958B7B",
"5)	c #4A433A",
"6)	c #716B5F",
"7)	c #7D7566",
"8)	c #6F6353",
"9)	c #6A6357",
"0)	c #9B9384",
"a)	c #968F80",
"b)	c #999081",
"c)	c #968C7B",
"d)	c #5D5245",
"e)	c #565047",
"f)	c #968E80",
"g)	c #261F18",
"h)	c #655D51",
"i)	c #796D5C",
"j)	c #2B231B",
"k)	c #25201A",
"l)	c #6B6357",
"m)	c #9F9788",
"n)	c #968E7E",
"o)	c #9A9283",
"p)	c #9B9485",
"q)	c #5A4F43",
"r)	c #4C453B",
"s)	c #8C8474",
"t)	c #908A7F",
"u)	c #4B453D",
"v)	c #787166",
"w)	c #948C7F",
"x)	c #8C8478",
"y)	c #706455",
"z)	c #271F18",
"A)	c #6D6455",
"B)	c #72695A",
"C)	c #796F60",
"D)	c #807464",
"E)	c #26201A",
"F)	c #71695D",
"G)	c #978D7D",
"H)	c #55493D",
"I)	c #4E473E",
"J)	c #807767",
"K)	c #5B5045",
"L)	c #4C473E",
"M)	c #726656",
"N)	c #1F1A14",
"O)	c #756B5C",
"P)	c #847969",
"Q)	c #3F3224",
"R)	c #584E41",
"S)	c #7C7465",
"T)	c #5C5347",
"U)	c #544E46",
"V)	c #8B8579",
"W)	c #878173",
"X)	c #251E17",
"Y)	c #221B15",
"Z)	c #6B6356",
"`)	c #7C7262",
" !	c #857A6A",
".!	c #7F7565",
"+!	c #8C8172",
"@!	c #5C4F41",
"#!	c #4F463C",
"$!	c #817769",
"%!	c #5F5448",
"&!	c #857E73",
"*!	c #635B4F",
"=!	c #6E6556",
"-!	c #8B8170",
";!	c #938979",
">!	c #4B443A",
",!	c #564C3F",
"'!	c #857C6F",
")!	c #5B5144",
"!!	c #8A8378",
"~!	c #6F6455",
"{!	c #282018",
"]!	c #2E261C",
"^!	c #686052",
"/!	c #736A5B",
"(!	c #5C5144",
"_!	c #847B6B",
":!	c #888275",
"<!	c #948E81",
"[!	c #8B8577",
"}!	c #726757",
"|!	c #655D50",
"1!	c #7B7161",
"2!	c #766D5D",
"3!	c #5B5043",
"4!	c #423B33",
"5!	c #554B3E",
"6!	c #7D7668",
"7!	c #5A5144",
"8!	c #877F73",
"9!	c #898374",
"0!	c #7C7161",
"a!	c #3C3127",
"b!	c #6C6356",
"c!	c #433B33",
"d!	c #776D60",
"e!	c #72685B",
"f!	c #5E5345",
"g!	c #5A4E41",
"h!	c #4B4034",
"i!	c #473E35",
"j!	c #675E51",
"k!	c #605649",
"l!	c #73685B",
"m!	c #786E61",
"n!	c #4E453B",
"o!	c #6A6053",
"p!	c #6B6155",
"q!	c #675C4D",
"r!	c #625444",
"s!	c #342A1F",
"t!	c #3E3227",
"u!	c #342A20",
"v!	c #32281E",
"w!	c #362C21",
"x!	c #403226",
"y!	c #362B21",
"z!	c #382A1D",
"A!	c #2C1F14",
"B!	c #23180F",
"C!	c #251A10",
"D!	c #392B1E",
"E!	c #2D2115",
"F!	c #3F3328",
"G!	c #382C20",
"H!	c #392F24",
"I!	c #41362C",
"J!	c #2A1F15",
"K!	c #271C12",
"L!	c #221A12",
"  . + @ # $ % & * = @ - ; > , ' ) ! > ~ { ] ^ / ( _ : < [ } | 1 2 3 4 5 6 7 8 9 0 a b c d e f g h i > = j k l m n o p q r s t u ",
"v w x y z A B C D E F F G H I J K L M N O P Q R S T R U V O W X Y Z `  ...+.@.#.i $.N %.&.*.=.-.;.P >.,.'.x ).!.~.{.].^./.(._.:.",
"<.[.}.|.1.2.3.4.5.6.7.%.y 8.9.0.a.b.c.d.e.f.g.h.i.x j.k.l.F m.n.o.p.q.r.s.N t.u.v.x w.x.y.z.A.B.C.D.r.D }.E.F.G.H.I.J.K.L.M.N.O.",
"P.Q.R.S.7.T.d.U.V.W.X.V.Y.B Z.`. +.+++@+@+t.v.#+$+%+&+u.*+Q =+-+;+>+,+'+)+f.!+~+~+{+]+#+^+/+(+_+:+<+[+}+S.|+f.1+2+3+>+4+5+6+7+8+",
"9+0+5.|+d.a+b+c+d+e+f+W.}.V.g+h+i+z j+%.2.,+D.k+l+m+P ,+W.n+o+p+q+r+X.r+s+|+c+{+b+x #+l.x v.t+u+C.v+J.s.w+!+t.>+g.x+y+z+z+A+B+C+",
"D+E+x.d.!+a+3.[.F+c+G+T.F H+I+J+K+L+1.U.,.x.y N B+l+*+s+F M+N+O+P+F Q+d.R+S+*+N T+U+O V+z.W+X+Y+Z+`+ @.@+@'+D.@@r.#@$@%@&@*@=@-@",
";@>@U.b+d.,@8.,+e+'@)@!@2.~@A._+{@k+u.q.G r.]@^@l+&.x /@[.G T+(@_@S+!@7.|.X.'.:@F.x.G [+<@[@Q }@|@1@2@3@4@y G [+5@r.6@7@&@8@9@0@",
"a.a@b@G s+c@f+z d@e@c+d.2.[.f@g@h@G O i@P ]@Z j@s.*+*+x )+r+G k@l@@+|.3.F W.m@k+k+n@o@p@q@[@r@s@t@u@]@v@5@w@T+x@y@z@2+A@B@8@C@D@",
"E@z@k+W.w@X.F@G@H@F I@J@y U.c@K@L@M@N@O@$.z@P@Q@M+x v.G s+F /+k@L@R@r+S@O %.~@w@z.(.T@U@V@` W@X@Y@Z@`@ #.#+##+~+E+@###$#M@H.B+%#",
"&#T+E+z@t.*#=#F+b@-#f@;#c@t.G >#L@ @I.^@,#[+m@&+*+c+#+z@'#w@)#!#~#{#j.]#g.'+^#x.D z./#i.(#_#:#<#[#J._.(.}#|#[.1#2#%+3#~+g.O z@4#",
"5#D A@P %.V.,+V.C ,@6#j+7#6.U+8#9#R@0#.+&.a#r.b#4@,+/+c#@#(#,.d#e#e.*+/#f#G g#,.z h#i#j#k#l#m#n#o#p#q#r#s#t#a#u#v#y.w#x#N@[+'#y#",
"z#A#B#c#C#m@D#E#F#G#x.H#=.I#;#J#K#A@D L#Z M#0+x e.x s.r.]@&.^#J+N#j.e+@#'#O#P#A.x.]+Q#A R#j#S#T#U#J.V#^#V#s#W#X#h.Y#r.P N@Z#`# $",
";+m+.$+$@$s.#$$$W+%$$$c.H#&$V.*$=$n@R.&+k+n@N.,+X.Y.*+$+x#T+x.-$;$g.p.R#$.w }.>$E+,$)#g#'$<+)$!$~$[.I z.{$}#t+}#'$(#u#]$m+5@/#^$",
"/$($_$:$f@^@`#z.<$[$}$f@|$1$2$_+3$2#H 4$u.G 5$R.E+z B %.F k+^@6$5#7$8$$.z.w@9$0#i#A 0$a$M /+`#b$c$)+A a#{${$s#d$e$f$3+g$h$ #&.i$",
"j$k$l$m$n$o$p$q$r$s$t$u$v$w$x$y$z$A.I+]#)+A$@+x z.x.B$,@A.z C$D$E$F$G$G$H$I$J$K$L$M$N$O$P$t$Q$R$S$T$U$V$W$X$F@5.x Y$F.A+b#Z$`$ %",
".%+%@%#%$%$%%%&%*%=%&%&%-%&%;%>%,%'%)%!%~$~%{%]%^%/%(%_%:%<%[%}%|%1%2%3%4%5%6%7%8%9%0%8%a%b%c%d%e%f%g%b%h%i%j%k%l%m%n%o%S$b$p%@%",
"q%r%s%t%/%u%v%w%x%y%z%A%B%C%D%E%F%3#G%H%I%J%K%L%M%N%O%L#S.P%Q%R%S%Y$T%U%V%W%X%Y%Z%`% &.&+&8 @&#&$&%&&&*&=&:$-&;&>&> ,&'&)&'&!&-$",
"~&{&]&^&/&(&_.R O#_&:&<&[&}&|&1&2&*.3&4&F#5&z@f@E+B '#[$$$A+6&7&8&A.s.~+/@G `#0+R 9&0&3&a&b&c&d&8#(.X+9&r#y.Q#e&[$^#,#0+M#@#f&g&",
"h&F@C X.7.i&j&!+S+y G#D#t#k&l&m&K+B#|#D |#$.n@x.H#n&C$F+e+o&p&m$q&|++$r&w@c#o&G L#A.u#[$O#v#s&t&^%a@b# #u&/.v&w&@+H.}#x&#+x@I+y&",
";.z z&A&B&C&a@S+D.N@b#z@,.F#D&x$a.'#j#%.R.A.z.B#H#}.B E&d+*+F& %G&H&r++@I&=.J&A >@6.E+ #h#$$K&L&Y%M&O n@`@N&O&h$a@P&P@E+/#=.=._+",
"Q&N :$%&%&d.R&S+N S&8@m+(&j#/#T&U&{$G#f@W.V&,$^+W&}.6.X&S+G Y&Z&`& *g#++z..*D.8.6.A.A /#+*@*#*$*Y%%*[$n@Q#3&/&&*/#u.'.D z@D **=*",
"-*;*b+2.S+'+|.A&)+3+>+[+B#z.>*,*{@|#c.a$'*)*!*0#]+'.%.5.+$d+~*{*]* *^*w@C#b#/*,+w I#N+n@B#v#(*m$_*:*<*<@_.[*^*h.).o@}*y.>+A@B+|*",
"1*2*U.d.G r+t.e@c+f.x#L.3*4*5*6*3$5.6.E+H z.7*(+#+8*e.p.u.F@C 9*Y%0*c#y.8@R@|.}.A ^+D#P#z G#a*b*c*j.i.2#N&R#^#M#6@d*Z e*f*M#N@g*",
"h*p.3+e@l+3+~+2+F.2*>+i*j*q@r.k*K c.l*|#x.B#m*0#W&O M%n*2+x %.d#&#C#o*P ,#A@!+Y.|#g#D w O#G#p*q*r*s*t*R.>*u*<+v*@@w*x*y*z*A*B*C*",
"D*V@E*N N p#b#O 3+,+F*A+R@R@F G*H*A z |#h.A B#^+T+3+2+I*l.b#x J*K*L*|#B#'$E+D R.T+R.6.>$>$'$W@M*l%|+M **N*@*w*O*E*I.P*J.Q*y+A*R*",
"S*x#f$}*u.l+b#D.>+3*B@T@}*F.x.T*U*&.m@'#L ,.V*z.|#W*D.~+@#5@k+X*=$Y*d$j#A#[$[$Z*=.`*`*L#z.a$:#q*!$|  =a$.=}#)*P S&u.!.]#p#i@N@+=",
"&$R#0+G.#+o@D.R@z+@=L.#=q@p#B+$=%=[+o*j#x@x@w ]+l+r.o@3@x#P@*+k@&=w**=u*8$j#==_.H x@T+]+E#I -=X@;=|.E+O#i.z.P >=).A+! &+A@3@j*,=",
"'=)=!=/@k+x@&+F*y*~={=Q@A+e E*]=^=5@1#^*+#6./=A g#]+F.(=^@N.x._=:=<=[=N@}=Q#|=u*7+[.U.n@h$`#1=2=3=!+'*$.x@|#[$N.@#).4=B+z@ @@+5=",
"6= @$+n@*+R@)+j*w*$+B@7=8=v+I.9=0=C#&.u.y B P#]+f@/+l+o@<@y.z@a=b=Z@.@c=2+_.d=Q@'#[.f@>$n@z.e=f=g=J@@#o*w@B#)#{$[+@$).&+c#F.h=i=",
"j=v.l.*+[.N a@o&N@E*k=l=I.m=6@n=o=F*J&R.2.e+y /+^@>=]$o*&.[+p=q=1*)=<+~+S&s.m+H.x *+Y.}.f@B#r=s=t= *u=o*A.6.A B#R.m@#+,+k+/*2* $",
"v=*+%&S+s+,+N w=o&* x=y= @n*~+z=A=g.@#g#g+c@,@z W.M+k+B=C=r+*+g@N#@$S&x |+D=C=E=F=G==#H=H=I=J=K=L=M=N=O=P=Q=R=S=T=U=V=W=c++@r+X=",
"s@Y=Z=`= -S$.-U#o%+-D%@-#-$-%-&-*-=---_=i$o%l%Y=;->-;-s@,-'-[%)-!-~-{-]-'-^-&%/-(-_-:-<-[-}-|-1-2-3-:-4-5-6-7-7-8-7%9-0-a-b-c-q*",
"d-e-f-g-h-i-j-k-l-m-k-{ n-o-$ p-q-7.e@r-s-t-u-v-y$w-i$x-y-z-A-B-C-D-E-p F-G-H-I-J-K-L-M-N-O-x-P-Q-R-S-T-U-G-V-W-X-r*Y-Z-`- ;.;+;",
"@;G '.&.Q@#;M#[+>+p#e*[@$;%;&;*;=;}*E*k=]$/#-;;;>;,;';);!;~;^@,*=$8${;w*];s#^;/;&*(;_;:;<;[;};|;1;@.2;3;|=4;5;6;7;U '.E , F .+8;",
"e#[.c#O 8=8@Q@l+A&F.N@9;h$2#(+0;%#g.N@J.7=a;/#b;Q.^@/#Z#v.)*L#c;d;e;]#5@+$C#|.j.E+A T+x.Y.S.f;g;h;i;x@&+j;&+@#k;t.[.$+#+F ,+Y.-$",
"h@l;^*]#A+u.3+A@I&+@s+@+m;,$ =n;Q&w*2+A@8@<+f*B@]@O@o;[+b#m@p;q;r;s;Y*g$A@F.N 5$&.x.D T+1##+t;`&u;v;Z#m@+#7=E*o@P S&#+'.v.c#E w;",
"x;y.,.]@[+B x A@~+r-A&y;x.z;A;B;C;7$8@D;}=B@^@G.A#E;F;w*G;c#H;I;u;J;3+5@N )+Q ]@#.).k+[.x K;F$L;M;o&R.x.Z#0+#.` w#l+v.Q@N;*+C O;",
"P;y.[$g.D.8.*+u.x#x /@V&]+).~+B.h*>=>=~=/#8$i@5@^@<+v#|=S&w=Q;R;u;S;+@G.O w&m@W+&+O j.Y.s.i@T;U;V;.@)*W;P@7=D.$+'##+v.P J&P@X;Y;",
"P+~+m@7.x C#, B+y=g.{#m@'*r.x.Z;`;e&~.{$v@ >{;Q@k=<@ #[$B#e@Q;K=.>+>2*S@C#D.)+W+3*4=k#O@$.o@@>#>]-,++*$>]@p#P c#C##+G w@&.x&%>&>",
"U-w=r+F c 1#8.[.B+k.O n+u.*>=>->&=Y*0+{$/.O*6;V#/.e&^#,.f@>@;>>>,>'>@#<@M@S&S&o-J.k=]#*=M#)>Q !>~>Z {>e*P@i.n@[+o*8.k+&+K;'.]>^>",
"r*w=F r.&+k+G x k+^*s./='$<+'$/>(>A+_>Q.:>{=5;#;/#=@}$<>[>V }>|>1>0*A#]@F.e-}*$+Y*o-C@2>L.^#3>4>5><@d$V&4@J&2+~+>@D P F*l+a#I#6>",
"7>8>8=A@S@9>[+,+C#&.Z#D J&]@Q.T&0>v@q#O&;;o@*=0+&*=@}#h.[.S@a>b>c>P&Q.h.a##=&.)*d>.#C@k=]#w&G _+e>m@v.D )#F#/+*+`#Z$&+K;'.a#f>g>",
"t=h>5@~+S&H.&+M+k+^@Z#l+o;y.B#i>j>k>l>m>n>o>^#0+h.p>8$* 3+c q>X@r>s>6+<@>.'$7+t>u>0+p>I.3@o&r+v>w>+$S@w x>y>L#^*Z#@$3*Z#q@8@z>A>",
"B>C>[+ @D.).)=7+v@<@` Y*D>+*|# $0=A*!.9>o@b i r.)=p.H.I*r.'.H;E>F>.;a#P (=|={;O&X#|#[+G>H>3+x I>J>Q@&., [$I s.e.g.q@r.v.J.B+K>L>",
"M>r-.=y.Q*@#o;6+<+N>O>~.@#P>P Q>1*Y*A+R>S>*@T>A@p.#.f.w=i t+E&U>1>V>2*b#8=/.<+]$&+I W>t*l+)* #X>Y>k;^*b#O s.g.@+[$Z>L.C#N@O `> ,",
".,b#E+<$A# >+,l={=)={;@,/#s.4@K@#,$,E*]#N@{=B#%,:*`-w+&,$+*,[>=,-,;,s*B#'$,#q#h$'*$$,$*.,.R#v#>,J>i@H S&A@[+[.'.E# # .1+}*R&3.,,",
"',),!,~,F.|+{,],^,/,(,_,:,+=<,[,},|,1,2,3,4,5,6,T&7,8,L+~,9,0,a,o%b,i=c,' d,e,@+L#[$u#)#z@a#c#_+f,g,h,l.i,4>O=j,k,l,m,n,o,h,p,Y-",
"q,a%r,s,t,u,v,w,x,y,z,9%8%A,p%q,B,C,D,8-E,8-9%&%D,Z&Z=F,G,H,)-I,G&J,K,L,8%H,C,c-M,N,O,P,c$Q,R,S,T,U,G,V,W,8-X,#%Y,Z,`,9%a%f= '.'",
"+'@'#'$'%'r*&'*'='-';'>','`%'')'!'~'{']'X*^'/'('_':'<'['}'|'1'2'3'4'm 5'6'7'j-8'9'0'a'b'c'd'e'O-f'g'h'o%!%W-i'j'k'#'l'm'n'o'p'q'",
"r's't'u',;v'w'x'y'z'A'B'C'D'E'&-F'G'H'M.I'J'K'==<@u'@#F*a;q..=8+L'^@6+|=%,M#M@N@e M'G;5+].f*N': 1;5+}#{>O'P'Q'R'S'=@T'U'V'W'X'[%",
"Y'j&(#I+n@Z''$B#F*q.n>{$/#^#`' )]*s*o N@9>4=L >=0+E+R.T>R@W*5.-$.)Q.0+j@]@M+o&o&b +)s>e I.#.@)n##)$)O p#B+A#u.%)R.'.^;B#$+m+q>&)",
"u;w+P@H ,#B#8=d>c#H.q./##+]+*)U>,>=)$+P@_#|#Z*-)***.N&'$^@'$ =;).)$.x>s#e$2*>)`-,)4'`-d=y*r.:,b*')'+^@^*/#G.M@v..=a#n@@#u.).5,))",
"!)w=b#*+m@<>r.H.]#T>~)P Q #+{)`&])h>i.+*y>c.Z*[*/&^)q#R#/)R#G#()_)s.:)&*{=#@c=k;[&<)T@` R@H.v.->c$[).=A <>|#i.P M+^@P e$, +$%>L;",
"!)j v.[.r+U.m@Z#D.r.)=` x@x })A>|)V>r.&.0#V* #1)Q#2)_#3)4)I D#-$5)s.,.B+M#B+o o-o;7$t>/+o&@@4=|,*-6)3+J&u#(#l;R@7)@#@#0+d$y 8)t=",
"!)9)v./@b+m.8.V&D./@[.R.K;8.t;`&!)'>~+h$u.Q.5&0)_.a)b)<*3)W>c)d)5)&.B#<$h.{${=N@3;.#>=#.~+r.H.i>e)`-l++*f)(.Q. #[$)*{$z;z@S@L$g)",
"])h)O r+7.b@}.7)G D.B$f@`*%.i)j)k)l)G.w*~;k#R#5*m)N&n)o)p)+*0#q)r)i.j#s)$$/#$.9>t)k.#.>+}*w&[.X=u)v)/#0)+*w)o;x)#.A+i@8=e S&y)z)",
"h;H&r+l.r+x )+2.A)%&B)C)r+e$D)<#E)F)e$@#y.V&^#'$G)$$s#>;q#Q.D#H)I)'#Q.R#^@J)*+, N g.G.x#N Z B+K)L)<+^#q#[+9;8@k=F*u.8@3*7=[+M)M;",
"N)7,l.R&F c#S+Q+B$O)=+e+/+u#P)Q)U#{#x@#+^*(#z./=m*,#t+j#%.x.M R)H*a#y@X#|#~;k+P #.&+S):)P 3+F*T)U)v*Q@V)W)3*o-H.S@#.O k.3*#+L$X)",
"Y)Z)[.N d.s+=+=+`) !.!%.D q#+!@!#!A@$!2.i.u#(+y@5&y>7#.*I#,.Y#C*{@j#0#d$h$)*! W;s.3*3+[+<+x&x %!I)$+5@8@&!L.{=P@8$B@G.C@m+N ' L;",
"t=*!c+c+=!B H#C ++-!w f@z E#;!0.>!F U.&.$.'$'$=.s.C X&C)w W&^+,!<.E+z.l+'!,;u#P i@8@V@,.{$[+'#)!N#8@o-!!D;@.B@#.D;9>9>O*v.x#~!{!",
"]!h)s+^!/!]>;#V. !U+H#A.f@D i#(!N#[.A %.{$F#^+[$T+d.l.S+k+,@_!,*K#z@P@x#@#:!O&z.Y*f#3*e&x><!~;()h*]##+9>I.B@8@P M#[!W)&+m+k+}!`&",
"|%|!1!W=V.X.z ,@C$2!C c+x@c#A 3!4!|+X.L#f@A B#h$^*8.e+r+3.z>c+5!{@F 6!v.L.E*L./;o;i.m*X#^#e*$$7!=$z@*+).r.M#8!m+9!Q@D;f#Z v.0!U;",
"a!b!V$y;.!}.=+;#H+%&3.F+c+`*O#J+c!d.l.d!e!d+4.H$I$T=f!g!P=k*T$h!i!c+s+v;j!k!+=l!m!s'a$)#&.'#x@k*n!E.x #+k+Q@4=r.Q@5@/@o!p!q!r!g;",
"s!t!u!Z=~%|;R,Y=f=v!!$w!c-{-]-T#X@x!a-y!.,M,z!A!=%7-B!B!(-C!u,D!b>Z=M,-%E!9%8->%+%]%{-R,]%F!{-s@G!R,H!^%m%o%I!o%h'^%|;J!D,K!c%L!"};
