/* XPM */
static char * Stone_tiled_bricks_21_xpm[] = {
"64 64 1545 2",
"  	c #45403D",
". 	c #4D4A42",
"+ 	c #716D62",
"@ 	c #716A60",
"# 	c #797367",
"$ 	c #756F63",
"% 	c #767064",
"& 	c #756E64",
"* 	c #777165",
"= 	c #736D61",
"- 	c #746D63",
"; 	c #766F65",
"> 	c #726B61",
", 	c #6D675B",
"' 	c #736C62",
") 	c #777066",
"! 	c #7A736B",
"~ 	c #71685F",
"{ 	c #786E64",
"] 	c #786F66",
"^ 	c #736C64",
"/ 	c #56524D",
"( 	c #3B3736",
"_ 	c #383332",
": 	c #3D3A39",
"< 	c #4E4A45",
"[ 	c #605B57",
"} 	c #665F59",
"| 	c #6B645C",
"1 	c #6E675F",
"2 	c #7B7368",
"3 	c #787266",
"4 	c #787065",
"5 	c #7F776C",
"6 	c #7D766C",
"7 	c #726C60",
"8 	c #766D64",
"9 	c #756C63",
"0 	c #7C736A",
"a 	c #80776E",
"b 	c #655E54",
"c 	c #6C655D",
"d 	c #6F685E",
"e 	c #6F665D",
"f 	c #726960",
"g 	c #70655F",
"h 	c #696057",
"i 	c #736B60",
"j 	c #73695D",
"k 	c #44423A",
"l 	c #373331",
"m 	c #413D39",
"n 	c #766F5D",
"o 	c #756E5C",
"p 	c #7E7564",
"q 	c #7C7461",
"r 	c #7C7362",
"s 	c #7B7462",
"t 	c #7F7665",
"u 	c #807766",
"v 	c #7D7562",
"w 	c #7F7764",
"x 	c #7C7364",
"y 	c #736C5A",
"z 	c #776E5F",
"A 	c #77705E",
"B 	c #797260",
"C 	c #7A7160",
"D 	c #786F5E",
"E 	c #7B7263",
"F 	c #7E7566",
"G 	c #79705F",
"H 	c #786C5C",
"I 	c #7D7060",
"J 	c #817565",
"K 	c #7E7468",
"L 	c #7D756A",
"M 	c #4B4846",
"N 	c #3D3837",
"O 	c #615A54",
"P 	c #686157",
"Q 	c #746C61",
"R 	c #7D7161",
"S 	c #857A68",
"T 	c #897E6C",
"U 	c #867D6C",
"V 	c #7C7060",
"W 	c #867A6A",
"X 	c #787161",
"Y 	c #746D5D",
"Z 	c #7A7363",
"` 	c #766D5C",
" .	c #827668",
"..	c #796D5F",
"+.	c #7A6E60",
"@.	c #7A7162",
"#.	c #665F55",
"$.	c #373330",
"%.	c #443F39",
"&.	c #776F5A",
"*.	c #7B735E",
"=.	c #7E7661",
"-.	c #786D59",
";.	c #746E58",
">.	c #827A65",
",.	c #7B705C",
"'.	c #7C715D",
").	c #786D5B",
"!.	c #746957",
"~.	c #7A6F5D",
"{.	c #7C715F",
"].	c #736B58",
"^.	c #675F4C",
"/.	c #7D7560",
"(.	c #7B7360",
"_.	c #776F5C",
":.	c #807563",
"<.	c #7E715E",
"[.	c #796E5C",
"}.	c #7F7462",
"|.	c #736A59",
"1.	c #413D3A",
"2.	c #3F3B39",
"3.	c #3C3735",
"4.	c #71675D",
"5.	c #72685E",
"6.	c #625A4D",
"7.	c #847965",
"8.	c #857D66",
"9.	c #867B65",
"0.	c #7F745E",
"a.	c #877C68",
"b.	c #7F7762",
"c.	c #7A725D",
"d.	c #857A66",
"e.	c #776C5A",
"f.	c #7F7866",
"g.	c #706855",
"h.	c #817964",
"i.	c #827761",
"j.	c #827562",
"k.	c #837665",
"l.	c #786B5B",
"m.	c #716453",
"n.	c #7A6D5C",
"o.	c #7E7160",
"p.	c #7E7264",
"q.	c #685F56",
"r.	c #393331",
"s.	c #3F3A34",
"t.	c #766E59",
"u.	c #79725F",
"v.	c #79715E",
"w.	c #756D5A",
"x.	c #766E5B",
"y.	c #746C57",
"z.	c #7A725F",
"A.	c #746C59",
"B.	c #756E5B",
"C.	c #7A6F5B",
"D.	c #7E735F",
"E.	c #766B59",
"F.	c #776E5D",
"G.	c #43403C",
"H.	c #433E3C",
"I.	c #484442",
"J.	c #766C63",
"K.	c #796C63",
"L.	c #6C6256",
"M.	c #675D51",
"N.	c #817867",
"O.	c #867B67",
"P.	c #827A63",
"Q.	c #817660",
"R.	c #7D725C",
"S.	c #80755F",
"T.	c #8A8371",
"U.	c #847C67",
"V.	c #877C66",
"W.	c #7B705A",
"X.	c #756A58",
"Y.	c #7D705F",
"Z.	c #7D7163",
"`.	c #383230",
" +	c #413C37",
".+	c #827763",
"++	c #7C745D",
"@+	c #7A6F59",
"#+	c #7D725E",
"$+	c #7F7460",
"%+	c #807561",
"&+	c #796E5A",
"*+	c #78705D",
"=+	c #7B705E",
"-+	c #776A59",
";+	c #7D7260",
">+	c #413C39",
",+	c #3D383A",
"'+	c #786E65",
")+	c #665C50",
"!+	c #72695A",
"~+	c #847963",
"{+	c #867C63",
"]+	c #7B7058",
"^+	c #7E745B",
"/+	c #796D5A",
"(+	c #716653",
"_+	c #7B6E5B",
":+	c #7A6E5B",
"<+	c #7B705B",
"[+	c #756958",
"}+	c #796C5B",
"|+	c #827564",
"1+	c #7C6C5C",
"2+	c #36322E",
"3+	c #423C36",
"4+	c #837864",
"5+	c #7A725B",
"6+	c #7F7760",
"7+	c #837862",
"8+	c #807360",
"9+	c #7C715B",
"0+	c #807362",
"a+	c #7B6F5F",
"b+	c #756C5D",
"c+	c #494542",
"d+	c #423D3E",
"e+	c #413D3B",
"f+	c #7E746B",
"g+	c #6A6054",
"h+	c #716859",
"i+	c #847967",
"j+	c #8A7F6B",
"k+	c #857A64",
"l+	c #766C53",
"m+	c #7A7057",
"n+	c #7D7463",
"o+	c #716452",
"p+	c #7B705D",
"q+	c #7C705F",
"r+	c #7D715E",
"s+	c #736756",
"t+	c #756857",
"u+	c #7B6E5D",
"v+	c #7D6D5D",
"w+	c #6A6257",
"x+	c #35312E",
"y+	c #423C37",
"z+	c #7C745F",
"A+	c #7E7361",
"B+	c #786F60",
"C+	c #433E3D",
"D+	c #3B3735",
"E+	c #796F65",
"F+	c #817569",
"G+	c #6E6556",
"H+	c #746B5A",
"I+	c #817966",
"J+	c #867966",
"K+	c #817662",
"L+	c #807767",
"M+	c #726655",
"N+	c #7F7461",
"O+	c #7B6F5D",
"P+	c #736558",
"Q+	c #736657",
"R+	c #776A5A",
"S+	c #7F705D",
"T+	c #7C6D5A",
"U+	c #6A6458",
"V+	c #35312D",
"W+	c #403C36",
"X+	c #817962",
"Y+	c #867E67",
"Z+	c #807861",
"`+	c #79715C",
" @	c #7A7360",
".@	c #78705B",
"+@	c #7E735D",
"@@	c #766B57",
"#@	c #7D705D",
"$@	c #7E7262",
"%@	c #403A38",
"&@	c #474441",
"*@	c #73675B",
"=@	c #665D4E",
"-@	c #877A67",
";@	c #7B735C",
">@	c #706655",
",@	c #6B5F4F",
"'@	c #867C6D",
")@	c #807664",
"!@	c #786B5A",
"~@	c #716355",
"{@	c #6F6153",
"]@	c #79695A",
"^@	c #81725F",
"/@	c #7D6E5B",
"(@	c #37332F",
"_@	c #413D37",
":@	c #736B56",
"<@	c #6F6855",
"[@	c #7E7663",
"}@	c #837761",
"|@	c #827660",
"1@	c #7F735D",
"2@	c #7D715B",
"3@	c #7C6F5C",
"4@	c #776A57",
"5@	c #4A4641",
"6@	c #3C3835",
"7@	c #796F63",
"8@	c #746B5C",
"9@	c #887B68",
"0@	c #887D67",
"a@	c #746A59",
"b@	c #6F6353",
"c@	c #857C69",
"d@	c #7C705C",
"e@	c #746859",
"f@	c #716656",
"g@	c #7C6C5D",
"h@	c #807060",
"i@	c #665E51",
"j@	c #37322E",
"k@	c #8D826C",
"l@	c #81775E",
"m@	c #847C65",
"n@	c #7E765F",
"o@	c #746D5A",
"p@	c #80745E",
"q@	c #7D7159",
"r@	c #81755F",
"s@	c #756953",
"t@	c #776C58",
"u@	c #4D4945",
"v@	c #393330",
"w@	c #433F3C",
"x@	c #716857",
"y@	c #7B7261",
"z@	c #887D69",
"A@	c #7C7363",
"B@	c #7D7360",
"C@	c #766957",
"D@	c #776B5A",
"E@	c #736759",
"F@	c #857568",
"G@	c #7E6E5E",
"H@	c #7F7261",
"I@	c #423D37",
"J@	c #80765D",
"K@	c #837960",
"L@	c #847A61",
"M@	c #7F755C",
"N@	c #80745C",
"O@	c #867A62",
"P@	c #766F5C",
"Q@	c #8B8168",
"R@	c #7A6E58",
"S@	c #786C56",
"T@	c #796D57",
"U@	c #7F705B",
"V@	c #504B47",
"W@	c #3F3B37",
"X@	c #494642",
"Y@	c #827765",
"Z@	c #807863",
"`@	c #897E6A",
" #	c #877F68",
".#	c #7D755E",
"+#	c #7D745F",
"@#	c #7E755F",
"##	c #807663",
"$#	c #7F7561",
"%#	c #736755",
"&#	c #756957",
"*#	c #706255",
"=#	c #807464",
"-#	c #6B6356",
";#	c #36312E",
">#	c #453F39",
",#	c #8B7F65",
"'#	c #84785E",
")#	c #83775D",
"!#	c #83775F",
"~#	c #877B65",
"{#	c #857A67",
"]#	c #847867",
"^#	c #867D6B",
"/#	c #7A715C",
"(#	c #857C67",
"_#	c #837B64",
":#	c #7B7158",
"<#	c #47423F",
"[#	c #4D4844",
"}#	c #88806B",
"|#	c #837C62",
"1#	c #7A6D5A",
"2#	c #796C59",
"3#	c #665E53",
"4#	c #38332F",
"5#	c #433E37",
"6#	c #867B5F",
"7#	c #8B7E65",
"8#	c #847861",
"9#	c #7B7060",
"0#	c #786F5A",
"a#	c #7A705C",
"b#	c #786D5A",
"c#	c #796F5A",
"d#	c #827762",
"e#	c #817960",
"f#	c #827962",
"g#	c #857963",
"h#	c #81755D",
"i#	c #7E725C",
"j#	c #7C705A",
"k#	c #48423E",
"l#	c #403C38",
"m#	c #47443F",
"n#	c #888069",
"o#	c #8C8269",
"p#	c #847D63",
"q#	c #857B62",
"r#	c #877D64",
"s#	c #7E775D",
"t#	c #817661",
"u#	c #786B58",
"v#	c #847764",
"w#	c #645E52",
"x#	c #37312E",
"y#	c #423F3A",
"z#	c #6F6A59",
"A#	c #89816C",
"B#	c #867E6A",
"C#	c #898270",
"D#	c #7F7867",
"E#	c #736D5C",
"F#	c #766F5F",
"G#	c #766F61",
"H#	c #655E52",
"I#	c #696355",
"J#	c #898371",
"K#	c #867F6D",
"L#	c #867E6B",
"M#	c #807967",
"N#	c #837C6A",
"O#	c #857E6B",
"P#	c #837C69",
"Q#	c #827B68",
"R#	c #877F6A",
"S#	c #837B68",
"T#	c #827A67",
"U#	c #7F7963",
"V#	c #877C6A",
"W#	c #847C69",
"X#	c #645F50",
"Y#	c #4D4A47",
"Z#	c #322F2D",
"`#	c #43403E",
" $	c #7C7668",
".$	c #807969",
"+$	c #867D6E",
"@$	c #817A6A",
"#$	c #87806E",
"$$	c #8D8473",
"%$	c #918976",
"&$	c #887F6E",
"*$	c #8C8372",
"=$	c #8B8273",
"-$	c #847B6C",
";$	c #8B8472",
">$	c #857E6E",
",$	c #807560",
"'$	c #887F6A",
")$	c #8C836F",
"!$	c #8B836E",
"~$	c #8F8774",
"{$	c #847B6A",
"]$	c #857D72",
"^$	c #3B3734",
"/$	c #3D3934",
"($	c #423E37",
"_$	c #5A5449",
":$	c #777061",
"<$	c #726A5D",
"[$	c #6D6658",
"}$	c #716B5D",
"|$	c #787164",
"1$	c #746D61",
"2$	c #5C554C",
"3$	c #5F584E",
"4$	c #7A7465",
"5$	c #787262",
"6$	c #6E6859",
"7$	c #6D6759",
"8$	c #625C50",
"9$	c #686459",
"0$	c #645D53",
"a$	c #635F53",
"b$	c #696657",
"c$	c #6F695B",
"d$	c #6E685A",
"e$	c #736D5F",
"f$	c #767060",
"g$	c #746C5F",
"h$	c #766E61",
"i$	c #595449",
"j$	c #4D4941",
"k$	c #4B4946",
"l$	c #363231",
"m$	c #413E3C",
"n$	c #4E4942",
"o$	c #534D44",
"p$	c #544E46",
"q$	c #514B42",
"r$	c #565046",
"s$	c #585248",
"t$	c #5B5549",
"u$	c #575046",
"v$	c #524C42",
"w$	c #514A40",
"x$	c #504A40",
"y$	c #545046",
"z$	c #4C463D",
"A$	c #4E483F",
"B$	c #5C554B",
"C$	c #5C584C",
"D$	c #605A4E",
"E$	c #655F51",
"F$	c #645E50",
"G$	c #5F594B",
"H$	c #5E574D",
"I$	c #5C584F",
"J$	c #4B4640",
"K$	c #373230",
"L$	c #3E3935",
"M$	c #393430",
"N$	c #38342F",
"O$	c #3A3431",
"P$	c #3B3632",
"Q$	c #383430",
"R$	c #37332E",
"S$	c #3A3530",
"T$	c #3B3733",
"U$	c #39342F",
"V$	c #393431",
"W$	c #393532",
"X$	c #3C3836",
"Y$	c #3B3835",
"Z$	c #3C3834",
"`$	c #3A3631",
" %	c #393530",
".%	c #38342E",
"+%	c #39332F",
"@%	c #3A3632",
"#%	c #33302C",
"$%	c #342F2C",
"%%	c #403D3A",
"&%	c #363330",
"*%	c #3A3532",
"=%	c #383431",
"-%	c #403C39",
";%	c #3B3631",
">%	c #3A3531",
",%	c #36322D",
"'%	c #35322C",
")%	c #37342F",
"!%	c #3F3937",
"~%	c #474137",
"{%	c #464137",
"]%	c #474338",
"^%	c #484239",
"/%	c #464238",
"(%	c #444236",
"_%	c #454237",
":%	c #454236",
"<%	c #49433A",
"[%	c #4E463D",
"}%	c #4B453C",
"|%	c #4A443D",
"1%	c #4B463D",
"2%	c #4B463E",
"3%	c #48453D",
"4%	c #36332F",
"5%	c #3D3937",
"6%	c #393633",
"7%	c #423F3B",
"8%	c #555047",
"9%	c #534F44",
"0%	c #504B42",
"a%	c #514B41",
"b%	c #4E483E",
"c%	c #514B40",
"d%	c #504C40",
"e%	c #514C41",
"f%	c #514D42",
"g%	c #4E4A41",
"h%	c #4C483F",
"i%	c #46423A",
"j%	c #4F4941",
"k%	c #4A463E",
"l%	c #46433B",
"m%	c #4D473F",
"n%	c #4C463F",
"o%	c #454138",
"p%	c #49463C",
"q%	c #3C3934",
"r%	c #3E3A36",
"s%	c #393531",
"t%	c #46433E",
"u%	c #514C43",
"v%	c #4F4A41",
"w%	c #4D493E",
"x%	c #504D43",
"y%	c #534F43",
"z%	c #5B564B",
"A%	c #605A50",
"B%	c #575247",
"C%	c #565147",
"D%	c #524D44",
"E%	c #514B43",
"F%	c #504A42",
"G%	c #4E4B42",
"H%	c #4A4741",
"I%	c #938A74",
"J%	c #958C76",
"K%	c #8F8670",
"L%	c #918872",
"M%	c #88806A",
"N%	c #8A826C",
"O%	c #87816B",
"P%	c #867F68",
"Q%	c #89826B",
"R%	c #8A826B",
"S%	c #88816A",
"T%	c #8B826B",
"U%	c #8A816B",
"V%	c #908771",
"W%	c #918873",
"X%	c #908974",
"Y%	c #55544C",
"Z%	c #423E3C",
"`%	c #8F897B",
" &	c #A89E85",
".&	c #90856D",
"+&	c #938871",
"@&	c #867B62",
"#&	c #93886F",
"$&	c #8E836A",
"%&	c #988E73",
"&&	c #9A9077",
"*&	c #8D8269",
"=&	c #8F856B",
"-&	c #8D8168",
";&	c #8E836B",
">&	c #877C63",
",&	c #887D64",
"'&	c #92896F",
")&	c #948970",
"!&	c #A0947C",
"~&	c #958971",
"{&	c #887C63",
"]&	c #A59B82",
"^&	c #A29680",
"/&	c #817C6E",
"(&	c #898377",
"_&	c #968D7C",
":&	c #787059",
"<&	c #8D866C",
"[&	c #928771",
"}&	c #958A74",
"|&	c #8B806A",
"1&	c #968C73",
"2&	c #938872",
"3&	c #8A8067",
"4&	c #8E846B",
"5&	c #90856F",
"6&	c #827963",
"7&	c #867D69",
"8&	c #7D7764",
"9&	c #7D7766",
"0&	c #7F735B",
"a&	c #82765E",
"b&	c #837C60",
"c&	c #7D7157",
"d&	c #887C64",
"e&	c #8C8066",
"f&	c #897B61",
"g&	c #7E7056",
"h&	c #7F7359",
"i&	c #776F58",
"j&	c #514F47",
"k&	c #3C3936",
"l&	c #413F3B",
"m&	c #827865",
"n&	c #85795F",
"o&	c #7C7058",
"p&	c #7E7459",
"q&	c #83795E",
"r&	c #746A4F",
"s&	c #7B6F55",
"t&	c #82775B",
"u&	c #82765C",
"v&	c #7E7258",
"w&	c #82785F",
"x&	c #847A5F",
"y&	c #8A8065",
"z&	c #887C62",
"A&	c #817359",
"B&	c #887A5F",
"C&	c #867A60",
"D&	c #8F8369",
"E&	c #81755B",
"F&	c #928A77",
"G&	c #3D3A36",
"H&	c #393634",
"I&	c #6E6659",
"J&	c #736C52",
"K&	c #776D54",
"L&	c #7C755B",
"M&	c #796F56",
"N&	c #7A715A",
"O&	c #7E7660",
"P&	c #7C735E",
"Q&	c #7D7561",
"R&	c #7B735F",
"S&	c #837A62",
"T&	c #7F7560",
"U&	c #837B65",
"V&	c #7E7560",
"W&	c #56544A",
"X&	c #403C37",
"Y&	c #7C7160",
"Z&	c #877B61",
"`&	c #897D67",
" *	c #857B60",
".*	c #7F785E",
"+*	c #817A60",
"@*	c #857961",
"#*	c #8A7E66",
"$*	c #403A36",
"%*	c #36322F",
"&*	c #756F61",
"**	c #857D6A",
"=*	c #7D755F",
"-*	c #7F7761",
";*	c #7C7561",
">*	c #79725E",
",*	c #58564B",
"'*	c #37322F",
")*	c #413E39",
"!*	c #7F7562",
"~*	c #867A64",
"{*	c #897F66",
"]*	c #403B36",
"^*	c #7B7567",
"/*	c #79715A",
"(*	c #756C5B",
"_*	c #726958",
":*	c #776F5E",
"<*	c #7E7561",
"[*	c #857865",
"}*	c #5F5B53",
"|*	c #3B3832",
"1*	c #837964",
"2*	c #81785E",
"3*	c #7D735A",
"4*	c #8C8068",
"5*	c #7B7366",
"6*	c #7A725E",
"7*	c #7C725F",
"8*	c #807661",
"9*	c #837A65",
"0*	c #887E65",
"a*	c #847860",
"b*	c #565149",
"c*	c #3E3B36",
"d*	c #817763",
"e*	c #82785D",
"f*	c #887E63",
"g*	c #877D62",
"h*	c #897D65",
"i*	c #8A826D",
"j*	c #756B61",
"k*	c #756D58",
"l*	c #79735D",
"m*	c #76705A",
"n*	c #766E57",
"o*	c #7E7461",
"p*	c #7E7563",
"q*	c #827B61",
"r*	c #877B63",
"s*	c #555148",
"t*	c #43403B",
"u*	c #7E7360",
"v*	c #807559",
"w*	c #897F64",
"x*	c #413C36",
"y*	c #73695F",
"z*	c #7B755F",
"A*	c #7A745E",
"B*	c #7C735D",
"C*	c #796F5E",
"D*	c #7D7363",
"E*	c #827964",
"F*	c #897E68",
"G*	c #888167",
"H*	c #756A54",
"I*	c #555149",
"J*	c #36332E",
"K*	c #423E3A",
"L*	c #897E62",
"M*	c #7D765C",
"N*	c #8B806C",
"O*	c #7B7461",
"P*	c #7C765E",
"Q*	c #78725A",
"R*	c #7D7661",
"S*	c #827863",
"T*	c #857C66",
"U*	c #5B574E",
"V*	c #3C3833",
"W*	c #7D725F",
"X*	c #81785B",
"Y*	c #80765B",
"Z*	c #827B5F",
"`*	c #7C7259",
" =	c #34302C",
".=	c #7A7466",
"+=	c #7D7663",
"@=	c #7F7961",
"#=	c #79705B",
"$=	c #7D7563",
"%=	c #7B745A",
"&=	c #4F4B43",
"*=	c #3E3936",
"==	c #3D3A35",
"-=	c #817664",
";=	c #8A7F69",
">=	c #867C61",
",=	c #444038",
"'=	c #36312D",
")=	c #756D60",
"!=	c #7C7562",
"~=	c #7C745E",
"{=	c #7E745F",
"]=	c #7F7663",
"^=	c #847863",
"/=	c #847A62",
"(=	c #847862",
"_=	c #867F65",
":=	c #7B6F57",
"<=	c #544F46",
"[=	c #413D38",
"}=	c #706553",
"|=	c #7D725D",
"1=	c #8A8069",
"2=	c #8B8166",
"3=	c #8C8267",
"4=	c #797166",
"5=	c #827C64",
"6=	c #7D735E",
"7=	c #807765",
"8=	c #7C7560",
"9=	c #857C65",
"0=	c #8C806A",
"a=	c #535048",
"b=	c #403D38",
"c=	c #877D68",
"d=	c #766D56",
"e=	c #8B836C",
"f=	c #938970",
"g=	c #90866B",
"h=	c #878066",
"i=	c #8D8368",
"j=	c #8C8366",
"k=	c #3F3B36",
"l=	c #655F53",
"m=	c #7A745C",
"n=	c #7D775F",
"o=	c #80795F",
"p=	c #898268",
"q=	c #55534D",
"r=	c #756F60",
"s=	c #8F8164",
"t=	c #8A7E64",
"u=	c #7B7255",
"v=	c #898063",
"w=	c #847B5E",
"x=	c #887F62",
"y=	c #887D61",
"z=	c #8C7D66",
"A=	c #675F4F",
"B=	c #363331",
"C=	c #837861",
"D=	c #837863",
"E=	c #78715F",
"F=	c #706A5C",
"G=	c #6F6C5D",
"H=	c #706D5E",
"I=	c #6C665A",
"J=	c #625A4F",
"K=	c #696156",
"L=	c #686256",
"M=	c #645C51",
"N=	c #655D52",
"O=	c #3A3733",
"P=	c #393533",
"Q=	c #413E3B",
"R=	c #504C44",
"S=	c #6A6255",
"T=	c #6F675A",
"U=	c #706959",
"V=	c #6B6559",
"W=	c #71695E",
"X=	c #787063",
"Y=	c #736B5E",
"Z=	c #797164",
"`=	c #827B69",
" -	c #847D6B",
".-	c #817869",
"+-	c #7F7667",
"@-	c #60584F",
"#-	c #635E56",
"$-	c #44413E",
"%-	c #58544A",
"&-	c #767062",
"*-	c #797363",
"=-	c #7C7565",
"--	c #7D7666",
";-	c #7D7568",
">-	c #7D7565",
",-	c #3E3A34",
"'-	c #3E3934",
")-	c #3D3833",
"!-	c #3E3B34",
"~-	c #3D3832",
"{-	c #3D3933",
"]-	c #3C3831",
"^-	c #3B362F",
"/-	c #3C3832",
"(-	c #3D3834",
"_-	c #403B35",
":-	c #3A3630",
"<-	c #3B3731",
"[-	c #3E3A35",
"}-	c #3F3A36",
"|-	c #3B3935",
"1-	c #3C3731",
"2-	c #3C3631",
"3-	c #38332E",
"4-	c #3D3733",
"5-	c #3A362F",
"6-	c #3B3732",
"7-	c #3D3A32",
"8-	c #3E3932",
"9-	c #3C3730",
"0-	c #403A35",
"a-	c #3F3C36",
"b-	c #3E3B35",
"c-	c #3E3A32",
"d-	c #3D3831",
"e-	c #3C3933",
"f-	c #3B3630",
"g-	c #3B3833",
"h-	c #3C3733",
"i-	c #3D3935",
"j-	c #423F38",
"k-	c #3F3C37",
"l-	c #413B37",
"m-	c #433F3A",
"n-	c #3E3B37",
"o-	c #403D39",
"p-	c #403D36",
"q-	c #3F3A35",
"r-	c #3F3B34",
"s-	c #3C3732",
"t-	c #3F3C38",
"u-	c #887E66",
"v-	c #8A8167",
"w-	c #897F67",
"x-	c #90876E",
"y-	c #8E8469",
"z-	c #8B8067",
"A-	c #8C8167",
"B-	c #857A61",
"C-	c #8C8268",
"D-	c #91866C",
"E-	c #93876D",
"F-	c #90856B",
"G-	c #92866C",
"H-	c #8D8268",
"I-	c #8C8168",
"J-	c #8D836A",
"K-	c #8E846A",
"L-	c #8F856A",
"M-	c #91876D",
"N-	c #968C71",
"O-	c #94876D",
"P-	c #897E64",
"Q-	c #897E63",
"R-	c #827C6E",
"S-	c #3A3734",
"T-	c #57544D",
"U-	c #857C6B",
"V-	c #AEA48B",
"W-	c #948B72",
"X-	c #9B9279",
"Y-	c #898066",
"Z-	c #867D63",
"`-	c #887F66",
" ;	c #847B61",
".;	c #91886E",
"+;	c #90856C",
"@;	c #90866E",
"#;	c #90866D",
"$;	c #897E65",
"%;	c #A99D86",
"&;	c #776E5C",
"*;	c #4D4A46",
"=;	c #42403B",
"-;	c #4C4A45",
";;	c #8E856E",
">;	c #99907B",
",;	c #978F78",
"';	c #90876F",
");	c #8C826B",
"!;	c #8F866F",
"~;	c #877D65",
"{;	c #8D836C",
"];	c #83795F",
"^;	c #83785F",
"/;	c #7F755A",
"(;	c #84755E",
"_;	c #3B3834",
":;	c #615C51",
"<;	c #857A5E",
"[;	c #7F785C",
"};	c #817A5E",
"|;	c #4E4C47",
"1;	c #322E2A",
"2;	c #494641",
"3;	c #938874",
"4;	c #776C56",
"5;	c #776D57",
"6;	c #776E55",
"7;	c #7C735A",
"8;	c #81775D",
"9;	c #84795F",
"0;	c #7F745B",
"a;	c #80755C",
"b;	c #81755C",
"c;	c #80755B",
"d;	c #80775D",
"e;	c #867F6C",
"f;	c #38332D",
"g;	c #3A3633",
"h;	c #7E7767",
"i;	c #8A7C62",
"j;	c #7E775B",
"k;	c #4E4944",
"l;	c #3B3530",
"m;	c #4A4640",
"n;	c #766A54",
"o;	c #746852",
"p;	c #80755D",
"q;	c #83775E",
"r;	c #3C3935",
"s;	c #7E7868",
"t;	c #4C4842",
"u;	c #38322E",
"v;	c #736653",
"w;	c #7F755E",
"x;	c #7F745C",
"y;	c #7B715A",
"z;	c #83785D",
"A;	c #82775D",
"B;	c #857A5F",
"C;	c #8F856C",
"D;	c #867F63",
"E;	c #827B5E",
"F;	c #857E6C",
"G;	c #80786B",
"H;	c #8F836B",
"I;	c #92886F",
"J;	c #4F4B47",
"K;	c #44413D",
"L;	c #877C64",
"M;	c #7F745D",
"N;	c #7F755B",
"O;	c #877C61",
"P;	c #80775F",
"Q;	c #82795F",
"R;	c #8A7F65",
"S;	c #7C7559",
"T;	c #857E62",
"U;	c #857E64",
"V;	c #817A67",
"W;	c #3A3533",
"X;	c #8D8167",
"Y;	c #7E725A",
"Z;	c #56504B",
"`;	c #3F3A37",
" >	c #45413D",
".>	c #8E836D",
"+>	c #82775C",
"@>	c #7E735A",
"#>	c #80765C",
"$>	c #827861",
"%>	c #89816A",
"&>	c #837A5D",
"*>	c #867D60",
"=>	c #999073",
"->	c #81775C",
";>	c #8B8271",
">>	c #6F6858",
",>	c #837B66",
"'>	c #4F4B44",
")>	c #9A8F79",
"!>	c #90846C",
"~>	c #857A60",
"{>	c #857B61",
"]>	c #82775E",
"^>	c #847960",
"/>	c #787157",
"(>	c #8E8268",
"_>	c #968D70",
":>	c #90876A",
"<>	c #8E8568",
"[>	c #8A7E68",
"}>	c #877E6D",
"|>	c #726B5B",
"1>	c #978D74",
"2>	c #524E47",
"3>	c #37322D",
"4>	c #46433F",
"5>	c #877E61",
"6>	c #8B8064",
"7>	c #7A7055",
"8>	c #777056",
"9>	c #3B3836",
"0>	c #56534C",
"a>	c #35312C",
"b>	c #988D77",
"c>	c #81765C",
"d>	c #81765D",
"e>	c #7F745A",
"f>	c #80745A",
"g>	c #7D7358",
"h>	c #8A8164",
"i>	c #92876B",
"j>	c #928469",
"k>	c #776D52",
"l>	c #877861",
"m>	c #86785E",
"n>	c #55514B",
"o>	c #433F3B",
"p>	c #948973",
"q>	c #837A60",
"r>	c #83785C",
"s>	c #897D63",
"t>	c #878064",
"u>	c #786E55",
"v>	c #807966",
"w>	c #696357",
"x>	c #514E48",
"y>	c #968B77",
"z>	c #7C7059",
"A>	c #7C725B",
"B>	c #8A8066",
"C>	c #877C60",
"D>	c #8E876D",
"E>	c #908268",
"F>	c #6A6557",
"G>	c #3A3735",
"H>	c #504C42",
"I>	c #8B8468",
"J>	c #898266",
"K>	c #807865",
"L>	c #5F5C59",
"M>	c #464340",
"N>	c #706A59",
"O>	c #776B55",
"P>	c #7F745F",
"Q>	c #7E755C",
"R>	c #877C62",
"S>	c #89826F",
"T>	c #87806D",
"U>	c #8B856F",
"V>	c #8F8470",
"W>	c #555044",
"X>	c #4C4841",
"Y>	c #3D3B39",
"Z>	c #46413A",
"`>	c #686253",
" ,	c #89836D",
".,	c #867E69",
"+,	c #88806D",
"@,	c #877F6C",
"#,	c #8A826F",
"$,	c #8B8370",
"%,	c #8A8370",
"&,	c #817A68",
"*,	c #807B68",
"=,	c #837C6C",
"-,	c #54514F",
";,	c #3F3C39",
">,	c #6F6657",
",,	c #796D58",
"',	c #857962",
"),	c #3F3B38",
"!,	c #3B3532",
"~,	c #39342E",
"{,	c #35322D",
"],	c #34312F",
"^,	c #393631",
"/,	c #3A352F",
"(,	c #423E39",
"_,	c #433F3D",
":,	c #3E3B38",
"<,	c #48433D",
"[,	c #403A34",
"},	c #423D38",
"|,	c #3C3635",
"1,	c #423E3B",
"2,	c #332F2C",
"3,	c #393632",
"4,	c #37332D",
"5,	c #383531",
"6,	c #3A3732",
"7,	c #3B3934",
"8,	c #383631",
"9,	c #3D3A37",
"0,	c #3B3936",
"a,	c #3A3833",
"b,	c #383530",
"c,	c #938977",
"d,	c #948A77",
"e,	c #867C6B",
"f,	c #8B8170",
"g,	c #8D8372",
"h,	c #887E6E",
"i,	c #877F70",
"j,	c #504B45",
"k,	c #3C3937",
"l,	c #4C4845",
"m,	c #484541",
"n,	c #6E6A5E",
"o,	c #A29B89",
"p,	c #9E9785",
"q,	c #958C7A",
"r,	c #968E7B",
"s,	c #8C8370",
"t,	c #8C826F",
"u,	c #8E8471",
"v,	c #8C836E",
"w,	c #8B816E",
"x,	c #8C806E",
"y,	c #8D8370",
"z,	c #8D8371",
"A,	c #928A79",
"B,	c #8D8573",
"C,	c #887F6D",
"D,	c #908776",
"E,	c #999081",
"F,	c #968D7E",
"G,	c #938877",
"H,	c #99907F",
"I,	c #534E45",
"J,	c #45423F",
"K,	c #4E4C48",
"L,	c #9F9682",
"M,	c #A19783",
"N,	c #9F9580",
"O,	c #9D937D",
"P,	c #A29A83",
"Q,	c #A79D87",
"R,	c #958A75",
"S,	c #928773",
"T,	c #9A8F7B",
"U,	c #988C78",
"V,	c #988D78",
"W,	c #968B76",
"X,	c #928772",
"Y,	c #968A75",
"Z,	c #998C77",
"`,	c #A29780",
" '	c #9A8F7A",
".'	c #918572",
"+'	c #918773",
"@'	c #89806E",
"#'	c #A39884",
"$'	c #948B79",
"%'	c #938971",
"&'	c #8F856E",
"*'	c #857E76",
"='	c #35322F",
"-'	c #4B4944",
";'	c #A39A85",
">'	c #A09781",
",'	c #8E836E",
"''	c #8E846F",
")'	c #968C76",
"!'	c #978C76",
"~'	c #8B806B",
"{'	c #8C806C",
"]'	c #918670",
"^'	c #A39781",
"/'	c #A69A84",
"('	c #A0947E",
"_'	c #A39882",
":'	c #A39883",
"<'	c #9E937E",
"['	c #948975",
"}'	c #938975",
"|'	c #988F7A",
"1'	c #998F7B",
"2'	c #948B77",
"3'	c #978C77",
"4'	c #A29985",
"5'	c #706A5D",
"6'	c #3D3B37",
"7'	c #3E3A37",
"8'	c #595750",
"9'	c #AEA48E",
"0'	c #A89D84",
"a'	c #A0957C",
"b'	c #91876F",
"c'	c #91866E",
"d'	c #8C8169",
"e'	c #8B8069",
"f'	c #8C8069",
"g'	c #8A7E67",
"h'	c #8E826B",
"i'	c #8D826B",
"j'	c #867C66",
"k'	c #726A55",
"l'	c #6B6859",
"m'	c #45423E",
"n'	c #4B4840",
"o'	c #766B55",
"p'	c #796E58",
"q'	c #756D56",
"r'	c #6F644E",
"s'	c #4A463F",
"t'	c #8F806B",
"u'	c #77694F",
"v'	c #746955",
"w'	c #716956",
"x'	c #6D6653",
"y'	c #726C56",
"z'	c #6F6752",
"A'	c #6D6550",
"B'	c #37312F",
"C'	c #45413A",
"D'	c #8E826C",
"E'	c #796A53",
"F'	c #8B7F67",
"G'	c #7D735D",
"H'	c #403C3A",
"I'	c #3E3937",
"J'	c #4C4945",
"K'	c #716A58",
"L'	c #696051",
"M'	c #857F67",
"N'	c #736D57",
"O'	c #7A7361",
"P'	c #67624F",
"Q'	c #6E6956",
"R'	c #726A57",
"S'	c #756A56",
"T'	c #716954",
"U'	c #6A624D",
"V'	c #81745C",
"W'	c #7C7467",
"X'	c #676050",
"Y'	c #7D7465",
"Z'	c #817B63",
"`'	c #6E6757",
" )	c #635E4B",
".)	c #6D6855",
"+)	c #706853",
"@)	c #7E7765",
"#)	c #4B473F",
"$)	c #726D5A",
"%)	c #8B8474",
"&)	c #4A4844",
"*)	c #6C6555",
"=)	c #645D4D",
"-)	c #716A57",
";)	c #6F6655",
">)	c #6E6755",
",)	c #7E7764",
"')	c #423F3C",
"))	c #90846E",
"!)	c #777159",
"~)	c #89806F",
"{)	c #7B725B",
"])	c #938A7B",
"^)	c #413F39",
"/)	c #6D6654",
"()	c #746D5B",
"_)	c #817B65",
":)	c #726B58",
"<)	c #6B6452",
"[)	c #78715E",
"})	c #48433C",
"|)	c #746A56",
"1)	c #797258",
"2)	c #746C55",
"3)	c #45413F",
"4)	c #7D7865",
"5)	c #736C5C",
"6)	c #847E68",
"7)	c #6A6350",
"8)	c #6F6A57",
"9)	c #67604E",
"0)	c #6C6553",
"a)	c #6E6653",
"b)	c #6D6250",
"c)	c #3F3D39",
"d)	c #4C4941",
"e)	c #93876F",
"f)	c #78705A",
"g)	c #89816E",
"h)	c #726751",
"i)	c #8E8673",
"j)	c #46423D",
"k)	c #67614D",
"l)	c #78735F",
"m)	c #7B7660",
"n)	c #837D65",
"o)	c #7E7862",
"p)	c #736A5B",
"q)	c #736C59",
"r)	c #685F50",
"s)	c #69614E",
"t)	c #6A624F",
"u)	c #726753",
"v)	c #6D624E",
"w)	c #827968",
"x)	c #373430",
"y)	c #45423A",
"z)	c #91876E",
"A)	c #494540",
"B)	c #474440",
"C)	c #665F4D",
"D)	c #706756",
"E)	c #857F69",
"F)	c #7C7660",
"G)	c #6C6451",
"H)	c #716A5A",
"I)	c #665F4F",
"J)	c #706551",
"K)	c #47443D",
"L)	c #776B53",
"M)	c #3B3633",
"N)	c #6C614D",
"O)	c #7D7761",
"P)	c #7B7663",
"Q)	c #666050",
"R)	c #7F7865",
"S)	c #746858",
"T)	c #706454",
"U)	c #6E6554",
"V)	c #645948",
"W)	c #43413A",
"X)	c #726A53",
"Y)	c #726851",
"Z)	c #756B56",
"`)	c #504C49",
" !	c #3E3B39",
".!	c #746F5C",
"+!	c #6A6352",
"@!	c #625B4B",
"#!	c #736B54",
"$!	c #675B4B",
"%!	c #6F6452",
"&!	c #736854",
"*!	c #6E614E",
"=!	c #6B6350",
"-!	c #827C6C",
";!	c #474540",
">!	c #84795D",
",!	c #786C54",
"'!	c #80715A",
")!	c #797159",
"!!	c #948872",
"~!	c #6F6550",
"{!	c #978C78",
"]!	c #6E634F",
"^!	c #7B6F59",
"/!	c #81725D",
"(!	c #383432",
"_!	c #3A3837",
":!	c #5F5A54",
"<!	c #625B51",
"[!	c #544E45",
"}!	c #5D5A55",
"|!	c #524F48",
"1!	c #5D5950",
"2!	c #686458",
"3!	c #676455",
"4!	c #6A6456",
"5!	c #70685D",
"6!	c #676056",
"7!	c #696258",
"8!	c #615A50",
"9!	c #676058",
"0!	c #68635D",
"a!	c #32302D",
"b!	c #413E3A",
"c!	c #847C6F",
"d!	c #7F7868",
"e!	c #827A6D",
"f!	c #7D7367",
"g!	c #8D8475",
"h!	c #776B5F",
"i!	c #7F7367",
"j!	c #7B7165",
"k!	c #726A5F",
"l!	c #776F64",
"m!	c #6E665B",
"n!	c #403C35",
"o!	c #433E38",
"p!	c #433F37",
"q!	c #423C35",
"r!	c #383331",
"s!	c #363230",
"t!	c #454240",
"u!	c #3D3A34",
"v!	c #3C3736",
"w!	c #433E39",
"x!	c #3A3430",
"y!	c #39352F",
"z!	c #35302D",
"A!	c #3C3734",
"B!	c #37342E",
"C!	c #3E3C38",
"D!	c #383532",
"E!	c #43403D",
"F!	c #373431",
"G!	c #3B3531",
"H!	c #36312F",
"  . + @ # $ % & & * = = $ & - ; - > , = ' ) ! ; ' ' ~ { ] ' ^ / ( _ : < [ } | 1 2 3 4 5 6 - 7 8 9 0 a b c d e f g h i 4 j 4 k l ",
"m n o n p q r s t u q v w u x p y z A B C D E F G C H I J z K L M N : O P Q 5 j R t S T U r t V V u W X Y Z `  ...+.R V V @.#.$.",
"%.&.*.=.-.*.;.w >.,.'.,.'.q ).!.~.{.].^.)./.(._.v :.~.<.[.}.~.|.1.2.3.] 4.5.6.E 7.8.9.0.<.a.b.(.c.d.e.f.g.h.i.j.k.l.m.n.o.p.q.r.",
"s.*.t.c.&.&.t.u.v v.w.&.*.x.w._.y.z.A.B.v.*.z.*.c.[.C.D.E.~.!.F.G.H.I.J.K.L.M.N.O.P.Q.R.S.S.&.>.b.h.q T.w U.V.W.:.X.n.~.Y.Z.h `.",
" +.+++'.@+0.P.#+$+,.0.$+D.%+).e.-.&+{.(.*+=+D.{.n.-+Y.&+%+$+;+D >+,+( '+)+E !+J d.i.9.~+{+Q.%+]+^+&+/+(+_+:+V.<+E.[+}+|+1+p.h 2+",
"3+4+5+.+0.0.6+.+#+S.Q.7+8+9+~.e.-.,.,.[.v.~.C.|+o.n.0+'.,.$+a+b+c+d+e+f+g+b+h+i+j+~+k+0.{+Q.%+l+m+n+e.o+p+q+r+,./+s+t+u+v+a+w+x+",
"y+=.6+0.9.k+6+7+0.P.P.W.-.z+=+{.C.7.R.S.A+#+D.'.$+$+D.!.,.$+a+B+C+e+D+E+F+G+H+I+J+7+R.Q.i.7+'.S.K+L+a+M+/+N+O+}+P+Q+R+S+T+n+U+V+",
"W+6+X+Q.~+k+6+++X+Y+Z+z+`+ @v q .@Q.0.0.#+K+<.+@+@'.C.@@#@<.$@z %@N &@5.*@=@r w -@k+0.i.7+0.;@U.=.=+>@,@'@)@/+!@~@{@]@^@/@n+U+(@",
"_@V.9+++D.K+Z+P.=.#+,.:@<@u [@(.D.K+i.i.%++@}@Q.S.|@1@2@3@8+4@e.5@`.6@7@8@!+D h.9@9.i.i.0@Q..+`+c..@a@b@).c@d@!@e@f@g@h@|+D i@j@",
"3+k@i.Z+i.7+l@m@n@#+C..@o@n+(.*+D.$+V.7+'.0.p@~+Q.1@q@r@8+8+s@t@u@v@w@F x@y@y@U.z@i.S.7+i.k+.+*.*.v A A@B@d.C@D@E@E@F@G@H@a+i@j@",
"I@J@K@L@M@N@O@{+W.7+~+z+z+P@w %+$+%+K+,.~+0.S.+@S.Q@J@R@S@T@U@4@V@W@X@Y@K+:.:./.Z@`@ #P.6+i.Q..#6++#@###@@z@$#E.%#&#*#o.k.=#-#;#",
">#,#'#)#!#~#{#Z@O.]#^#/#(#.#_#.#Y+.+Z+n@7+7+~+7+i.+@i.J@:#m+p@'.<#j@[#8+7+z+U.}#m@m@Z+_#;@k+9+_#_#7+|#=.K+z@6+=.h.%+1#}@2#R 3#4#",
"5#6#7#8#7+7+9#0#a#b#c#c#d#7+/.++e#f#++W.M@L@g#9++@i.h#i#0.+@j#&+k#l#m#C.i.#+d.n#~+o#|#p#Q.q#q#r#M@s#X+/.b#t#7+@+0@+@u#p@v#y@w#x#",
"y#z#A#B#C#D#E#F#G#H#I#J#K#L#M#N#C#K#O#P#Q#R#S#T#U#U#>..+V#L#W#X#Y#Z#`# $.$+$@$#$$$%$&$$$*$&$=$-$*$;$>$L+,$'$)$!$~$L#{$*$+$]$c ^$",
"/$($_$:$<$[$}$|$1$2$3$4$5$6$7$8$9$0$a$b$7$c$7$c$d$e$f$g$g$h$i$j$k$l$m$n$o$p$q$r$s$t$u$u$s$u$v$w$x$y$q$z$A$B$C$D$E$F$G$0$H$I$J$K$",
"L$M$N$O$P$Q$$.Q$R$S$T$M$Q$U$V$^$W$X$Y$Z$`$T$N$ %U$M$ %.%+%j@@%M$#%$%%%&%$.$.V$l W$*%M$=%-%@%(@;%+%(@4#>%`$x#,% %R$'%,%R$P$ %)%!%",
"~%{%]%{%^%/%(%_%:%<%[%}%|%1%2%3%4%5%6%7%8%9%0%v$a%b%c%d%e%f%g%h%i%j%2%k%l%m%n%o%^%p%q%r%s%t%u%v%w%x%e%y%_$z%A%B%C%D%o$E%F%G%H%{%",
"I%J%K%L%M%N%O%P%Q%R%S%T%U%V%W%X%Y%Z%s%`% &.&+&@&#&$&%&&&*&=&-&;&>&@&,&'&)&!&~&{&]&^&/&G.&%(&_&!$:&Y+<&[&}&|&1&2&3&4&5&6&7&8&9&L%",
"0&a&L@q#h#K@b&c&d&e&f&g&h&O@@+i&j&k&l&m&n&o&R.:#p&q&r&s&t&u&v&w&r#M@x&y&z&A&B&C&D&E&F&G&H&I&W#.#J&K&L&q#q#^+l@q#M&:#N&O&P&Q&R&S&",
"t#T&>.U&V&4+Z+8.k+Q.9.$+i.$+=+[@W&2+X&Y&Z&`&0@S.n@8.6+L@ *K@k+9. #.*+*l@l@@*O@#*9.r#c.$*%*&***/.b..@n@.#O&=*-*-*>.z+/.;*>*=.>.>.",
"$+%+Z+%+R.Q.Q._#0.S.S.+@%+*.~.A+,*'*)*!*l@v#~*|@7+l@K@{*l@w&w&Q.k+0.R.R.l@'#)#q#k+~+K+]*2+^*W#++/**././*O&O&-*O&=*=*/.(*_*:*<*4+",
"O.4+.+d.Q.k+S.9.l@V.k+i.@+,.[*K+}*W@|*1*2*V.{+{*K@{+l@3*{*q#{+L@0.V.7+K@l@4*@*M@p#r#h.]*$%5*T#c./.`+t..#`+c.b..@c.`+*.6*7*u.8*9*",
"O&m@K+/..#;@|#0*K@a*O@q#V.Q.p@K+b*r%c*d*t&l@0*e*f*g*{*0*r#{*{*q#{+.*|#w&7+h*O@w&l@K@i*X&V+j*R `+*.c.=.k*l*m*z+*.n*/*+@c.o*p*(.=.",
":&_#V.h. # #q*K@3&h*r*l@V.k+~#~+s*,%t*u*v*{+3&r#w*x&l@q#w&K@q#M@r#q*p#{+~+h*a*a*{+L@}#x*(@y*r .@z+&./.c.z*A*c./*n@;@B*c.:.C*D*E*",
"P.P.7+F*7+k+G*l@K@{*L@l@7+H*O@|&I*J*K*u*L*0.Q.0*o#w&q#3*r#{+{+L@r#M*M*q#K@w&^+q#^+L@N*]*(@&*O*.#++++Z@i&P*Q*Y+6+M*n@*.=./.R*S*T*",
"Z+X+K@k++@Q.{+K@e*K@w&6+r#M@r*7+U*r%V*W*X*K+i.{*3& *Y*Z*{+q#g#q#{+3&q#K@`*r#w&l@1@a*.+$* =.=+=c.R.Z+U..@c.=.@=Q*-*T&c.Z@#=$=[@k+",
"M*%=g#L@0@V..* *q*9.V.Q.7+3*u&l@&=*==={.'#[.-=7.9.0*L@r#g*y&q#r#;=J@L@L@|#i.L@>=n&n&~+,='=)=!=*.:@c.`+>.=.*.P*b.6+=*O&~={=]=^=/=",
"q*L@(={*V.7+_=w*G*7+9.L@V.r#:=:#<=,%[=,$h&}=~.|=1=K@o#{*q&2=3&o#K@L@q#L@+*K@{+3=C&D&i.%.(@4=M#.@=.&.z+z+*.;@5=X+-*Z+-*~=6=7=8=9=",
"l@0*0*r#0*r#K@>={*r#q#>=,#L@0=`@a='=b=c=6#:&d=e=f=w*Y*l@2=g*2= *g=q*h=g*i=j=3=w&,#)#d.k=(@l=H+m=m=n=++n=6+o=q*+*_=+*m@6&d.w 7+r#",
"q*p=w&7+{+3&J@q*q#{+l@w*r#r*g#4+q=2./$r=s=:#k+0*t=6#u=p&2=v=w=v=x=e*>=y=n&'#t=a*z=d&A=l#B=b*n+:&n@5+M*o=L@l@e*Y*{*q#k+6+7.w C=D=",
"!=;*E=F=G=H=I#I=I#J=K=L=M=J=N=L=O=P=Q=R=D 4.Q S=T=U=g$V=W=X=Y=X X Z=Z `= -.--$@$+-@-#-$-l t%%-&-&-&- $*-=-Z =-=---=-;->->->-B (.",
",-'-)-!-~-{-]-,-^-/-(-_-:-<-[-}-J*l#|-Q$1-2-]-3-U$;%4-5-6-P$4-{-{-)-{-7-8-9-1-{-^-;%U$@%$.`$S$0-9-a-b-_@c-[=[=k='-d-W+e-e-f-[-{-",
"g-[-6-h-V*r%Z$/$i-'-/$}-X&L$j-y#k=X&k-b=k-}-k=,-X&}-L$l-m-!-*%n-o-p-$*_@s.W+q-[-r-W@==s-V*b=Z$Z$s-}-;%^$;%t->%Z$P$V*>%@%@%==<-;%",
"u-u-3&v-w-x-y-z-A-B-C-D-D&E-$&r#F-G-H-I-J-K-L-M-N-O-P-Q-i=R-S-l T-U-V-W-X-Y-r#Z-`- ;=&.;Z-+;@;#;$;%;&;*;=;-;;;>;,;';);!;T%~;w-{;",
"`*];^;{+J@J@g*^+@*m+J@p&M&L@+@J@/;0&];3*K@J@`*K@K@(;C&N@l@Q#7%_;:;C&<;[;};|#L@J@o=.*q#3=0*M@|#w&{*R.W.|;1;2;3;0=Q.m+4;5;6;7;8;9;",
"0;a;b;h#0;c;d;~+P.7+i#r*{*l@7+k+@*9.`*L@0.k+`*L@x&J@2=g*+*e;f;g;h;E&i;e*j;L@L@S.Q._#0@7+w&i.7+0.7+%+*.k;l;m;0@2@n;o;9+p;p;p;p;!#",
"w&];E&q;];^;o=9.m@i.(=r#o#q#k+k+#*r#3&q#~+^+^+g* *y&2=w*[;O#3-r;s;O@f&3*};M@J@7+k+8.O.i.q#k+~+7+7+4+w t;u;m;~+i#s@v;1@w;x;y;z;A;",
"8;];B;g*C;Q@|#S.X+Q.q#j;K@w*0*L@ *>=C&'#{*/;h&D;E;>=3*L@ #F;)%D+G;H;,#L@l@k+i.k+3*o=0@9.{+I;k+S.~++@h.J;2+K;|&L;@*@*M;8;N;x;O;9;",
"P;Q;R;g*3&|&K@w&r#%=};b&r#Z&L@K@Y*g*n&)#C&f* *q&S;T;s#K@U;V;(-W;x 4*X;K@^+a*Y;r#x&[;7+9.#*3&{+(=|@7+.+Z;`; >.>r*+>+>@>8;#>$>P;3=",
" #%>q#L@L@r#{*r#g*g*>=q&s#q* *w*f*G-&>*>=>*>->+*+*+*p#x&~#;>>%V$>>o#h*!#l@w&L@2=0*3=g*q#{*q#0*{+0*0@,>'>4#X@)>!>Z&'#a*a*~>N;{>L@",
"l@];]>^>w&{+{+Y*q&f* *>=r#/>q& *q&(>v=_>:><>g*s#%=K@|#g*[>}>(@O=|>1>0*a&w&L@{+f*q#3& *x&{*{+{*0*{*V.h.2>3>4>}&d&Z&u&a;]>^;L@->~>",
"~>B;y&x& *g*5>w=6>5>5>'#r#q# *5> *e&e*w=7>{+{+M*8>s#q* *w&V;s%9><$(>e&0*Q@w*>=M*V.0*L@L@J@w&o=9+9+.>i*0>a>o-b>4*h*@*->c>d>e>~>f>",
"{>{>K@g>g*g*h>i>j>z&t=g*r#^+Z*q&'#O@{+->K@w&w&J@^+{+o=k>`*Q#|*s%S=l>m>z&x&q*+*U;_#{+w*r#~+w&+*9.0.~+U.n>T$o>p>r*p@0&{>M@0;a;z-g>",
"{>q> *g*E&t=i=r>y=,#s>e*f*q#D;t> *r#{+u>^+/>w&e*/;q&y&G-o#v> %(@w>J-y=>=x&L@{*_=U;|#w*w*J@{+{++*.*Q.,>x>'=K*y>~#a*!#M;@>z>A>A>B>",
"];2*)# *y=C>s>n&C&5>q&w&{+;@n@+*:#`*.*o=R.D>w&7>>=-> *E>i.F>i-G>H>V.g*I>J>f* *J>L@i.L@0*X+P.X+Z+b.>.K>L>;#M>N>V.`*Y;O>p;^+P>a;)#",
"Q>$>!#^;h*R>[&O.N*.>%>,>R#Q#O#S>>.I+v>T>T#U>A#h.}#i*!$V>W>X>7%Y>Z>`>h. , ,.,R#O%+,@,#,$,v>%,S>&,K#*,=,-,$.;,h%>,%+.+,.*.,,P>',q#",
"s%>%)-,-s-V*6-m-),4-!,K*/$:-V*6-h-;%:- %6-/-h-U$`$`$~,S$6-{,X$],Q$>%/- %>%i-i-s%^,W@T$P$5-q-:-(-/,(, %_,:,7%'-<,[,},_-,- +1-;%6-",
"|,%*K$4#(@M$'*6%#%1,2,3,,%Q$4,5,R$6,N$^$6,Z$s%T$T$7,^,8,n-9,r;g;0,^$s%i-*%`$a,),$.Y$Z$Q$2+M$Q$M$a>@%(@*%v@_;3>)->%'*$%4#b,2+s%M$",
"c,d,e,f,g,h,i,j,k,l,m,n,o,p,q,r,)$s,t,u,v,w,x,y,z,)$s,s,s,A,B,C,D,E,F,G,H,I,R=J,3,K,L,M,N,O,P,Q,R,S,T,U,V,W,X,Y,Z,`, '.'+'@'#'$'",
"|&%'););&'0@s,*'k,='-';'>',''')'!'W,~'{']'[&U,^'/'('_':'<'['}'|'1'2'1'3'4'}'5'6'7'8'9'0'a'b'c'd'd'e'F*;=1=|&f'g'h'e'i'[>j'v,~&;=",
"B*/*/*/*:&n@k'l'm'P$n'c.#+d.0*3=L->=(>3=g*3*.#.@6++@V.k@|@0.9+o'p'P.q'M*+@r'I+W@c*s't'u'g#7+4&M@q#Q._+7.,.%+a*a*Y;z&'#K@:&@+Z&:&",
"@@v',.$+/*n@w'3 s%T$t-q X.~.h.m@<&G*w&p#+*:&A*x'y'`+.@=.,.c.t.z'A',>&.W.C.v'r n-B'C'D'E'J+7._#.#X+_#4+'.[.4+F'0*M&J@M@K@.#G'K@.#",
"`+`+&.`+K>%+-.Z=H'I'J'K'L'y@v.z+M'}#N':@w.O'n P'Q'R'K+,.S't@-.T'`+z+*.D.W.U'E=7%O=X>5&J@6+P./.>.U.m@a.q ,.7.{+w*y&{+6+%+h.V'R.h.",
"t.&.:@c.;+7.p'W';,x#t->>X'Y'z.v Z'U.A*.@w.A `' ).)P@.+t@C.,.'.t..@y.t.'.&++)@)W@5,#)}&Q@_#8.*..,,>O.K+q E.4+{*J>g*e*/*/.v.$)R.v.",
".@z+y.:&S.~+0&%)&)$.1,*)=)U=v.c.b.++6+6+`+-);)>)$),)`+P*++n*%+&.w'k't.C.e.D.t ')L$k%))N@O.X+6+!)n@A+[.~){)-=e=h=3&+*Z+X+Z+`=_#Z+",
"/*q'/*.#@+7+j#])^)W$T$Z /)()*+b..#8.Z'_)m*:)K'K'<)[)z+T':&=.(.w'[)R'R'v'&+U'B k&Q$})1>h&Q.F*7+U;h=.#h.D |)T m@3&|#p#.*J@|#v.1)|#",
"n@n@++6+2)Z+R.&$4>:,3)4)/)5)T>6)++,>>.Z@/.7)8)/)9)o@t.:@y.z+u.].0)g.a)!.@@b)x c)b,d)e)f>L&U;w&h=U;.#z+T#f)g)6+9.V.Y+s#q*o#%+J&o#",
"z+b.z+c.t.z+h)i)j)j@i-K#O'k)l)m)n)o)p)_*(..@x.q)o@o@T'`+v.*+F#>>r)s)t)u)@@v)w)t-x)y)~&z&h=p#0*{*0*K@9.~$z.b._#.+~+~+z).#l@a.n#l@",
"&.c.k*c.&.:@W.r,A)*%B)O'C)D)O*m*E)!=_)F)x.t.G)q):)o@`+*.v.[@H)I)>,w'R'@@'.J)p 7%n-K)!>u&h=~+3&K@L@L@+@g)w'., #7.k+0.{*Q.L)K+ #L)",
"*.&.6+6+6+S.9+&$A)(@M)M#N)S'~.d.O)P)q Q)R)n@*.&.=.m*`+,.v't)S)T)U)A.t@J)v'V)X >%R$W)f=)#i.9+{+)#z&q#a.X)2&[&Y)Z)-..+#+S@U@.+C.U@",
"e.-.Q.0.3*K@R.=,`)`# !`=-.r'7.%+z*.!+!@![)z+Z@C.D.#!t@v'A+[.[.$!%!A+).&!*!=!-!')O=;!t=>!,!N@a*'!h#L@K+)!!!!#Y)~!k+{!]!^!/!Y@S'/!",
"!+Y P@_*|.` Y ^ ^$(!_!:!d 3#w+w+<![!}!|!1!V=d 2!3!4!K=5!6!6!s$<!7!b t$8$8!9!0!`#a!b!c!d!e!f!g!h!i!j!e!K=I&h$<$]$i k!l!k!4.; m!4.",
"},n!o!_-p!q!m;b=r!s!t!r;q%;%'-/$S$M$6@g-@%L$}-[-|*b-/-/$6-[-Z$r%r;u!/-P$[-(-@% !v!W@[- +},y+s.~-)-w!'-e-,-u!/$L$;%1-(-V*W+/-L$/$",
"R$Q$T$U$x!y!(@R$6@^$>%$.g;V$'=Q$z!^$;#$.%*A!2+;#N$k=R$N$B!O=C!D!$.m E!F!Q$^,W$F!&%k&T$P$N$>%U$h-G!6-^,h-6-^,;%S$V*S$:-+%S$b,@%H!"};
