/* XPM */
static char * Stone_tiled_bricks_28_xpm[] = {
"64 64 3118 2",
"  	c #AD9E75",
". 	c #ACA076",
"+ 	c #B3A67B",
"@ 	c #B09F76",
"# 	c #AD9570",
"$ 	c #B9977B",
"% 	c #A4836C",
"& 	c #AF9974",
"* 	c #B59E77",
"= 	c #9E8265",
"- 	c #A68267",
"; 	c #A58366",
"> 	c #AC8A6B",
", 	c #B6A47E",
"' 	c #BAB182",
") 	c #A39570",
"! 	c #BBAA81",
"~ 	c #B1A279",
"{ 	c #CAC793",
"] 	c #AB9F75",
"^ 	c #AE9A74",
"/ 	c #AD9D75",
"( 	c #B4A07B",
"_ 	c #BDAD7F",
": 	c #C1B084",
"< 	c #B39D76",
"[ 	c #B3A57E",
"} 	c #AFA57D",
"| 	c #AB9873",
"1 	c #AEA47A",
"2 	c #B5A07B",
"3 	c #B39979",
"4 	c #B6A67F",
"5 	c #C5BD92",
"6 	c #B9B485",
"7 	c #B7AB81",
"8 	c #AA9671",
"9 	c #AB9370",
"0 	c #AC9F7B",
"a 	c #B3AB80",
"b 	c #C0B388",
"c 	c #B4A481",
"d 	c #AE9D79",
"e 	c #9D906F",
"f 	c #B4A881",
"g 	c #C4B68D",
"h 	c #BEB389",
"i 	c #AC9374",
"j 	c #BBB687",
"k 	c #AE9F7B",
"l 	c #B2997F",
"m 	c #B49F80",
"n 	c #92755E",
"o 	c #9C7D64",
"p 	c #987D60",
"q 	c #A5926E",
"r 	c #9B8B6B",
"s 	c #AD9A74",
"t 	c #A08C70",
"u 	c #A58D6D",
"v 	c #B59972",
"w 	c #AC9972",
"x 	c #AB9976",
"y 	c #A79471",
"z 	c #A99A78",
"A 	c #B1A37A",
"B 	c #A88F6D",
"C 	c #AE8D70",
"D 	c #AC936E",
"E 	c #AC946E",
"F 	c #AD996F",
"G 	c #A88F67",
"H 	c #907F5F",
"I 	c #948261",
"J 	c #9A8166",
"K 	c #A58766",
"L 	c #9E8667",
"M 	c #A7916C",
"N 	c #B3A479",
"O 	c #A79470",
"P 	c #B2A77E",
"Q 	c #B3AA82",
"R 	c #BCB588",
"S 	c #BBAF82",
"T 	c #AE9770",
"U 	c #B5A881",
"V 	c #B4A980",
"W 	c #B9A881",
"X 	c #B89E7D",
"Y 	c #B9AB82",
"Z 	c #A69571",
"` 	c #B7A37B",
" .	c #AA9970",
"..	c #ADA17A",
"+.	c #B7AE81",
"@.	c #B6AE81",
"#.	c #BAB583",
"$.	c #A99D76",
"%.	c #AEA179",
"&.	c #BBB187",
"*.	c #A1896C",
"=.	c #A09073",
"-.	c #9F9070",
";.	c #ADA079",
">.	c #A58F70",
",.	c #B3997A",
"'.	c #A99473",
").	c #AE9C76",
"!.	c #B29C7A",
"~.	c #A68F73",
"{.	c #B09775",
"].	c #B39E79",
"^.	c #A8A078",
"/.	c #B19E7C",
"(.	c #B09072",
"_.	c #AE8E70",
":.	c #A48A69",
"<.	c #AC9872",
"[.	c #B49E79",
"}.	c #9E8A6A",
"|.	c #9F8E6C",
"1.	c #AB9974",
"2.	c #9A8869",
"3.	c #AC9877",
"4.	c #96815F",
"5.	c #B39673",
"6.	c #A38D6B",
"7.	c #A08D6D",
"8.	c #785A46",
"9.	c #855C47",
"0.	c #77523E",
"a.	c #825B45",
"b.	c #8D6648",
"c.	c #88654B",
"d.	c #90714B",
"e.	c #946F4C",
"f.	c #957050",
"g.	c #8C664C",
"h.	c #895F48",
"i.	c #8B6149",
"j.	c #8B6B4C",
"k.	c #8D6948",
"l.	c #926A49",
"m.	c #8D644A",
"n.	c #9A6D50",
"o.	c #936B4C",
"p.	c #886248",
"q.	c #866045",
"r.	c #8A6045",
"s.	c #966E50",
"t.	c #966951",
"u.	c #815B45",
"v.	c #866348",
"w.	c #8D6643",
"x.	c #90694C",
"y.	c #8C6545",
"z.	c #79573E",
"A.	c #997150",
"B.	c #987453",
"C.	c #886749",
"D.	c #8F6849",
"E.	c #856149",
"F.	c #8C6649",
"G.	c #7D5B3E",
"H.	c #B9A582",
"I.	c #9C866B",
"J.	c #6C503A",
"K.	c #8A664A",
"L.	c #8A6648",
"M.	c #74563F",
"N.	c #845C44",
"O.	c #815A47",
"P.	c #885E48",
"Q.	c #8F6247",
"R.	c #926649",
"S.	c #8B6848",
"T.	c #735540",
"U.	c #7D553F",
"V.	c #79533B",
"W.	c #906547",
"X.	c #8E6145",
"Y.	c #906748",
"Z.	c #8D674C",
"`.	c #8C674C",
" +	c #8F674C",
".+	c #8E664C",
"++	c #815A44",
"@+	c #835D41",
"#+	c #76533B",
"$+	c #73523E",
"%+	c #795C45",
"&+	c #704F3D",
"*+	c #72513E",
"=+	c #6E4336",
"-+	c #85563F",
";+	c #9A7850",
">+	c #8D694E",
",+	c #7E5A42",
"'+	c #876446",
")+	c #724837",
"!+	c #855340",
"~+	c #885541",
"{+	c #906144",
"]+	c #8E6746",
"^+	c #8B6145",
"/+	c #80513D",
"(+	c #734938",
"_+	c #946148",
":+	c #855A42",
"<+	c #78513B",
"[+	c #794F38",
"}+	c #7E563F",
"|+	c #82543A",
"1+	c #87563F",
"2+	c #8B5E47",
"3+	c #885B40",
"4+	c #936649",
"5+	c #79523A",
"6+	c #7C513A",
"7+	c #895F42",
"8+	c #966B49",
"9+	c #966A4B",
"0+	c #7A543F",
"a+	c #875E46",
"b+	c #8E6347",
"c+	c #725138",
"d+	c #774F35",
"e+	c #BBAE82",
"f+	c #B5A47F",
"g+	c #4E3624",
"h+	c #6C4634",
"i+	c #825838",
"j+	c #6F4937",
"k+	c #6A4436",
"l+	c #704337",
"m+	c #895540",
"n+	c #835840",
"o+	c #6B4432",
"p+	c #5F3C30",
"q+	c #7B4D3A",
"r+	c #895942",
"s+	c #966649",
"t+	c #906043",
"u+	c #936147",
"v+	c #7B5136",
"w+	c #7F553E",
"x+	c #7B533C",
"y+	c #7E513C",
"z+	c #7D513F",
"A+	c #754B37",
"B+	c #7C503B",
"C+	c #84543F",
"D+	c #78533D",
"E+	c #7B5841",
"F+	c #6D4635",
"G+	c #754D3B",
"H+	c #794D39",
"I+	c #7E583F",
"J+	c #7E583D",
"K+	c #7F533D",
"L+	c #784E3A",
"M+	c #744D39",
"N+	c #78513E",
"O+	c #7A503A",
"P+	c #6D4D34",
"Q+	c #603E2B",
"R+	c #6E4932",
"S+	c #7B4835",
"T+	c #724434",
"U+	c #7A4B38",
"V+	c #6E4835",
"W+	c #644230",
"X+	c #8A583F",
"Y+	c #7A4C35",
"Z+	c #69402F",
"`+	c #80543F",
" @	c #885F47",
".@	c #75503A",
"+@	c #7B4E3A",
"@@	c #86553E",
"#@	c #906648",
"$@	c #946849",
"%@	c #996F4D",
"&@	c #825841",
"*@	c #84563F",
"=@	c #8F6446",
"-@	c #875C42",
";@	c #81533D",
">@	c #7D533C",
",@	c #A58B6A",
"'@	c #744C39",
")@	c #724B37",
"!@	c #63412F",
"~@	c #613E2E",
"{@	c #5E3A2D",
"]@	c #724A3A",
"^@	c #7C4C37",
"/@	c #774935",
"(@	c #693A2A",
"_@	c #5E372C",
":@	c #694031",
"<@	c #804D38",
"[@	c #885A40",
"}@	c #835640",
"|@	c #81513C",
"1@	c #734634",
"2@	c #633F2F",
"3@	c #65402F",
"4@	c #693C2B",
"5@	c #734735",
"6@	c #85523E",
"7@	c #905B42",
"8@	c #835240",
"9@	c #84563E",
"0@	c #6E4B35",
"a@	c #603F30",
"b@	c #7C4F39",
"c@	c #996E4E",
"d@	c #94694A",
"e@	c #8D6246",
"f@	c #6D4735",
"g@	c #6E4D38",
"h@	c #754F3A",
"i@	c #6D4634",
"j@	c #855B41",
"k@	c #96744D",
"l@	c #946B47",
"m@	c #875B3F",
"n@	c #674631",
"o@	c #79513A",
"p@	c #663D2D",
"q@	c #663F2E",
"r@	c #754A36",
"s@	c #8E5C42",
"t@	c #84523B",
"u@	c #82533A",
"v@	c #714A38",
"w@	c #764837",
"x@	c #875641",
"y@	c #885840",
"z@	c #815941",
"A@	c #7C533E",
"B@	c #714C36",
"C@	c #83533B",
"D@	c #7B5339",
"E@	c #8E6646",
"F@	c #8C5C43",
"G@	c #8A5942",
"H@	c #8F5D45",
"I@	c #86563E",
"J@	c #764A36",
"K@	c #8F7D5F",
"L@	c #958667",
"M@	c #794F3A",
"N@	c #744836",
"O@	c #7C4A37",
"P@	c #824E39",
"Q@	c #623D2E",
"R@	c #67412F",
"S@	c #663C2C",
"T@	c #523128",
"U@	c #633A2C",
"V@	c #7F4E38",
"W@	c #8E6446",
"X@	c #8E6247",
"Y@	c #784A36",
"Z@	c #644131",
"`@	c #684230",
" #	c #53372A",
".#	c #503628",
"+#	c #6B4230",
"@#	c #774C38",
"##	c #7D523B",
"$#	c #7C503A",
"%#	c #7E503C",
"&#	c #835742",
"*#	c #86583E",
"=#	c #784D3A",
"-#	c #8B5940",
";#	c #956C4D",
">#	c #7F563D",
",#	c #85563E",
"'#	c #7C4C38",
")#	c #613F30",
"!#	c #704535",
"~#	c #7C4F3A",
"{#	c #966C4A",
"]#	c #8A6948",
"^#	c #8B6445",
"/#	c #7C4E3A",
"(#	c #784937",
"_#	c #724C35",
":#	c #7C513B",
"<#	c #673D2D",
"[#	c #774936",
"}#	c #744635",
"|#	c #784935",
"1#	c #7A4A36",
"2#	c #6F4030",
"3#	c #84513C",
"4#	c #6D4533",
"5#	c #704733",
"6#	c #8A583E",
"7#	c #754C37",
"8#	c #5D3D2D",
"9#	c #764F37",
"0#	c #936947",
"a#	c #886044",
"b#	c #82533D",
"c#	c #936347",
"d#	c #7E523D",
"e#	c #714533",
"f#	c #703E2E",
"g#	c #5F3629",
"h#	c #948668",
"i#	c #8E8161",
"j#	c #7B4F36",
"k#	c #8F5D43",
"l#	c #7F4D3B",
"m#	c #704739",
"n#	c #603B2F",
"o#	c #55362A",
"p#	c #683F2E",
"q#	c #7F4F3A",
"r#	c #694132",
"s#	c #855A3F",
"t#	c #906447",
"u#	c #754A37",
"v#	c #774C37",
"w#	c #5E3C2B",
"x#	c #5E3E2D",
"y#	c #674432",
"z#	c #5E402E",
"A#	c #69422F",
"B#	c #744833",
"C#	c #65422F",
"D#	c #684233",
"E#	c #7C4C3A",
"F#	c #794F3B",
"G#	c #875941",
"H#	c #80513A",
"I#	c #916448",
"J#	c #7E543F",
"K#	c #885E42",
"L#	c #875B40",
"M#	c #7E4B36",
"N#	c #623D2D",
"O#	c #673E2F",
"P#	c #764635",
"Q#	c #84533F",
"R#	c #845F43",
"S#	c #8B6546",
"T#	c #794C37",
"U#	c #724836",
"V#	c #926145",
"W#	c #915F44",
"X#	c #7A4B3A",
"Y#	c #784A37",
"Z#	c #875841",
"`#	c #754736",
" $	c #674031",
".$	c #7A4D39",
"+$	c #734B36",
"@$	c #86573E",
"#$	c #87543B",
"$$	c #724533",
"%$	c #784F3A",
"&$	c #896544",
"*$	c #926D4A",
"=$	c #6D4432",
"-$	c #754B3A",
";$	c #7A4E3C",
">$	c #83553E",
",$	c #704432",
"'$	c #B8B082",
")$	c #A89B74",
"!$	c #724A36",
"~$	c #633B2F",
"{$	c #714636",
"]$	c #784D3C",
"^$	c #59392D",
"/$	c #6F4332",
"($	c #83593E",
"_$	c #85593F",
":$	c #895A43",
"<$	c #875D43",
"[$	c #906448",
"}$	c #926247",
"|$	c #82543C",
"1$	c #7E523C",
"2$	c #5C3C2C",
"3$	c #5A392B",
"4$	c #543325",
"5$	c #593526",
"6$	c #613D2D",
"7$	c #7A4E39",
"8$	c #60402F",
"9$	c #804F3B",
"0$	c #754734",
"a$	c #704732",
"b$	c #593929",
"c$	c #7C4D3B",
"d$	c #966749",
"e$	c #956449",
"f$	c #895740",
"g$	c #774C39",
"h$	c #744934",
"i$	c #774E38",
"j$	c #7E4C39",
"k$	c #734232",
"l$	c #8A5C42",
"m$	c #8C6146",
"n$	c #64412E",
"o$	c #84553D",
"p$	c #724334",
"q$	c #744B36",
"r$	c #744A37",
"s$	c #8D5E46",
"t$	c #6C4233",
"u$	c #754836",
"v$	c #966A4A",
"w$	c #86523B",
"x$	c #814F3C",
"y$	c #71412E",
"z$	c #734835",
"A$	c #865940",
"B$	c #8A6244",
"C$	c #865941",
"D$	c #835440",
"E$	c #7F543F",
"F$	c #7B4B37",
"G$	c #7D4B38",
"H$	c #704233",
"I$	c #A49772",
"J$	c #AA9B7A",
"K$	c #683F31",
"L$	c #513129",
"M$	c #724736",
"N$	c #7E563E",
"O$	c #855D40",
"P$	c #875E41",
"Q$	c #97704E",
"R$	c #99714F",
"S$	c #7D543C",
"T$	c #784C39",
"U$	c #75513B",
"V$	c #8C5F43",
"W$	c #704939",
"X$	c #5C382B",
"Y$	c #563629",
"Z$	c #4E3025",
"`$	c #4F3126",
" %	c #59392C",
".%	c #734836",
"+%	c #80573D",
"@%	c #82513B",
"#%	c #7C4B39",
"$%	c #59392B",
"%%	c #774B36",
"&%	c #65422E",
"*%	c #84503B",
"=%	c #7D4D37",
"-%	c #8D5E47",
";%	c #76523C",
">%	c #835C3F",
",%	c #623B2C",
"'%	c #6B3E30",
")%	c #704B34",
"!%	c #83573F",
"~%	c #6E412F",
"{%	c #7B4F39",
"]%	c #6C4532",
"^%	c #784A34",
"/%	c #8A5B41",
"(%	c #744935",
"_%	c #81523C",
":%	c #8B5C45",
"<%	c #906747",
"[%	c #865C41",
"}%	c #774F3C",
"|%	c #724431",
"1%	c #6D402E",
"2%	c #623A2C",
"3%	c #875A3F",
"4%	c #79593E",
"5%	c #654030",
"6%	c #906047",
"7%	c #916047",
"8%	c #663D2F",
"9%	c #6C3A2E",
"0%	c #5F3A2C",
"a%	c #988468",
"b%	c #A69879",
"c%	c #653D31",
"d%	c #6A4133",
"e%	c #794E37",
"f%	c #895841",
"g%	c #86573F",
"h%	c #977751",
"i%	c #8C6D4A",
"j%	c #795038",
"k%	c #775039",
"l%	c #694431",
"m%	c #6A4031",
"n%	c #7C553D",
"o%	c #82583D",
"p%	c #8F5B44",
"q%	c #6E4133",
"r%	c #6F4536",
"s%	c #644031",
"t%	c #7D4C38",
"u%	c #583429",
"v%	c #8A593E",
"w%	c #7A4F38",
"x%	c #6F4230",
"y%	c #946146",
"z%	c #784E35",
"A%	c #7B5039",
"B%	c #734934",
"C%	c #8F5F43",
"D%	c #7E523A",
"E%	c #926446",
"F%	c #7F523B",
"G%	c #774A36",
"H%	c #6B4836",
"I%	c #845941",
"J%	c #6E4432",
"K%	c #81503A",
"L%	c #845139",
"M%	c #8A5A41",
"N%	c #6C4232",
"O%	c #7D4B37",
"P%	c #835841",
"Q%	c #664633",
"R%	c #744633",
"S%	c #7E503D",
"T%	c #7C5039",
"U%	c #6D432F",
"V%	c #68412E",
"W%	c #774F36",
"X%	c #865F41",
"Y%	c #6F4A35",
"Z%	c #6E4332",
"`%	c #754835",
" &	c #5D372B",
".&	c #724234",
"+&	c #784C37",
"@&	c #A6916F",
"#&	c #A68C6E",
"$&	c #85553F",
"%&	c #714734",
"&&	c #7B4E39",
"*&	c #88573F",
"=&	c #8E6041",
"-&	c #916C49",
";&	c #855B40",
">&	c #653F2E",
",&	c #6E4936",
"'&	c #6C432F",
")&	c #83533D",
"!&	c #734534",
"~&	c #82573E",
"{&	c #6E4A35",
"]&	c #8A563F",
"^&	c #794F39",
"/&	c #784F39",
"(&	c #5F3B2D",
"_&	c #6D4233",
":&	c #8B5D3F",
"<&	c #83583D",
"[&	c #7F5239",
"}&	c #815538",
"|&	c #814F39",
"1&	c #683F30",
"2&	c #4D2F24",
"3&	c #764632",
"4&	c #80533C",
"5&	c #7F4D39",
"6&	c #7B4836",
"7&	c #824F39",
"8&	c #724733",
"9&	c #6A4530",
"0&	c #724934",
"a&	c #87553E",
"b&	c #85573E",
"c&	c #8A5B40",
"d&	c #764B38",
"e&	c #5E3D2C",
"f&	c #724B36",
"g&	c #794E3A",
"h&	c #6D4836",
"i&	c #684A35",
"j&	c #513026",
"k&	c #704736",
"l&	c #8D5A40",
"m&	c #81543D",
"n&	c #6F4B38",
"o&	c #724E38",
"p&	c #724D39",
"q&	c #6A4533",
"r&	c #6D412F",
"s&	c #764C37",
"t&	c #6B4734",
"u&	c #65412F",
"v&	c #774533",
"w&	c #6C3D2E",
"x&	c #9E866A",
"y&	c #A18B6C",
"z&	c #774836",
"A&	c #5D3A2C",
"B&	c #5D3B2D",
"C&	c #80513B",
"D&	c #714B35",
"E&	c #7B5239",
"F&	c #65402D",
"G&	c #754733",
"H&	c #6F4533",
"I&	c #684030",
"J&	c #633D2B",
"K&	c #7A4C39",
"L&	c #6E4230",
"M&	c #59382B",
"N&	c #6C3E30",
"O&	c #684334",
"P&	c #673F31",
"Q&	c #7F5539",
"R&	c #7F5A3D",
"S&	c #724632",
"T&	c #744731",
"U&	c #764634",
"V&	c #7A4D38",
"W&	c #7A4632",
"X&	c #7E4E38",
"Y&	c #85563C",
"Z&	c #69412E",
"`&	c #693F30",
" *	c #7E513B",
".*	c #674430",
"+*	c #593928",
"@*	c #744D36",
"#*	c #7B4F37",
"$*	c #794C39",
"%*	c #7D4D38",
"&*	c #724D37",
"**	c #7D4E3A",
"=*	c #815D40",
"-*	c #664331",
";*	c #6D4435",
">*	c #734C37",
",*	c #8A5841",
"'*	c #8B5F44",
")*	c #704735",
"!*	c #7C4A36",
"~*	c #6A3B2E",
"{*	c #593629",
"]*	c #724834",
"^*	c #684531",
"/*	c #7D4F3A",
"(*	c #6D402F",
"_*	c #AE9E76",
":*	c #ADA47A",
"<*	c #6F4838",
"[*	c #452C23",
"}*	c #734A34",
"|*	c #795238",
"1*	c #704531",
"2*	c #5D382A",
"3*	c #724633",
"4*	c #794A38",
"5*	c #794A37",
"6*	c #6E4030",
"7*	c #734633",
"8*	c #784B36",
"9*	c #794C3A",
"0*	c #62392A",
"a*	c #694131",
"b*	c #6A4132",
"c*	c #714333",
"d*	c #6E4533",
"e*	c #7F5039",
"f*	c #794B35",
"g*	c #6E4A33",
"h*	c #7D4F38",
"i*	c #88563E",
"j*	c #724430",
"k*	c #7C523A",
"l*	c #744D35",
"m*	c #7A5037",
"n*	c #744432",
"o*	c #603D2B",
"p*	c #6B4431",
"q*	c #72432F",
"r*	c #694232",
"s*	c #734E38",
"t*	c #5F3C2C",
"u*	c #754934",
"v*	c #8B5D40",
"w*	c #764B35",
"x*	c #764F3A",
"y*	c #7B4D39",
"z*	c #87543E",
"A*	c #724734",
"B*	c #84583D",
"C*	c #684634",
"D*	c #754C3A",
"E*	c #774A37",
"F*	c #7C4F3B",
"G*	c #916145",
"H*	c #895F43",
"I*	c #603C2E",
"J*	c #5F372C",
"K*	c #4E3023",
"L*	c #86563D",
"M*	c #5B3A29",
"N*	c #76523B",
"O*	c #613427",
"P*	c #B09A75",
"Q*	c #AC9A79",
"R*	c #4C2E25",
"S*	c #603B2D",
"T*	c #6E432F",
"U*	c #795237",
"V*	c #784F35",
"W*	c #6C412D",
"X*	c #6C3E2D",
"Y*	c #905E43",
"Z*	c #81553D",
"`*	c #7A4935",
" =	c #704231",
".=	c #7D4834",
"+=	c #7B4C37",
"@=	c #613B2C",
"#=	c #5D392D",
"$=	c #5E3C2D",
"%=	c #835B3D",
"&=	c #8E6546",
"*=	c #80573B",
"==	c #724631",
"-=	c #5A382A",
";=	c #7F4C37",
">=	c #8B6446",
",=	c #8A6343",
"'=	c #875C41",
")=	c #815039",
"!=	c #774B35",
"~=	c #6F4431",
"{=	c #754534",
"]=	c #84543E",
"^=	c #724B35",
"/=	c #774F39",
"(=	c #6C4631",
"_=	c #8C603F",
":=	c #7B4E38",
"<=	c #80553E",
"[=	c #8C5E44",
"}=	c #81583F",
"|=	c #634533",
"1=	c #7A513A",
"2=	c #794D3B",
"3=	c #684433",
"4=	c #724435",
"5=	c #7D5039",
"6=	c #6E4B36",
"7=	c #7C563D",
"8=	c #7A4C38",
"9=	c #774834",
"0=	c #693E2E",
"a=	c #724233",
"b=	c #674431",
"c=	c #794937",
"d=	c #6F3E33",
"e=	c #764B36",
"f=	c #5D3226",
"g=	c #B8A37E",
"h=	c #A79173",
"i=	c #513027",
"j=	c #623C2D",
"k=	c #724A35",
"l=	c #80583A",
"m=	c #764D35",
"n=	c #724933",
"o=	c #814F38",
"p=	c #89573F",
"q=	c #784934",
"r=	c #683C2B",
"s=	c #744534",
"t=	c #87543D",
"u=	c #6F4430",
"v=	c #6A4332",
"w=	c #845B3E",
"x=	c #98714B",
"y=	c #856040",
"z=	c #8B6342",
"A=	c #714835",
"B=	c #7E573B",
"C=	c #97704C",
"D=	c #875C3F",
"E=	c #744733",
"F=	c #8F5C40",
"G=	c #87573F",
"H=	c #67402F",
"I=	c #5C3A2B",
"J=	c #6A4432",
"K=	c #6B4634",
"L=	c #835E41",
"M=	c #744A35",
"N=	c #8A5F44",
"O=	c #734F37",
"P=	c #6F4C37",
"Q=	c #694936",
"R=	c #664334",
"S=	c #7E4C3B",
"T=	c #865741",
"U=	c #6E4635",
"V=	c #82573F",
"W=	c #815B40",
"X=	c #765038",
"Y=	c #693F2F",
"Z=	c #764B34",
"`=	c #774735",
" -	c #693D2F",
".-	c #734333",
"+-	c #824E3A",
"@-	c #734531",
"#-	c #B3A97C",
"$-	c #B19C76",
"%-	c #4C2D23",
"&-	c #7A4F37",
"*-	c #754D35",
"=-	c #784731",
"--	c #6E4431",
";-	c #653F30",
">-	c #5A3829",
",-	c #61382A",
"'-	c #714334",
")-	c #764532",
"!-	c #744936",
"~-	c #906E49",
"{-	c #926B48",
"]-	c #8F6745",
"^-	c #84523E",
"/-	c #764D37",
"(-	c #6C4433",
"_-	c #7C543D",
":-	c #744B35",
"<-	c #794733",
"[-	c #9A674C",
"}-	c #916045",
"|-	c #69402E",
"1-	c #52382A",
"2-	c #583A2C",
"3-	c #6A4733",
"4-	c #7C573C",
"5-	c #684532",
"6-	c #7C543C",
"7-	c #88593F",
"8-	c #906247",
"9-	c #774E39",
"0-	c #734936",
"a-	c #774B39",
"b-	c #7F503C",
"c-	c #885942",
"d-	c #7B533B",
"e-	c #6D4132",
"f-	c #82513E",
"g-	c #88543E",
"h-	c #8B6046",
"i-	c #764C35",
"j-	c #7C4C36",
"k-	c #B5A47E",
"l-	c #B7A77D",
"m-	c #724130",
"n-	c #744331",
"o-	c #8D6043",
"p-	c #876243",
"q-	c #966549",
"r-	c #88513C",
"s-	c #754533",
"t-	c #674030",
"u-	c #4B2F25",
"v-	c #4E2E25",
"w-	c #774634",
"x-	c #8C6745",
"y-	c #805037",
"z-	c #6D4031",
"A-	c #6D4034",
"B-	c #814F3B",
"C-	c #79543B",
"D-	c #85573D",
"E-	c #673F2E",
"F-	c #7C4E39",
"G-	c #875540",
"H-	c #885940",
"I-	c #6B4231",
"J-	c #6B4533",
"K-	c #724835",
"L-	c #7F523D",
"M-	c #80543E",
"N-	c #8E5D46",
"O-	c #744A39",
"P-	c #6E4534",
"Q-	c #724B39",
"R-	c #6D4434",
"S-	c #724833",
"T-	c #6A4632",
"U-	c #6C3F2D",
"V-	c #754E39",
"W-	c #8D5B41",
"X-	c #7E4D38",
"Y-	c #825740",
"Z-	c #704835",
"`-	c #8B5A42",
" ;	c #885841",
".;	c #895C44",
"+;	c #8D6145",
"@;	c #875542",
"#;	c #6E4433",
"$;	c #654031",
"%;	c #744D3A",
"&;	c #845B40",
"*;	c #764B37",
"=;	c #84553F",
"-;	c #8F6447",
";;	c #5E3727",
">;	c #A28F6B",
",;	c #A5906F",
"';	c #936748",
");	c #855940",
"!;	c #83523C",
"~;	c #714331",
"{;	c #724937",
"];	c #824E3B",
"^;	c #5B3A2D",
"/;	c #704433",
"(;	c #7A5038",
"_;	c #84593F",
":;	c #876140",
"<;	c #765139",
"[;	c #7E4D3B",
"};	c #84573F",
"|;	c #6D4330",
"1;	c #623A2B",
"2;	c #6A4032",
"3;	c #7B4B36",
"4;	c #885F45",
"5;	c #8C6547",
"6;	c #77543D",
"7;	c #6C4633",
"8;	c #81513F",
"9;	c #79503F",
"0;	c #865A45",
"a;	c #7F513D",
"b;	c #8F6146",
"c;	c #704936",
"d;	c #7D553A",
"e;	c #6E4A36",
"f;	c #714934",
"g;	c #85573C",
"h;	c #7D5940",
"i;	c #6A4B35",
"j;	c #6A4433",
"k;	c #73503C",
"l;	c #784D38",
"m;	c #875A41",
"n;	c #8F6547",
"o;	c #866345",
"p;	c #7A523D",
"q;	c #8B6346",
"r;	c #7B553B",
"s;	c #7E533C",
"t;	c #77493A",
"u;	c #674334",
"v;	c #7B563D",
"w;	c #916A49",
"x;	c #8B5A43",
"y;	c #634133",
"z;	c #6D4433",
"A;	c #6B4831",
"B;	c #895940",
"C;	c #7F533E",
"D;	c #804D39",
"E;	c #593729",
"F;	c #82503A",
"G;	c #956347",
"H;	c #7E5039",
"I;	c #643F2F",
"J;	c #856143",
"K;	c #815A40",
"L;	c #7F563C",
"M;	c #724634",
"N;	c #5E3327",
"O;	c #6D4231",
"P;	c #926246",
"Q;	c #956948",
"R;	c #7D563C",
"S;	c #6E4F39",
"T;	c #744837",
"U;	c #724838",
"V;	c #6B4536",
"W;	c #855E45",
"X;	c #8B664C",
"Y;	c #876045",
"Z;	c #855D43",
"`;	c #7F513B",
" >	c #80523A",
".>	c #654331",
"+>	c #6F4F3A",
"@>	c #815E3D",
"#>	c #83563D",
"$>	c #845A3F",
"%>	c #694432",
"&>	c #74503A",
"*>	c #825D40",
"=>	c #704D38",
"->	c #7B4F3A",
";>	c #654131",
">>	c #895741",
",>	c #6C4A34",
"'>	c #7A573B",
")>	c #885941",
"!>	c #6C4334",
"~>	c #734736",
"{>	c #744535",
"]>	c #795039",
"^>	c #AF9D77",
"/>	c #AB9B76",
"(>	c #7F543D",
"_>	c #7A4D3A",
":>	c #83503A",
"<>	c #6A4232",
"[>	c #643F31",
"}>	c #6A4030",
"|>	c #6B4834",
"1>	c #845B3F",
"2>	c #543427",
"3>	c #845E41",
"4>	c #926447",
"5>	c #8B5D43",
"6>	c #8B5F43",
"7>	c #895A40",
"8>	c #754634",
"9>	c #5C372C",
"0>	c #774937",
"a>	c #886245",
"b>	c #916748",
"c>	c #76503A",
"d>	c #6F4B37",
"e>	c #704C35",
"f>	c #8C6748",
"g>	c #8C6448",
"h>	c #855C43",
"i>	c #7D5941",
"j>	c #714637",
"k>	c #6A4130",
"l>	c #683F32",
"m>	c #926B4A",
"n>	c #81593B",
"o>	c #754331",
"p>	c #523425",
"q>	c #643E30",
"r>	c #82563D",
"s>	c #76553B",
"t>	c #6F4C35",
"u>	c #754B36",
"v>	c #83593D",
"w>	c #6E4834",
"x>	c #704935",
"y>	c #714635",
"z>	c #775138",
"A>	c #76513B",
"B>	c #75513A",
"C>	c #5F3F2F",
"D>	c #634132",
"E>	c #704534",
"F>	c #603B2A",
"G>	c #755037",
"H>	c #A19273",
"I>	c #A49874",
"J>	c #8E6345",
"K>	c #734837",
"L>	c #634130",
"M>	c #78533A",
"N>	c #84593E",
"O>	c #815640",
"P>	c #835A40",
"Q>	c #916148",
"R>	c #82523F",
"S>	c #8B6545",
"T>	c #754E3A",
"U>	c #7B4C3A",
"V>	c #6B4733",
"W>	c #8D6144",
"X>	c #835C42",
"Y>	c #79523B",
"Z>	c #7C553F",
"`>	c #6B4232",
" ,	c #825940",
".,	c #7F593E",
"+,	c #86583F",
"@,	c #805640",
"#,	c #5F3E34",
"$,	c #6D4030",
"%,	c #6D4B36",
"&,	c #865A3E",
"*,	c #5B3928",
"=,	c #643D2E",
"-,	c #633D2D",
";,	c #705038",
">,	c #7E573C",
",,	c #704631",
"',	c #81543B",
"),	c #684132",
"!,	c #6F4737",
"~,	c #754D38",
"{,	c #8C5D43",
"],	c #865D40",
"^,	c #6E4733",
"/,	c #865C40",
"(,	c #85543E",
"_,	c #634033",
":,	c #613D2C",
"<,	c #583B29",
"[,	c #825E40",
"},	c #6C4932",
"|,	c #A39170",
"1,	c #A19470",
"2,	c #7D543B",
"3,	c #9C7250",
"4,	c #613D2F",
"5,	c #543628",
"6,	c #6D4932",
"7,	c #895840",
"8,	c #7E523B",
"9,	c #875E42",
"0,	c #865E42",
"a,	c #653E32",
"b,	c #79543A",
"c,	c #815C40",
"d,	c #8B5B42",
"e,	c #734A39",
"f,	c #7E573F",
"g,	c #76563F",
"h,	c #734C38",
"i,	c #734939",
"j,	c #83573E",
"k,	c #7C563C",
"l,	c #8F6246",
"m,	c #7D513C",
"n,	c #664133",
"o,	c #51342C",
"p,	c #6A4435",
"q,	c #7C533D",
"r,	c #7F553D",
"s,	c #7A573C",
"t,	c #895B41",
"u,	c #804F3A",
"v,	c #6D3F30",
"w,	c #6A4832",
"x,	c #87573D",
"y,	c #794B38",
"z,	c #82553C",
"A,	c #794B37",
"B,	c #784C38",
"C,	c #845540",
"D,	c #7E5439",
"E,	c #6B402F",
"F,	c #734832",
"G,	c #6F4833",
"H,	c #6B4531",
"I,	c #694B36",
"J,	c #AF9E78",
"K,	c #B8B188",
"L,	c #8C6047",
"M,	c #9A7252",
"N,	c #6F4B39",
"O,	c #4E3429",
"P,	c #623F30",
"Q,	c #8F694A",
"R,	c #8E6448",
"S,	c #865841",
"T,	c #80503A",
"U,	c #83513E",
"V,	c #8A6647",
"W,	c #896749",
"X,	c #714936",
"Y,	c #74553E",
"Z,	c #7B5C3F",
"`,	c #704D36",
" '	c #6C4937",
".'	c #8E664D",
"+'	c #734A35",
"@'	c #664632",
"#'	c #845B41",
"$'	c #8D6248",
"%'	c #6E4735",
"&'	c #664232",
"*'	c #4E3328",
"='	c #623F2F",
"-'	c #754B39",
";'	c #78533B",
">'	c #7D593E",
",'	c #6C4735",
"''	c #654234",
")'	c #704B35",
"!'	c #764D38",
"~'	c #7B5238",
"{'	c #764E3B",
"]'	c #6D4B35",
"^'	c #714F38",
"/'	c #845940",
"('	c #7E4F3A",
"_'	c #5D3B2F",
":'	c #644030",
"<'	c #694731",
"['	c #876144",
"}'	c #875F43",
"|'	c #6F4835",
"1'	c #AA9873",
"2'	c #ACA17B",
"3'	c #8C5C47",
"4'	c #744739",
"5'	c #6F4234",
"6'	c #85533F",
"7'	c #81593E",
"8'	c #754C36",
"9'	c #916648",
"0'	c #7D5B41",
"a'	c #9E7652",
"b'	c #905F45",
"c'	c #754B38",
"d'	c #7D5B43",
"e'	c #815F42",
"f'	c #7A523E",
"g'	c #6D4D3C",
"h'	c #6A4A37",
"i'	c #6B4F38",
"j'	c #7E563D",
"k'	c #916447",
"l'	c #97664C",
"m'	c #855D42",
"n'	c #774739",
"o'	c #6E4734",
"p'	c #6D4636",
"q'	c #684133",
"r'	c #7B523A",
"s'	c #7A533B",
"t'	c #7E5740",
"u'	c #624331",
"v'	c #845D42",
"w'	c #704836",
"x'	c #54372A",
"y'	c #724B3A",
"z'	c #694834",
"A'	c #714433",
"B'	c #744637",
"C'	c #583B2C",
"D'	c #513929",
"E'	c #865E40",
"F'	c #8B5C44",
"G'	c #8C5A41",
"H'	c #7B4F3C",
"I'	c #774D3A",
"J'	c #654332",
"K'	c #6C4A35",
"L'	c #7F5B3D",
"M'	c #7E5B3E",
"N'	c #81563D",
"O'	c #6E4634",
"P'	c #7B5740",
"Q'	c #ABA07A",
"R'	c #A19674",
"S'	c #784939",
"T'	c #5A352C",
"U'	c #784E3B",
"V'	c #875C44",
"W'	c #82523C",
"X'	c #724E37",
"Y'	c #725037",
"Z'	c #734E36",
"`'	c #7A533C",
" )	c #7F5641",
".)	c #7F5540",
"+)	c #85533D",
"@)	c #875D41",
"#)	c #806143",
"$)	c #614335",
"%)	c #6D4637",
"&)	c #684833",
"*)	c #6C4C37",
"=)	c #6B4933",
"-)	c #72533D",
";)	c #724735",
">)	c #663F2F",
",)	c #704937",
"')	c #6C4632",
"))	c #7C513D",
"!)	c #885A42",
"~)	c #563729",
"{)	c #694735",
"])	c #865E43",
"^)	c #8F6347",
"/)	c #926348",
"()	c #724737",
"_)	c #794835",
":)	c #583729",
"<)	c #7A5439",
"[)	c #805E3F",
"})	c #7C513C",
"|)	c #8B5C42",
"1)	c #8B6140",
"2)	c #9D936F",
"3)	c #B6AB81",
"4)	c #462B23",
"5)	c #6C4135",
"6)	c #8A5840",
"7)	c #8A6241",
"8)	c #7F5C3E",
"9)	c #644430",
"0)	c #61402E",
"a)	c #613F31",
"b)	c #6D4535",
"c)	c #6D4835",
"d)	c #8F6445",
"e)	c #7E593C",
"f)	c #805B3F",
"g)	c #7D4F39",
"h)	c #58392D",
"i)	c #6B4430",
"j)	c #61402D",
"k)	c #7B593E",
"l)	c #79533A",
"m)	c #7B513A",
"n)	c #895A41",
"o)	c #775240",
"p)	c #674736",
"q)	c #75503C",
"r)	c #815B41",
"s)	c #6D4C39",
"t)	c #77543F",
"u)	c #7B5642",
"v)	c #75523D",
"w)	c #805540",
"x)	c #6C4A39",
"y)	c #664937",
"z)	c #7A5840",
"A)	c #845F45",
"B)	c #6E4D3A",
"C)	c #6F503B",
"D)	c #71503C",
"E)	c #805E45",
"F)	c #8E6F51",
"G)	c #8F6D4D",
"H)	c #8D664B",
"I)	c #7A5642",
"J)	c #7E543E",
"K)	c #71503D",
"L)	c #6E4A37",
"M)	c #7B553E",
"N)	c #77533E",
"O)	c #76513D",
"P)	c #855B45",
"Q)	c #815540",
"R)	c #79523C",
"S)	c #684736",
"T)	c #A3916C",
"U)	c #5E4134",
"V)	c #815745",
"W)	c #825D47",
"X)	c #8B674B",
"Y)	c #886548",
"Z)	c #74513D",
"`)	c #553C2F",
" !	c #49372A",
".!	c #583D2F",
"+!	c #674335",
"@!	c #724F3B",
"#!	c #7B5B42",
"$!	c #76533C",
"%!	c #78553F",
"&!	c #5B4131",
"*!	c #563C2D",
"=!	c #6F4E3B",
"-!	c #5F4534",
";!	c #74583E",
">!	c #825D44",
",!	c #7C5540",
"'!	c #8C6045",
")!	c #7D5640",
"!!	c #B29677",
"~!	c #A5856B",
"{!	c #AC9472",
"]!	c #A1956E",
"^!	c #9A8A6A",
"/!	c #AF9671",
"(!	c #A98D6C",
"_!	c #9A8163",
":!	c #928065",
"<!	c #A08B69",
"[!	c #AA926C",
"}!	c #AE9D77",
"|!	c #B09B76",
"1!	c #A38A68",
"2!	c #A0906D",
"3!	c #ADA57C",
"4!	c #A88F6E",
"5!	c #AF9774",
"6!	c #9E886B",
"7!	c #A0936C",
"8!	c #ACA078",
"9!	c #A08E6C",
"0!	c #A28C6E",
"a!	c #987B63",
"b!	c #AA9172",
"c!	c #9B8064",
"d!	c #A58B69",
"e!	c #AC9A72",
"f!	c #AAA179",
"g!	c #A08C6B",
"h!	c #9E8867",
"i!	c #B19E78",
"j!	c #AB9773",
"k!	c #B3A27A",
"l!	c #B29F79",
"m!	c #A7936F",
"n!	c #AE9A73",
"o!	c #AD9B75",
"p!	c #9D8768",
"q!	c #997E65",
"r!	c #AB9979",
"s!	c #AA9679",
"t!	c #B6AE86",
"u!	c #B4A97D",
"v!	c #BAA480",
"w!	c #B59B7B",
"x!	c #A8906F",
"y!	c #A38569",
"z!	c #AA9577",
"A!	c #A2916D",
"B!	c #B19A79",
"C!	c #98836B",
"D!	c #AB9371",
"E!	c #987B5D",
"F!	c #8F765D",
"G!	c #A38E6B",
"H!	c #AB9772",
"I!	c #AA8C6A",
"J!	c #A57F66",
"K!	c #AC916E",
"L!	c #B7B187",
"M!	c #B9B083",
"N!	c #B79079",
"O!	c #BEA47F",
"P!	c #A4936C",
"Q!	c #9F936E",
"R!	c #998867",
"S!	c #B19D78",
"T!	c #BAA279",
"U!	c #A38E6C",
"V!	c #A08B68",
"W!	c #B29A73",
"X!	c #B4A57A",
"Y!	c #A69275",
"Z!	c #9A8666",
"`!	c #AA8D6E",
" ~	c #AA9370",
".~	c #AF926D",
"+~	c #A88D6C",
"@~	c #B5A47D",
"#~	c #A69872",
"$~	c #A1916D",
"%~	c #B5A67B",
"&~	c #AD9B79",
"*~	c #AD9173",
"=~	c #937761",
"-~	c #90755B",
";~	c #A69069",
">~	c #ADA075",
",~	c #A99B72",
"'~	c #9F8A6B",
")~	c #957E5D",
"!~	c #A28F6F",
"~~	c #A3946F",
"{~	c #A89871",
"]~	c #C0B285",
"^~	c #B49D77",
"/~	c #B1A27D",
"(~	c #AEA07B",
"_~	c #9B8567",
":~	c #9D8A6A",
"<~	c #9D9070",
"[~	c #B6A47C",
"}~	c #AEA07A",
"|~	c #B7A781",
"1~	c #AF886E",
"2~	c #AA9070",
"3~	c #AD9974",
"4~	c #937B62",
"5~	c #948061",
"6~	c #AA9976",
"7~	c #A38769",
"8~	c #B8A382",
"9~	c #B59F7D",
"0~	c #AE9E7A",
"a~	c #A2906E",
"b~	c #8D765C",
"c~	c #A6926E",
"d~	c #A28F6E",
"e~	c #937D5E",
"f~	c #B09B75",
"g~	c #B09A74",
"h~	c #AFA37F",
"i~	c #B09A79",
"j~	c #8A634C",
"k~	c #9C7650",
"l~	c #8C6647",
"m~	c #9D7B56",
"n~	c #9D7655",
"o~	c #805F42",
"p~	c #7D5E41",
"q~	c #946E4F",
"r~	c #8F694C",
"s~	c #926D4C",
"t~	c #88694C",
"u~	c #8C674B",
"v~	c #B39678",
"w~	c #AB8C71",
"x~	c #664A37",
"y~	c #6B4E38",
"z~	c #816349",
"A~	c #8B6A4C",
"B~	c #836243",
"C~	c #856249",
"D~	c #795440",
"E~	c #604436",
"F~	c #815B47",
"G~	c #84624B",
"H~	c #947552",
"I~	c #927A53",
"J~	c #8F6D4C",
"K~	c #845F47",
"L~	c #836047",
"M~	c #816143",
"N~	c #9D7A55",
"O~	c #906D50",
"P~	c #916B4B",
"Q~	c #8B6246",
"R~	c #8F6B50",
"S~	c #88634D",
"T~	c #8B614D",
"U~	c #987457",
"V~	c #9B7657",
"W~	c #966D54",
"X~	c #8F684C",
"Y~	c #7E5844",
"Z~	c #6C4D3C",
"`~	c #967051",
" {	c #9B7353",
".{	c #947151",
"+{	c #8A6449",
"@{	c #A08362",
"#{	c #A58A67",
"${	c #7A563D",
"%{	c #7A543C",
"&{	c #94694C",
"*{	c #9D7353",
"={	c #977052",
"-{	c #92694E",
";{	c #977255",
">{	c #9A7456",
",{	c #875D45",
"'{	c #966950",
"){	c #845E49",
"!{	c #8C5B45",
"~{	c #946A4B",
"{{	c #9B7450",
"]{	c #8F5E44",
"^{	c #805541",
"/{	c #825541",
"({	c #6F4B36",
"_{	c #77553C",
":{	c #7C523D",
"<{	c #AD916F",
"[{	c #7A573D",
"}{	c #835236",
"|{	c #5E3A30",
"1{	c #5C3B2F",
"2{	c #895F46",
"3{	c #8A6444",
"4{	c #875E43",
"5{	c #866343",
"6{	c #81563F",
"7{	c #8E6245",
"8{	c #8D6647",
"9{	c #946248",
"0{	c #916348",
"a{	c #8D6149",
"b{	c #8E5C47",
"c{	c #835845",
"d{	c #94694F",
"e{	c #90674E",
"f{	c #97654D",
"g{	c #835644",
"h{	c #784E3C",
"i{	c #8B6044",
"j{	c #9C7B54",
"k{	c #93694A",
"l{	c #967250",
"m{	c #9E7251",
"n{	c #8E6346",
"o{	c #9E8C6A",
"p{	c #B5A37A",
"q{	c #69442C",
"r{	c #7A4E3A",
"s{	c #976C4C",
"t{	c #8A6248",
"u{	c #7D543F",
"v{	c #94644A",
"w{	c #895843",
"x{	c #7D503E",
"y{	c #865740",
"z{	c #87553D",
"A{	c #936146",
"B{	c #81543E",
"C{	c #704A36",
"D{	c #905D45",
"E{	c #734935",
"F{	c #5A3929",
"G{	c #AF9472",
"H{	c #AB926E",
"I{	c #8F5F42",
"J{	c #8D5B40",
"K{	c #7C4938",
"L{	c #563B2E",
"M{	c #5D3B2E",
"N{	c #6A3E30",
"O{	c #6F4435",
"P{	c #7C4B37",
"Q{	c #714735",
"R{	c #805239",
"S{	c #764E36",
"T{	c #7A4A35",
"U{	c #7D503B",
"V{	c #634636",
"W{	c #895C42",
"X{	c #744E37",
"Y{	c #744636",
"Z{	c #774C3A",
"`{	c #8E6148",
" ]	c #7A523F",
".]	c #794C38",
"+]	c #7D4E39",
"@]	c #7F5640",
"#]	c #815740",
"$]	c #885F43",
"%]	c #8C6446",
"&]	c #8D6548",
"*]	c #B9A77E",
"=]	c #C2B084",
"-]	c #784632",
";]	c #683E2E",
">]	c #85513C",
",]	c #87523C",
"']	c #744B37",
")]	c #89553F",
"!]	c #785139",
"~]	c #85523D",
"{]	c #7D4F3C",
"]]	c #6E4333",
"^]	c #885C40",
"/]	c #794D38",
"(]	c #85503F",
"_]	c #895842",
":]	c #835740",
"<]	c #7E4F3C",
"[]	c #85543F",
"}]	c #8D6247",
"|]	c #865440",
"1]	c #603B2E",
"2]	c #A58A6A",
"3]	c #988867",
"4]	c #845640",
"5]	c #694035",
"6]	c #56372D",
"7]	c #5B3B30",
"8]	c #623F31",
"9]	c #673F2F",
"0]	c #98694A",
"a]	c #87573E",
"b]	c #7C4F38",
"c]	c #82533C",
"d]	c #83553D",
"e]	c #80543D",
"f]	c #7A503B",
"g]	c #784A38",
"h]	c #714A36",
"i]	c #845842",
"j]	c #875B43",
"k]	c #7A513B",
"l]	c #9A6C4F",
"m]	c #996B4C",
"n]	c #7F543C",
"o]	c #653D2D",
"p]	c #794D3D",
"q]	c #754A3A",
"r]	c #774E3A",
"s]	c #825840",
"t]	c #AC9975",
"u]	c #7D4932",
"v]	c #7D4936",
"w]	c #8D5842",
"x]	c #895340",
"y]	c #8F5942",
"z]	c #916546",
"A]	c #895F44",
"B]	c #714D39",
"C]	c #764937",
"D]	c #89563F",
"E]	c #946947",
"F]	c #956248",
"G]	c #86533F",
"H]	c #754937",
"I]	c #7D4D3B",
"J]	c #754936",
"K]	c #6B4033",
"L]	c #64382D",
"M]	c #5A3127",
"N]	c #A1916E",
"O]	c #968161",
"P]	c #714632",
"Q]	c #5D3C2C",
"R]	c #5F382D",
"S]	c #57362C",
"T]	c #674033",
"U]	c #653F32",
"V]	c #5B382B",
"W]	c #6F4D38",
"X]	c #774D36",
"Y]	c #926445",
"Z]	c #7F553B",
"`]	c #80533A",
" ^	c #7A5239",
".^	c #744E36",
"+^	c #6F4634",
"@^	c #80513E",
"#^	c #6C4635",
"$^	c #81513B",
"%^	c #8B6146",
"&^	c #744532",
"*^	c #825C41",
"=^	c #7E4D39",
"-^	c #744F39",
";^	c #BCAD81",
">^	c #BBAE81",
",^	c #734433",
"'^	c #865F40",
")^	c #754D39",
"!^	c #895E42",
"~^	c #624232",
"{^	c #6B4934",
"]^	c #784734",
"^^	c #84563C",
"/^	c #86533E",
"(^	c #7B4935",
"_^	c #895640",
":^	c #684131",
"<^	c #71473A",
"[^	c #8A5442",
"}^	c #AE9D74",
"|^	c #A3926F",
"1^	c #66402F",
"2^	c #85543D",
"3^	c #895641",
"4^	c #604030",
"5^	c #7F573C",
"6^	c #886242",
"7^	c #8B6142",
"8^	c #764633",
"9^	c #764732",
"0^	c #6A4830",
"a^	c #80573F",
"b^	c #81523B",
"c^	c #8B583F",
"d^	c #8F5E43",
"e^	c #8B5E45",
"f^	c #6F402F",
"g^	c #7F513A",
"h^	c #7D563B",
"i^	c #825A3E",
"j^	c #84573D",
"k^	c #80543B",
"l^	c #744A34",
"m^	c #81533A",
"n^	c #81543C",
"o^	c #B6AD82",
"p^	c #6B3F31",
"q^	c #744937",
"r^	c #6F4836",
"s^	c #704636",
"t^	c #6F4733",
"u^	c #8B6444",
"v^	c #6A4A33",
"w^	c #85553D",
"x^	c #784836",
"y^	c #744433",
"z^	c #88563B",
"A^	c #8D5B42",
"B^	c #704B39",
"C^	c #734637",
"D^	c #61372D",
"E^	c #6A4434",
"F^	c #764335",
"G^	c #8B6343",
"H^	c #99714C",
"I^	c #AE9472",
"J^	c #A89371",
"K^	c #5B392E",
"L^	c #603B2C",
"M^	c #62422E",
"N^	c #8D6143",
"O^	c #7B5038",
"P^	c #6D4331",
"Q^	c #603F2D",
"R^	c #67422F",
"S^	c #714E37",
"T^	c #663D2E",
"U^	c #462A22",
"V^	c #69412F",
"W^	c #8B6144",
"X^	c #7E533B",
"Y^	c #8A6342",
"Z^	c #99714B",
"`^	c #855A3E",
" /	c #8B5D42",
"./	c #6E4833",
"+/	c #6B3F2F",
"@/	c #724432",
"#/	c #B7A67F",
"$/	c #AC9878",
"%/	c #693D32",
"&/	c #885642",
"*/	c #8A5F45",
"=/	c #7E5139",
"-/	c #6C4535",
";/	c #886442",
">/	c #906544",
",/	c #8D5D41",
"'/	c #754536",
")/	c #7F4E3A",
"!/	c #8A6046",
"~/	c #7F5840",
"{/	c #774636",
"]/	c #6A4636",
"^/	c #6F4334",
"//	c #7C553B",
"(/	c #7E5639",
"_/	c #AF9B77",
":/	c #8A7A61",
"</	c #704A38",
"[/	c #714834",
"}/	c #916747",
"|/	c #8E6442",
"1/	c #784D35",
"2/	c #774734",
"3/	c #633B2B",
"4/	c #593429",
"5/	c #553729",
"6/	c #61392D",
"7/	c #62392B",
"8/	c #7E543D",
"9/	c #5D3B29",
"0/	c #8C6343",
"a/	c #7A5138",
"b/	c #745139",
"c/	c #704934",
"d/	c #6B4030",
"e/	c #643F2E",
"f/	c #583428",
"g/	c #A89775",
"h/	c #A68E6F",
"i/	c #4D2D23",
"j/	c #80523E",
"k/	c #6F4735",
"l/	c #825B41",
"m/	c #7A583B",
"n/	c #7C563A",
"o/	c #A27952",
"p/	c #814E39",
"q/	c #7F4E3B",
"r/	c #946448",
"s/	c #855540",
"t/	c #885C43",
"u/	c #794B39",
"v/	c #744737",
"w/	c #664233",
"x/	c #6E4D36",
"y/	c #6D4631",
"z/	c #B3A17E",
"A/	c #AD9B7C",
"B/	c #825540",
"C/	c #7D573E",
"D/	c #734D39",
"E/	c #8A5D42",
"F/	c #976A4A",
"G/	c #83523D",
"H/	c #7B4A38",
"I/	c #7F4E39",
"J/	c #502F25",
"K/	c #563428",
"L/	c #4A2D23",
"M/	c #774D3B",
"N/	c #84513D",
"O/	c #916E49",
"P/	c #613C2E",
"Q/	c #8C6546",
"R/	c #674231",
"S/	c #694130",
"T/	c #6B3D2E",
"U/	c #5E382A",
"V/	c #5B392B",
"W/	c #6C4031",
"X/	c #63382B",
"Y/	c #663B2D",
"Z/	c #A89474",
"`/	c #9C8568",
" (	c #643A2B",
".(	c #906E48",
"+(	c #8B5942",
"@(	c #7F5D3F",
"#(	c #795139",
"$(	c #693E2F",
"%(	c #8B573E",
"&(	c #8D5C41",
"*(	c #714332",
"=(	c #573425",
"-(	c #794838",
";(	c #653A2B",
">(	c #AA9270",
",(	c #998466",
"'(	c #835941",
")(	c #896643",
"!(	c #583828",
"~(	c #7F513E",
"{(	c #754938",
"](	c #6F4333",
"^(	c #573629",
"/(	c #613629",
"((	c #673F30",
"_(	c #523225",
":(	c #6E4234",
"<(	c #875B41",
"[(	c #97674C",
"}(	c #6E4636",
"|(	c #785038",
"1(	c #7A6043",
"2(	c #856144",
"3(	c #7A543D",
"4(	c #7F563F",
"5(	c #744C38",
"6(	c #613E31",
"7(	c #784633",
"8(	c #82533E",
"9(	c #6E4330",
"0(	c #A48F72",
"a(	c #937D62",
"b(	c #79563B",
"c(	c #6D4334",
"d(	c #804A3A",
"e(	c #905E44",
"f(	c #5F3B2A",
"g(	c #653C2D",
"h(	c #6A3F2E",
"i(	c #714231",
"j(	c #9B724E",
"k(	c #97674A",
"l(	c #81533C",
"m(	c #8B5E43",
"n(	c #885640",
"o(	c #7B4735",
"p(	c #80563B",
"q(	c #8B6443",
"r(	c #A08566",
"s(	c #8D7359",
"t(	c #7B553C",
"u(	c #8C6444",
"v(	c #865645",
"w(	c #764535",
"x(	c #704334",
"y(	c #5F3C2F",
"z(	c #724F3A",
"A(	c #82543D",
"B(	c #6B4635",
"C(	c #8B5845",
"D(	c #8A5D46",
"E(	c #8A5B42",
"F(	c #7D533D",
"G(	c #93644A",
"H(	c #704838",
"I(	c #7C4E38",
"J(	c #6C4534",
"K(	c #885B3F",
"L(	c #A69B78",
"M(	c #AC9973",
"N(	c #734731",
"O(	c #78523A",
"P(	c #653E2E",
"Q(	c #7E513A",
"R(	c #83583E",
"S(	c #684332",
"T(	c #713F30",
"U(	c #693C2D",
"V(	c #866041",
"W(	c #8A5A3F",
"X(	c #8B5B43",
"Y(	c #744834",
"Z(	c #63412D",
"`(	c #936647",
" _	c #82593D",
"._	c #8B6442",
"+_	c #734631",
"@_	c #623628",
"#_	c #B19972",
"$_	c #AC9C74",
"%_	c #84573E",
"&_	c #654635",
"*_	c #714C3A",
"=_	c #7E523E",
"-_	c #714935",
";_	c #84523A",
">_	c #926245",
",_	c #936245",
"'_	c #5A3629",
")_	c #804E3B",
"!_	c #7F4D38",
"~_	c #774C36",
"{_	c #80553D",
"]_	c #83543E",
"^_	c #784E37",
"/_	c #7C4E3D",
"(_	c #754635",
"__	c #80533E",
":_	c #895C43",
"<_	c #8F5D44",
"[_	c #7E533E",
"}_	c #B09B73",
"|_	c #663B2B",
"1_	c #7E4E39",
"2_	c #663C2F",
"3_	c #5C3929",
"4_	c #6A422F",
"5_	c #825339",
"6_	c #855F3F",
"7_	c #6E4A34",
"8_	c #6F442E",
"9_	c #6E4632",
"0_	c #6D3E2F",
"a_	c #6B3D2D",
"b_	c #885740",
"c_	c #88563F",
"d_	c #81523D",
"e_	c #8E5F43",
"f_	c #704A35",
"g_	c #8C6846",
"h_	c #653C2E",
"i_	c #B7A580",
"j_	c #9E8566",
"k_	c #5D3D2C",
"l_	c #714132",
"m_	c #754231",
"n_	c #956249",
"o_	c #5F382B",
"p_	c #774837",
"q_	c #825341",
"r_	c #6D4332",
"s_	c #643C2F",
"t_	c #895941",
"u_	c #865840",
"v_	c #694231",
"w_	c #764A39",
"x_	c #7A4C37",
"y_	c #6C4531",
"z_	c #7D553C",
"A_	c #81573D",
"B_	c #79513B",
"C_	c #885D42",
"D_	c #8F6043",
"E_	c #825B3B",
"F_	c #784F37",
"G_	c #94664B",
"H_	c #714836",
"I_	c #814F3D",
"J_	c #784536",
"K_	c #BDAF86",
"L_	c #B3A17B",
"M_	c #62412F",
"N_	c #654431",
"O_	c #7A4F39",
"P_	c #8A5C41",
"Q_	c #613C2A",
"R_	c #704431",
"S_	c #4F3225",
"T_	c #88543D",
"U_	c #8A573E",
"V_	c #966449",
"W_	c #8F6A48",
"X_	c #7A4838",
"Y_	c #694133",
"Z_	c #AB9878",
"`_	c #A28B6B",
" :	c #492D20",
".:	c #85573F",
"+:	c #6C402F",
"@:	c #5C3728",
"#:	c #5E3B2D",
"$:	c #764434",
"%:	c #834F3D",
"&:	c #6B3D31",
"*:	c #643B30",
"=:	c #875441",
"-:	c #784F3D",
";:	c #6E4334",
">:	c #563429",
",:	c #774736",
"':	c #80563F",
"):	c #774838",
"!:	c #754C39",
"~:	c #7C573E",
"{:	c #896244",
"]:	c #896444",
"^:	c #865D43",
"/:	c #784A33",
"(:	c #6F4434",
"_:	c #B1A67D",
"::	c #7E553B",
"<:	c #754833",
"[:	c #5D412D",
"}:	c #663C2D",
"|:	c #6B3F2D",
"1:	c #623A2A",
"2:	c #6B4131",
"3:	c #85543A",
"4:	c #83523B",
"5:	c #67432F",
"6:	c #8D5E42",
"7:	c #6C4230",
"8:	c #6E4331",
"9:	c #815340",
"0:	c #794637",
"a:	c #B7A980",
"b:	c #5E392B",
"c:	c #5A3727",
"d:	c #5C3B2C",
"e:	c #754433",
"f:	c #553728",
"g:	c #5B3B2D",
"h:	c #58382B",
"i:	c #5B3C2D",
"j:	c #744435",
"k:	c #684232",
"l:	c #643C2C",
"m:	c #80583E",
"n:	c #886143",
"o:	c #7D5439",
"p:	c #69442E",
"q:	c #886545",
"r:	c #7D513B",
"s:	c #613B2D",
"t:	c #6D4733",
"u:	c #6D4938",
"v:	c #774A39",
"w:	c #7F4D3A",
"x:	c #82523B",
"y:	c #8C5A40",
"z:	c #BBB286",
"A:	c #C4BF8D",
"B:	c #775338",
"C:	c #875D42",
"D:	c #64422F",
"E:	c #633C2F",
"F:	c #6A4131",
"G:	c #7A4A39",
"H:	c #6B4031",
"I:	c #6D3E2E",
"J:	c #7B4E35",
"K:	c #694532",
"L:	c #754C35",
"M:	c #8A5A3E",
"N:	c #81573C",
"O:	c #734D36",
"P:	c #85583F",
"Q:	c #724331",
"R:	c #764A35",
"S:	c #64402F",
"T:	c #BCAE82",
"U:	c #AFA179",
"V:	c #5F3A2B",
"W:	c #512E23",
"X:	c #5D3528",
"Y:	c #5D3E30",
"Z:	c #654435",
"`:	c #814D39",
" <	c #79553B",
".<	c #7E5238",
"+<	c #93734A",
"@<	c #7C5A3D",
"#<	c #664832",
"$<	c #865A41",
"%<	c #8B5F45",
"&<	c #87583E",
"*<	c #764836",
"=<	c #6D4633",
"-<	c #774D39",
";<	c #9A6F4D",
"><	c #8B5E40",
",<	c #BCB385",
"'<	c #AE9F75",
")<	c #6E4E37",
"!<	c #734E3A",
"~<	c #523428",
"{<	c #683E31",
"]<	c #6E4032",
"^<	c #784837",
"/<	c #774835",
"(<	c #67402D",
"_<	c #603828",
":<	c #875A40",
"<<	c #754A35",
"[<	c #7E4D37",
"}<	c #8D6644",
"|<	c #654532",
"1<	c #6C4332",
"2<	c #734A36",
"3<	c #916A4B",
"4<	c #B9AC84",
"5<	c #A99771",
"6<	c #80503B",
"7<	c #56342A",
"8<	c #6B3F32",
"9<	c #834E3A",
"0<	c #8A5741",
"a<	c #824F3A",
"b<	c #764736",
"c<	c #804E3A",
"d<	c #634430",
"e<	c #7D4D35",
"f<	c #604330",
"g<	c #704C36",
"h<	c #623E2E",
"i<	c #6C3E2F",
"j<	c #70422F",
"k<	c #885A41",
"l<	c #744436",
"m<	c #885641",
"n<	c #80523B",
"o<	c #936B4B",
"p<	c #7E4F39",
"q<	c #A58D6C",
"r<	c #B2A37B",
"s<	c #654130",
"t<	c #5D392C",
"u<	c #683C2F",
"v<	c #58362C",
"w<	c #683F2F",
"x<	c #65412E",
"y<	c #653D2B",
"z<	c #6D402D",
"A<	c #724030",
"B<	c #725038",
"C<	c #684331",
"D<	c #5E3A2A",
"E<	c #684533",
"F<	c #684231",
"G<	c #865842",
"H<	c #A29072",
"I<	c #9C8466",
"J<	c #724534",
"K<	c #6C3F2F",
"L<	c #43271E",
"M<	c #5F392C",
"N<	c #694230",
"O<	c #6A4633",
"P<	c #85553C",
"Q<	c #734334",
"R<	c #6C4132",
"S<	c #623D2C",
"T<	c #81513A",
"U<	c #84543D",
"V<	c #774535",
"W<	c #6B422F",
"X<	c #996C4E",
"Y<	c #8A6246",
"Z<	c #9D7251",
"`<	c #9F896C",
" [	c #B5A07C",
".[	c #593C2B",
"+[	c #654032",
"@[	c #644233",
"#[	c #6D412E",
"$[	c #80593E",
"%[	c #784832",
"&[	c #81533B",
"*[	c #7D5641",
"=[	c #815843",
"-[	c #805742",
";[	c #7D543E",
">[	c #5E4634",
",[	c #664736",
"'[	c #6C4E3B",
")[	c #885E45",
"![	c #836045",
"~[	c #AA9573",
"{[	c #704E3B",
"][	c #7A513C",
"^[	c #764D3A",
"/[	c #744F3B",
"([	c #674E3B",
"_[	c #78553E",
":[	c #684C37",
"<[	c #604634",
"[[	c #533B2D",
"}[	c #654133",
"|[	c #744A3A",
"1[	c #7D5441",
"2[	c #815844",
"3[	c #815943",
"4[	c #815842",
"5[	c #79533E",
"6[	c #724A39",
"7[	c #694837",
"8[	c #6A4A38",
"9[	c #74533E",
"0[	c #7D5741",
"a[	c #8B6249",
"b[	c #876148",
"c[	c #8D694D",
"d[	c #7D5D45",
"e[	c #6C4736",
"f[	c #5C3E2F",
"g[	c #50392C",
"h[	c #734D3B",
"i[	c #A59070",
"j[	c #AC9B77",
"k[	c #543D2E",
"l[	c #634434",
"m[	c #5D4031",
"n[	c #674837",
"o[	c #805B43",
"p[	c #775840",
"q[	c #845E45",
"r[	c #654233",
"s[	c #865D45",
"t[	c #805740",
"u[	c #BAB084",
"v[	c #B8AB81",
"w[	c #BCB187",
"x[	c #B1A47C",
"y[	c #A89170",
"z[	c #B09A76",
"A[	c #9B8664",
"B[	c #A18B65",
"C[	c #B5AB7D",
"D[	c #A99E76",
"E[	c #AB9871",
"F[	c #B1A079",
"G[	c #AD9A76",
"H[	c #A78D6E",
"I[	c #B9B082",
"J[	c #A59571",
"K[	c #B1A57E",
"L[	c #A5916D",
"M[	c #9B8669",
"N[	c #B09E79",
"O[	c #B8A97E",
"P[	c #A3866A",
"Q[	c #A48A6C",
"R[	c #AB9671",
"S[	c #B5A47B",
"T[	c #AA9471",
"U[	c #AD9A73",
"V[	c #B7A67D",
"W[	c #AB9B77",
"X[	c #B19877",
"Y[	c #B39578",
"Z[	c #AFA47F",
"`[	c #B2A87F",
" }	c #B49F79",
".}	c #9B8667",
"+}	c #AB9372",
"@}	c #AD9D7A",
"#}	c #B29978",
"$}	c #A69372",
"%}	c #AFA079",
"&}	c #AA9772",
"*}	c #BCB288",
"=}	c #B6A07E",
"-}	c #A59175",
";}	c #B8A57E",
">}	c #B9AE81",
",}	c #B29B73",
"'}	c #B3A278",
")}	c #AD956F",
"!}	c #A07F62",
"~}	c #A5906D",
"{}	c #AE926E",
"]}	c #A68C6A",
"^}	c #B8B182",
"/}	c #BDB485",
"(}	c #AEA279",
"_}	c #B6B186",
":}	c #C3B588",
"<}	c #BAAB85",
"[}	c #AA9773",
"}}	c #B2A07B",
"|}	c #AC9575",
"1}	c #B9A27E",
"2}	c #A99170",
"3}	c #B9AF85",
"4}	c #AB9673",
"5}	c #A69A70",
"6}	c #AE9D73",
"7}	c #B5A17B",
"8}	c #B6A07A",
"9}	c #9F8366",
"0}	c #B6A17F",
"a}	c #B39978",
"b}	c #BAA47D",
"c}	c #B0A37E",
"d}	c #AC9C78",
"e}	c #A68A6E",
"f}	c #B8A17E",
"g}	c #B69878",
"h}	c #B49876",
"i}	c #A78365",
"j}	c #AE8D6D",
"k}	c #AE9B77",
"l}	c #AF9977",
"m}	c #AF9876",
"n}	c #B8AC81",
"o}	c #B4AC81",
"p}	c #A79774",
"q}	c #B8A980",
"r}	c #B7A27D",
"s}	c #B7A885",
"t}	c #BFAF85",
"u}	c #B1A57B",
"v}	c #AC9674",
"w}	c #AEA17E",
"x}	c #AF9C7A",
"y}	c #ABA17D",
"z}	c #B4A87D",
"A}	c #AA9B77",
"B}	c #BFB388",
"C}	c #C4B18D",
"D}	c #B09778",
"E}	c #B4AB83",
"F}	c #A89674",
"G}	c #BCAE81",
"H}	c #A9916E",
"I}	c #C4B987",
"J}	c #B59E73",
"K}	c #A18867",
"L}	c #B3A178",
"M}	c #AF9C76",
"N}	c #988A68",
"O}	c #AB9D75",
"P}	c #B19875",
"Q}	c #B59C78",
"R}	c #AF997B",
"S}	c #988064",
"T}	c #AC9875",
"U}	c #976D50",
"V}	c #9D7153",
"W}	c #8B684C",
"X}	c #6D4E3C",
"Y}	c #956C4E",
"Z}	c #815940",
"`}	c #977D61",
" |	c #A18767",
".|	c #8D624B",
"+|	c #825F45",
"@|	c #8F6C50",
"#|	c #8B6449",
"$|	c #886046",
"%|	c #916950",
"&|	c #916B50",
"*|	c #865D48",
"=|	c #815A45",
"-|	c #805A43",
";|	c #835A42",
">|	c #7B5942",
",|	c #7F5B46",
"'|	c #90644A",
")|	c #72513D",
"!|	c #8F624C",
"~|	c #9F7555",
"{|	c #956D50",
"]|	c #885F49",
"^|	c #70503E",
"/|	c #8F694B",
"(|	c #8E664B",
"_|	c #845D45",
":|	c #805B3E",
"<|	c #A29270",
"[|	c #A69B75",
"}|	c #7C5B3F",
"||	c #956950",
"1|	c #91674E",
"2|	c #946D50",
"3|	c #936D4B",
"4|	c #966E4E",
"5|	c #926F50",
"6|	c #997052",
"7|	c #9A6F52",
"8|	c #876049",
"9|	c #805B41",
"0|	c #8A6A4B",
"a|	c #8F6B4D",
"b|	c #8F634A",
"c|	c #855F47",
"d|	c #835E48",
"e|	c #896049",
"f|	c #845B48",
"g|	c #825943",
"h|	c #9B6E50",
"i|	c #885F46",
"j|	c #5C3726",
"k|	c #8B5842",
"l|	c #8A5A42",
"m|	c #865A40",
"n|	c #8C5A42",
"o|	c #835843",
"p|	c #936149",
"q|	c #AB9874",
"r|	c #BAAE84",
"s|	c #99684D",
"t|	c #8D5D45",
"u|	c #926148",
"v|	c #825641",
"w|	c #8A5B46",
"x|	c #8C5F45",
"y|	c #845741",
"z|	c #734834",
"A|	c #80533F",
"B|	c #81533E",
"C|	c #7E4F3D",
"D|	c #774938",
"E|	c #845742",
"F|	c #905C46",
"G|	c #774C35",
"H|	c #A49871",
"I|	c #BEB886",
"J|	c #754F38",
"K|	c #814F3E",
"L|	c #78533C",
"M|	c #896043",
"N|	c #745238",
"O|	c #8C5942",
"P|	c #84523F",
"Q|	c #87533F",
"R|	c #855240",
"S|	c #9A6E4F",
"T|	c #916548",
"U|	c #946245",
"V|	c #7F4C39",
"W|	c #86543C",
"X|	c #714D36",
"Y|	c #6C4935",
"Z|	c #7D5038",
"`|	c #A49674",
" 1	c #AC9B75",
".1	c #95694D",
"+1	c #8D5F45",
"@1	c #5F3D2C",
"#1	c #7C4E37",
"$1	c #533426",
"%1	c #5C3629",
"&1	c #683E2F",
"*1	c #7C4937",
"=1	c #784B39",
"-1	c #7C5441",
";1	c #5E3D2E",
">1	c #87563D",
",1	c #ADA179",
"'1	c #B2A97F",
")1	c #714E39",
"!1	c #7B513C",
"~1	c #613E2A",
"{1	c #64432F",
"]1	c #513425",
"^1	c #5C3A2C",
"/1	c #754837",
"(1	c #744634",
"_1	c #916044",
":1	c #81553C",
"<1	c #784D39",
"[1	c #6C4432",
"}1	c #7A4934",
"|1	c #734B37",
"11	c #8A5B3F",
"21	c #7D573D",
"31	c #855F41",
"41	c #66462F",
"51	c #7F523C",
"61	c #B1A37C",
"71	c #7E533D",
"81	c #9C7452",
"91	c #815541",
"01	c #9B6D4E",
"a1	c #8E6246",
"b1	c #926346",
"c1	c #4E3326",
"d1	c #58382A",
"e1	c #744838",
"f1	c #734F3A",
"g1	c #85513F",
"h1	c #8C5842",
"i1	c #B09F77",
"j1	c #A19571",
"k1	c #7B543C",
"l1	c #86543E",
"m1	c #744D3B",
"n1	c #62402F",
"o1	c #633D2E",
"p1	c #644331",
"q1	c #6D4A36",
"r1	c #5B3B2B",
"s1	c #78503B",
"t1	c #87543C",
"u1	c #643E2F",
"v1	c #87543F",
"w1	c #7F4B38",
"x1	c #804C37",
"y1	c #7A4E38",
"z1	c #83543A",
"A1	c #8D5D40",
"B1	c #6B3C2D",
"C1	c #AEA17D",
"D1	c #B09F79",
"E1	c #6E3E30",
"F1	c #6A4330",
"G1	c #764F38",
"H1	c #8C6747",
"I1	c #7A523B",
"J1	c #764735",
"K1	c #694531",
"L1	c #84563D",
"M1	c #87563E",
"N1	c #613F2D",
"O1	c #5B3F2B",
"P1	c #613A2B",
"Q1	c #794938",
"R1	c #825B40",
"S1	c #715239",
"T1	c #76503C",
"U1	c #8B5A40",
"V1	c #7E4B38",
"W1	c #714133",
"X1	c #623C2B",
"Y1	c #A78B6D",
"Z1	c #BBAA80",
"`1	c #5F392B",
" 2	c #693F31",
".2	c #6C4434",
"+2	c #916449",
"@2	c #734732",
"#2	c #633A2A",
"$2	c #704230",
"%2	c #6C4431",
"&2	c #6E4430",
"*2	c #6B4333",
"=2	c #543428",
"-2	c #42261E",
";2	c #462C21",
">2	c #683B2F",
",2	c #643F2D",
"'2	c #694330",
")2	c #693C2E",
"!2	c #7F553A",
"~2	c #593A27",
"{2	c #533627",
"]2	c #553325",
"^2	c #5E3A2B",
"/2	c #BEB387",
"(2	c #5E392E",
"_2	c #865B42",
":2	c #633E2F",
"<2	c #57372A",
"[2	c #674230",
"}2	c #503427",
"|2	c #5F452F",
"12	c #694833",
"22	c #7B513B",
"32	c #754F37",
"42	c #7E5C3F",
"52	c #724635",
"62	c #5B3729",
"72	c #5A3626",
"82	c #A98B6E",
"92	c #AD8D6F",
"02	c #5A382D",
"a2	c #6F4935",
"b2	c #7B553A",
"c2	c #7E5A3C",
"d2	c #865D41",
"e2	c #7F4B36",
"f2	c #683C2D",
"g2	c #573628",
"h2	c #553829",
"i2	c #503023",
"j2	c #47291E",
"k2	c #4F3227",
"l2	c #714C33",
"m2	c #764F34",
"n2	c #493224",
"o2	c #502E23",
"p2	c #5D3729",
"q2	c #B09E78",
"r2	c #AE9C79",
"s2	c #5C3528",
"t2	c #6B4835",
"u2	c #774A38",
"v2	c #7C4D39",
"w2	c #754633",
"x2	c #563829",
"y2	c #78513A",
"z2	c #784D37",
"A2	c #69462F",
"B2	c #60402D",
"C2	c #8C6346",
"D2	c #643D2F",
"E2	c #553528",
"F2	c #623F2D",
"G2	c #9D8C6B",
"H2	c #9E8C69",
"I2	c #543728",
"J2	c #654232",
"K2	c #764838",
"L2	c #754E36",
"M2	c #866042",
"N2	c #8C6043",
"O2	c #744832",
"P2	c #683C2E",
"Q2	c #503025",
"R2	c #7B4A37",
"S2	c #7B4C36",
"T2	c #6D4833",
"U2	c #623629",
"V2	c #62382A",
"W2	c #68402C",
"X2	c #6D412D",
"Y2	c #6F4531",
"Z2	c #69482E",
"`2	c #7B5337",
" 3	c #6A472F",
".3	c #482D20",
"+3	c #583B2A",
"@3	c #66442F",
"#3	c #7A4C36",
"$3	c #503024",
"%3	c #AD9571",
"&3	c #5E3628",
"*3	c #623E2F",
"=3	c #764938",
"-3	c #6A4534",
";3	c #7B553D",
">3	c #68432E",
",3	c #6D4934",
"'3	c #764935",
")3	c #88583F",
"!3	c #82583F",
"~3	c #6E4232",
"{3	c #513125",
"]3	c #6D4333",
"^3	c #6A412F",
"/3	c #9A8665",
"(3	c #A3936C",
"_3	c #62422F",
":3	c #704E35",
"<3	c #916445",
"[3	c #764834",
"}3	c #633E2C",
"|3	c #5C362B",
"13	c #5B372B",
"23	c #774633",
"33	c #754D37",
"43	c #825239",
"53	c #5E392A",
"63	c #6B4330",
"73	c #744631",
"83	c #4F3124",
"93	c #755136",
"03	c #67412C",
"a3	c #613A27",
"b3	c #683F2D",
"c3	c #633C2C",
"d3	c #815138",
"e3	c #764A33",
"f3	c #532D21",
"g3	c #A88E6D",
"h3	c #B09572",
"i3	c #60392D",
"j3	c #7A4938",
"k3	c #916344",
"l3	c #754E35",
"m3	c #6F4B35",
"n3	c #804E39",
"o3	c #6C4331",
"p3	c #784733",
"q3	c #6D3F2E",
"r3	c #7B4C39",
"s3	c #744A36",
"t3	c #693F32",
"u3	c #6B3C2F",
"v3	c #7D523A",
"w3	c #917C61",
"x3	c #948263",
"y3	c #795339",
"z3	c #916545",
"A3	c #764734",
"B3	c #614131",
"C3	c #7A4B37",
"D3	c #6A3D2F",
"E3	c #63382C",
"F3	c #643B2C",
"G3	c #6F3F30",
"H3	c #4E2D23",
"I3	c #704331",
"J3	c #724530",
"K3	c #714A33",
"L3	c #744C34",
"M3	c #704630",
"N3	c #71442F",
"O3	c #6F4331",
"P3	c #734431",
"Q3	c #673D2C",
"R3	c #4B2B1F",
"S3	c #B59377",
"T3	c #AC8C72",
"U3	c #48261F",
"V3	c #6F4433",
"W3	c #7A5438",
"X3	c #603C2B",
"Y3	c #563626",
"Z3	c #6E4933",
"`3	c #7D4A35",
" 4	c #825039",
".4	c #663E2F",
"+4	c #865943",
"@4	c #653F31",
"#4	c #907C62",
"$4	c #AA9676",
"%4	c #472B20",
"&4	c #694732",
"*4	c #8E5B43",
"=4	c #6F4939",
"-4	c #81503C",
";4	c #6A4532",
">4	c #60372C",
",4	c #5E3429",
"'4	c #513529",
")4	c #694333",
"!4	c #87553A",
"~4	c #885A3E",
"{4	c #63402E",
"]4	c #5E3C2A",
"^4	c #815539",
"/4	c #714833",
"(4	c #664130",
"_4	c #5B3126",
":4	c #B28E73",
"<4	c #B0947A",
"[4	c #5A3226",
"}4	c #673D2E",
"|4	c #825139",
"14	c #6B4130",
"24	c #5D3929",
"34	c #6D4832",
"44	c #623F2B",
"54	c #634431",
"64	c #734635",
"74	c #774933",
"84	c #704532",
"94	c #9D8868",
"04	c #AE9778",
"a4	c #744E39",
"b4	c #784B37",
"c4	c #724333",
"d4	c #764835",
"e4	c #66432F",
"f4	c #6F4534",
"g4	c #764A38",
"h4	c #5B342B",
"i4	c #6B3F30",
"j4	c #633D2C",
"k4	c #5A3A2A",
"l4	c #633F2E",
"m4	c #795137",
"n4	c #7D543A",
"o4	c #7B4C35",
"p4	c #664430",
"q4	c #724C36",
"r4	c #65402E",
"s4	c #78523B",
"t4	c #58352A",
"u4	c #593127",
"v4	c #A58F6C",
"w4	c #937A5C",
"x4	c #63422E",
"y4	c #513528",
"z4	c #7A5039",
"A4	c #784E36",
"B4	c #804E38",
"C4	c #533827",
"D4	c #7B4A3A",
"E4	c #563425",
"F4	c #96684A",
"G4	c #996F4C",
"H4	c #7B4B35",
"I4	c #663E2E",
"J4	c #AA926F",
"K4	c #B99E7B",
"L4	c #764631",
"M4	c #804E37",
"N4	c #573428",
"O4	c #6C4733",
"P4	c #744C37",
"Q4	c #754F39",
"R4	c #704834",
"S4	c #7C523B",
"T4	c #80553B",
"U4	c #623F2E",
"V4	c #472E21",
"W4	c #6F4131",
"X4	c #714633",
"Y4	c #663E2D",
"Z4	c #59422C",
"`4	c #6B4B37",
" 5	c #7E563B",
".5	c #4C3124",
"+5	c #734734",
"@5	c #643C2D",
"#5	c #653C31",
"$5	c #533028",
"%5	c #522C22",
"&5	c #A4846A",
"*5	c #A3896C",
"=5	c #4E3626",
"-5	c #563A2A",
";5	c #714130",
">5	c #633B2C",
",5	c #623C2E",
"'5	c #895B40",
")5	c #533526",
"!5	c #7C5139",
"~5	c #774534",
"{5	c #B19876",
"]5	c #AD9574",
"^5	c #68432F",
"/5	c #493325",
"(5	c #83503C",
"_5	c #6A4231",
":5	c #683D2D",
"<5	c #59382A",
"[5	c #5B3E2D",
"}5	c #654731",
"|5	c #68412D",
"15	c #5A3E2A",
"25	c #66412F",
"35	c #704A39",
"45	c #654333",
"55	c #7D523E",
"65	c #583A2D",
"75	c #4C372B",
"85	c #5C3D30",
"95	c #5B3D31",
"05	c #A78468",
"a5	c #9C7F63",
"b5	c #5D3C2F",
"c5	c #583E2F",
"d5	c #5E4331",
"e5	c #5F3E2E",
"f5	c #684031",
"g5	c #6F4636",
"h5	c #6B4E39",
"i5	c #634935",
"j5	c #79503B",
"k5	c #8B6147",
"l5	c #895B44",
"m5	c #694937",
"n5	c #7F5740",
"o5	c #734E3C",
"p5	c #6C4837",
"q5	c #835B42",
"r5	c #74543D",
"s5	c #714D3A",
"t5	c #8E6249",
"u5	c #B4A57F",
"v5	c #AB9C78",
"w5	c #6C4A37",
"x5	c #6D4A38",
"y5	c #90654D",
"z5	c #946C4F",
"A5	c #7D5541",
"B5	c #634334",
"C5	c #6A4735",
"D5	c #734F3C",
"E5	c #623F32",
"F5	c #6E4B3A",
"G5	c #6C4A38",
"H5	c #674B38",
"I5	c #765541",
"J5	c #70503B",
"K5	c #785A3F",
"L5	c #78543E",
"M5	c #694B37",
"N5	c #624534",
"O5	c #5B4132",
"P5	c #5B4332",
"Q5	c #5F4132",
"  . + @ # $ % & * = - ; > , ' ) ! ~ { ] ^ / ( _ : < [ } | 1 2 3 4 5 6 7 8 9 0 a b c d e f g h i j k l m n o p q r s t u v w x y ",
"z A B C D E F G H I J K L M N O P Q R S T U V W X Y Z `  ...+.@.#.$.%.&.*.=.-.;.>.,.'.).!.~.{.].^./.(._.:.<.[.}.|.1.2.3.4.5.6.7.",
"8.9.0.a.b.c.d.e.f.g.h.i.j.k.l.m.n.o.p.q.r.s.t.u.v.w.x.y.z.A.B.C.D.E.F.G.H.I.J.K.L.M.N.O.P.Q.R.S.T.U.V.W.X.Y.Z.`. +K..+++@+#+$+%+",
"&+*+=+-+;+>+,+'+)+!+~+{+]+^+/+(+_+:+<+[+}+|+1+2+3+4+5+6+7+8+9+0+a+b+c+d+e+f+g+h+i+j+k+l+m+-+n+o+p+q+r+s+t+u+v+w+x+y+z+A+B+C+D+E+",
"F+G+H+I+J+K+L+M+N+O+]+P+Q+R+S+T+U+V+W+X+Y+Z+`+ @.@+@@@#@$@%@&@*@=@-@;@>@,@  '@)@!@~@{@]@^@/@(@_@:@<@[@}@|@1@2@3@4@5@6@7@8@9@0@a@",
"b@c@d@e@f@g@h@i@j@k@l@m@n@o@p@q@r@s@t@u@v@w@x@y@z@A@B@C@D@E@F@G@H@I@~@J@K@L@o+M@N@O@P@Q@R@S@T@U@V@W@X@Y@Z@`@ #.#+#@###$#%#&#*#=#",
"-#;#>#,#'#)#!#~#{#]#^#/#(#_#:#<#[#}#|#1#2#3#4#5#6#7#8#9#0#a#b#c#d#e#f#g#h#i#j#k#l#m#n#o#p#q#r#B+s#t#u#v#w#x#y#z#A#B#C#D#E#F#G#H#",
"I#J#K#L#M#N#O#P#Q#R#S#T#U#V#W#X#Y#b#Z#`# $1+.$+$@$#$$$%$&$*$=$Z#-$;$>$,$'$)$!$~${$]$^$/$($_$:$<$[$}$|$1$2$3$4$5$6$7$8$3$9$0$a$b$",
"c$d$e$f$g$h$i$j$k$l$m$n$Y+o$p$q$u#r$s$t$u$v$w$x$y$z$/$A$B$C$(#D$E$F$G$H$I$J$K$L$M$N$z#O$P$Q$R$S$T$U$V$T#W$X$Y$Z$`$ %.%+%@%#%i@$%",
"%%&%*%=%-%;%>%,%'%)%!%~%{%]%^%/%(%_%:%/#}@<%[%}%|%1%2%3%4%5%6%7%b#8%9%0%a%b%c%d%e%f%g%h%i%j%k%l%m%n%Z#o%p%q%r%s%t%u%}#v%w%^@x%y%",
"z%A%B%C%D%o%E%F%G%H%7$I%J%K%Y@L%M%N%O%P%Q%j+R%S%T%U%V%W%X%Y%Z%j%`% &.&+&@&#&$&%&&&*&=&-&;&>&,&'&)&!&D%~&{&]&^&%%/&(&_&:&<&1@[&}&",
"|&1&2&3&4&5&A%6&7&8&w%9&0&a&b&c&d&e&f&g&h&i&j&k&l&m&n&o&p&q&r&s&t&u&v&w&x&y&z&A&B&C&D&E&F&G&f%H&Y#I&3$J&K&s&L&M&N&O&P&Q&R&I@S&T&",
"U&5@V&W&X&<@Y&Z&`& *.*+*`@@*#*$*%%%*&***=*-*;*>*,*t#m$'*)*!*~*{*]*^*/*(*_*:*<*[*<#}*|*1*2*3*.$4*5*6*7*8*9*0*a*b*c*d*e*f*g*h*i*j*",
"T#k*l*m*n*o*p*q*r*s*t*u*v*9#w*G%x*y*z*A*B*C*D*E*F*G*H*x+t%I*J*K*L*M*N*O*P*Q*R*S*T*U*V*W*X*|#Y*Z*`* =.=+=(%@=#=$=|#%=&=*===-=z$;=",
">=,='=)=!=C@~={=]=^=/=(=_=:=<=[=}=|=1=2=3=.$4=5=F@6=7=8=9=0=a=b=c=d=e=f=g=h=i=j=k=l=m=n=o=i*p=q=r=s=t=u=V@]%v=I&w=x=y=z=O%e#A=B=",
"B$C=D=E=F=G=H=I=J=K=L=+$A%]*M=N=O=P=Q=R=I&S=T=U=V=W=X==$Y=Z=`= -.-+-`%@-#-$-%-O#&-*-=---M#;->-,-'-)-^@t@/@!-E*(=~-{-]-7$^-{*/- *",
"(-_-:-<-[-}-|-1-2-3-4-5-u&6-n%7-8-9-j+0-a-a-b-c-V=d-y#e-f-u$g-C+h-i-S+j-k-l-m-n-o-p-q-r-s-t-u-v-w-l$x-y-z-A-B-C-D-%%E-F-G-H-r.I-",
"J-K-L-M-N-O-P-Q-R-S-T- $U-6$V-W-X-Y-Z-`- ;L+.;+;m$@;#;$;%;&;*;=;-;t$g&;;>;,;';*#);!;~;{;];7$^;/;(;_;:;<;9*[;K=};|;1;2;3;x+4;5;6;",
"7;(-8;9;0;a;b;c;d;n%e;f;g;h;i;G@j;k;l;m;n;o;p;q;r;s;t;u;v;w;c@x;u$y;z;A;].@&B;N=C;1&D;u#E;F;G;[%H;I;J;K;n%B;L; *M;N;O;P;Q;R;S;!@",
"T;U;V;W;X;Y;Z;`; >.>+>@>#>$>%>s&{;&>j;w%*>}==>->/#;>!->>,>'>)>!>~>{>##]>^>/>(>_>:><>[>}>|>$#1>k%2>u#A=3>4>5>6>7>8>9>0>a>b>c>d>J-",
"w@A+e>f>g>h>i>j>k>l>H+m>n>o>p>q>r>s>t>u>v>w>x>a-y>7#7#z>A>B>C>D>E>F>G>]>H>I>J>L;b&K>A&L>M>N>O>@@X-y@P>Q>R>7+S>T>U>0>V>W>X>Y>Z><>",
"`> ,.,B>+,@,#,I%$,%,9-o%&,*,=,-,;,>,6+,,',),!,$;~,{,],^,/,(,_,t&:,<,[,},|,1,2,3,7#4,5,(&6,G*7,8,9,0,X.a,_&b,c,d,e,B$+;f;f,g,h,i,",
"j,k,l,m,G@n,o,p,q,r,s,t,w+u,v,B%w,C=x,y,z,A,B,C,T=W-D,:-B+E,3@F,G,H,I,I&J,K,L,M,N,O,v=P,|$N@G=Q,R,S,T,U,^&V,W,X,Y,Z,`, '.'z++'@'",
"#'$'K=%'&'*'='-';'>'v>s&,''')'!'~'H#{']'^'q$/*/'('`%!$c;Z@_':'<'['}'|'$=1'2'3'4'5'6'I-P-7'8'9'0'a'b'c'f%d'e'f'g'h'i'j'k'l'o@m'L-",
"n'o'Z@p'q'r'b,s't'u'v'w'x'y'B>z'A'B';-C'D't>E'F'A*G'H')&I'J'K'L'M'N'O'P'Q'R'S'T'U'V'W'X'Y'Z'`' ) ,.)+)@)#)@'$)%)&)*)=)+%(>@)-);)",
">)n=,)!,:-&*')|*))~=6+!)#;~)>@p*a*N@!>{)n&])^)/)%&()I;6+_):)<)[)]*})|)1)2)3)4)5)6)7>W>7)8)9)0)a)b)c)d)e)f)g)h)a)i)j)k)l)m)S$n)>)",
"{'o)p)q)r)%;s)t)u)v)w)t)x)y)z)A)B)C)D)E)F)G)H)I)J)K)L)M)N)O)z@M)P)Q)R)S)T)| U)V)g.W)X)Y)Z)`) !.!+!@!#!$!%!&!*!Y-=!-!;!>!M+,!'!)!",
"!!~!{!]!^!/!(!_!:!<![!}!|!1!2!3!4!5!6!7!8!9!0!a!b!c!d!e!f!g!h!i!j!k!l!m!n!o!p!q!r!s!t!u!v!w!x!y!z!A!Q*4 B!C!D!E!F!G!H!I!J!K!L!M!",
"N!O!P!Q!R!S!T!U!V!W!X!Y!Z!`! ~.~+~@~#~$~%~&~*~=~-~;~>~,~Z!'~)~!~~~{~]~^~/~(~_~:~<~[~}~|~1~2~3~4~5~6~7~8~9~0~a~b~J c~d~e~f~g~h~i~",
"j~k~l~m~n~o~p~q~r~s~t~u~.+v~w~x~y~z~A~B~C~D~E~F~G~H~I~J~K~H)L~M~N~O~P~Q~R~S~T~U~V~W~X~Y~Z~r~`~ {.{+{@{#{${%{R,&{*{={-{;{>{,{'{){",
"!{~{{{g;]{^{)!b;/{({@,_{:{{.<{V&)'[%[{}{]=|{1{%;2{%!3{4{5{6{h&7{k'8{9{0{a{b{c{d{e{f{g{h{i{j{k{l{m{n{o{p{q{E=r{&&M%s{t{u{v{w{/+m&",
"x{y{~'B;z{A{.;B{s;C{D{E{F{G{H{K=I{J{K{L{M{N{O{P{u>Q{R{S{#>T{U{V{W{X{~=Y{P,Z{`{ ].]+]@]#]$]%]&]$' ]g$*]=]-];]>],]'])]!]Z>#%~]{]]]",
"k#U{^]/](]_]:]<][]}]|]&'1]2]3].>|'4]5]6]7]8]9]#>0]a]b]c]`&d]e]f]g]v@B&t$x$h]i]j]k]D*l]m]n]o]p]q]r]s]t]*]u]v]w]x]y]z]A]B]C]B,D]e#",
"7$',E]F]G]H]4]I]J]N-K]L]M]N]O]P]Q]R]S]T]U]V]W]X]Y]Z]T;`] ^.^i$I@+^@^#^{)0$f$$^[=%^&^y{*^r'{%y@=^-^/];^>^,^`]'^x;)^!^c;~^{^T-]^^^",
"/^(^j%_^$&:^<^[^S'3=I]q#A%}^|^1^_@),[>2^3^4^5^6^7^8^$$9^0^a^b^(^.&k+|'c;k>c^d^e^f^g^h^i^j^k^b^l^m^n^o^P p^q^k{)@x$r^s^t^u^v^A,w^",
"x^y^z^:-A^2=B^C^D^E^F^G^H^I^J^q>K^),L^M^N^F#O^d-o'y-P^Q^R^S^C#T^U^V^T#W^s;,,X^j+z$Y^Z^`^ /./+/Y@@/'%#/$/%/&/*/=/L&-/g&<&;/>/,/=%",
"'/t^)/D{!/~/|&{/]/^/E{//(/_/:/#=</G%[/}/|/1/i)3@2/E-3/4/5/2@]%6/7/8/h^o@9/j,0/a/b/*>c/@*q#d/2@!*e/f/g/h/i/j/e.U{k/l/m/n/o/7#p/.]",
"W'q/k#r/s/t/.@u$u/v/w/x/y/z/A/B/C/|*D/E/F/G/H/I/H;}>J/K/L/7]M/N/[&O/f&C>P/l$Q/2,X>d#R/S/T/U/V/W/X/Y/Z/`/ (.({#+(K-@(#(0$7*$(7;%(",
"j,@'&(5>/,[&/=*(J@=(-(;(a*>(,('(7+)(!(g$~({('/E=](^(/(((_(9]:(,#8/<([(}(|(1(2(3(4(s]5(6(7({=8(;(9(7#0(a(7#b(X&c(d(W>e(/@f(g(h(i(",
"G^j(k(l(m(n(%%J]o(p(q(B#6*r(s(;@t(u(@#v(:{w(x(|&B&u$E{P-P#y(^/z(A(B(C(D(E(V+6{F(r+G(H(I(c'J(K(p=Y#y*L(M(N(O(d*h)P(Q(!=R(^,S(T(U(",
"V(t#T,W(X([#Y(Z(`( _._+_@_#_$_X]%_k#h,&_*_=_-_;_>_,_1+'_)_!_~_{_`%N@]_i-^_/_(___:_<_e*'^[_V&U'N>Z%6@f }_|_1_2_3_4_5_6_7_8_9_0_a_",
"C&m@(#b_c_c_d_I-e_f_g_e]h_i_j_k_T#l_m_R/&'n_9-o_p_q_A'r_d%s_t_u_v_w_x_y_z_E/A_B_C_D_1/E_F_G_H_q>I_J_K_L_!;K&a*M_N_O_E@P_Q_R_S_X&",
"T_U_P@Y#_)o$V_&*M@Q{W_X_Y_Z_`_ :.:+:@:#:$:%:z;&:*:=:-:;:a*>:,:':):!:~:W>{:]:^:Y>f_l$/:Z'{]G_(:()_&w(_:x ::l^<:[:m%}:E/G&|:1:2:3:",
"7#z>(^4:5:6:|(->7:8:t+9:0:a:@.=$.]b:c:d:e:f:g:h:i:c-x@j:c(k:K=l:m:n:o:p:6^q:(=|@r:s:t:k=u:!#v:w:x:y:z:A:B:C:D:t%E:A'F:G:H:I:J:3:",
"K:L:M:B;N:O:P:&&Q:R:S:U#B/T:U:*#T#V:W:X:P{P/Y:Z:O'/*K{`:o' <n=.<+<@<#<$<%<a/&<W-T#*<d//#=<T,&&-<;<><,<'<)<!<~<U/Y(=,{<]<^</<(<_<",
":<<<[<}<D=f*|<w%1<Z@2<t/3<4<5<6<x^1@7<8<o_9<q/0<a<b<8%C]c<d<--e<E&f<g<h<i<9@j<G=k<M%l<m<G$n<5:j%o<p<q<r<s<5/t</&u<v<w<H&x<y<:-z<",
"$#A<3;B<C<D<--^,E<F<#><=G<H<I<f/J<K<L<7/M<N<O<P<D]k>Q<R<^@S<2<B;A+T<U<G$V< =T#W<>>),~]X<Y<Z<Y{M$B%$<`< [.[+[@[%$w%#[$[`(T#S<%[&[",
"#]*[=[-[;[>[,['[)[p.C.![!,~[y&{[][^[/[U.([_[:[<[[[}[|[1[P)L)2[I)F#3[4[5[6[7[>[8[9[0[a[b[c[d[e[f[g[h[i[j[k[l[m[n[)[o[p[q[J(r[s[t[",
"u[v[w[x[y[z[A[B[C[D[E[F[G[H[I[J[K[I<L[M[b!N[O[P[Q[R[S[T[U[V[W[X[Y[Z[`[ }.}+}@}#}$}%}&}*}=}-};}|!>},}'})}!}~}{}]}^}/}(}_}:}<}[}}}",
"|}1}2}3}U!4}f~5}6}7}8}9}0}a}b}c}d}e}8}j!f}g}h}i}j}k}l}m}n}o}p}q}r}s}t}u}v}w}x}y}z}A}B}C}D}E}F}k G}H}I}J}K}L}M}I!N}O}d P}Q}R}S}T}",
"~&'*U}V}W}X}X~Y}4;Z}`} |Q..|+|@|#|$|%|&|*|=|-|;|>|,|'|)|!|~|{|]|^|u./|(|_|:|<|[|}|9.||1|2|3|4|5|6|7|8|9|0|a|b|c|d|e|f|g|&{h|i|R;",
"j|j$k|l|m|n|o|p|o%r+q|r|s|z+t|u|f$v|w|<=x|y|<]z|A||[|@c<B|C|b#T#D|S%E|F|]=G|H|I|J|G+K|L|M|t/t#t_k(Q.u('^N|6+O|__P|Q|R|p'S|T|T|U|",
"/(a$@%V|);W|8=X|Y|Z|`| 1m|}]t%7*Y{%{.1+1C_1$@1#1s%$1%1,:`#&1u$*1a-=1-1m+;1>1,1'1)1Z*q+!16>N@)&~#=/~1T-{1]1+=^1/1(1_1b@:1>@K=<1A'",
"@:[1N@}1|11121314151h~6171+1B$81918-01__f$a1b1:_K:c1d1e1Q{f1n)g1]=y:h1[;+&^&i1j1D&k1q/_>l19*~#m1=^T,n1o1!_p1q1r1*<s1^^t1u1)*v1w1",
"x1G|y1t^S-z1u@ <A1B1C1D1E1F1G1H1-<B/I18<J1K1L1M1N1O1V/P1Q1R1S1T1E#U1V1W1m%X1Y1Z1T/)&`1 2Z@.2K>B>+2@2#2$2%2i@<1&2F&*2=2-2;2>2,2'2",
")2M;!2~2{2]2^2(:q@7//2g/(2%%[&_2:2b-`:<2k>[2n<6&/1}2|212223242~/52(>V/2@627282922$'-02{@a2b2c2d20&6+M1#$e2f28%g2h24^i2j2V:k2_#N#",
"@19&l2m2n2o2}*0&Y=p2q2r2s2t2d#u2v2<(w2F-Y@x2y2X&+^z2A2B2)@C2z$H]e,<>D2E2F2|%G2H2I2J2K27*L2$>M2N2[@O2G%!#P2Q2R2S2T2w*U2V2W2X2Y28'",
"Z2`2V% 3.3+3@3#3u*$3w %3&3g:*3=3s#I+-3;3X]>3,3>$'3c=r&)32^Y#!3/-a-~3{3]3^3u*/3(39=<>_3:3<3[3,$}3F%2#7*(:|31323334353/(<-63738393",
"03a3T*b3w#c3d3e3F<f3g3h3i3j3l(k3 >:'9#l3m3n3R2o3h*p3q3r3L1g%':s3d%t3u3O_v3m*w3x3p2T^9&y3z3A3;1B3C3D3E3F3s:M<C]<@G3H3f/I3J3l:K3L3",
"M3N3O3P3>)t%8*+'Q3R3S3T3U3V36>X|n-`@W3%$X3!]Y3}*Z3`3 4.4>-m,+4Y@I=@4G%+;+$8'#4$4%4`%&41#8**4=4-4;4>4,4%2-=)*O#'4s2&3)4C<K3!4+'~4",
"{4]4^4/4(47$Y|K'f/_4:4<4[4o=}4i(5/%[|414249&3444J%1*m+$#54$$O@E,64w%E'l374849404}:[1o3a4b4`#c4~]d4./e4]4M*f4g4h4i4j46$k4l4m4n4o4",
"p4q4@2=$r4%%s4J2t4u4v4w4S_x4y4d/z4A45&c=S<_#B4f;C4)'D4&<B>@=E4/@F4G4C@H4I4q@J4K4L4M4N4O4P4Q4R4S4T4U4V49)d>K&W4#;X4Y4d:Z4n/n$`4 5",
"z_.5^,+5x2@5h_#5$5%5&5*53@=5-59(y-S-;5>5,5U/w^'5N1)5K2e*A,/]W+!5A*/^~5B4O@y,{5]5^5==/5K:(5y2_5|'~_I::5<5P(/-P([5}5T-|515F2)'25z;",
"3545L+5565g[7585w/9505a5b5c5d5e5f5g5h5i5P=j5k5l5m5n5o5p5/[q5r5T1N+_[C;s5t5C,u5v5w535x5y5z5j]A5B5C5D5E5F5G5H5I5J5K5o[L5M5N5O5P5Q5"};
