/* XPM */
static char * Water_64x64_xpm[] = {
"64 64 4 1",
" 	c #9BF5FF",
".	c #03CEFF",
"+	c #47E4FF",
"@	c #00BAF7",
"  ..                                  ++++++++  ++  ++....  .   ",
"  ..    ..                            ++++++++  ++  ++....  ... ",
"       ...@@@@@@                 +@@@@@@@@++++++++    ....  ... ",
"      ..@@@@@@@@@@             ++@@@@@@@@@@@++++++.    ...  ..  ",
"     ..@@@@@@@@@@@@         @@..@@@@@@@@@@@@@+++++++++  ...     ",
"    ..@@@@@@@@@@@@@@      ++@@..@@@@@@@@@@@@@@+++++++@@@ ...    ",
"   ..@@@@@@@@@@@@@@@@    ++@@@@@@@@@@@@@@@@@@@@@@@@@@@@@@ ...   ",
"   .@@@@@@@@@@@@@@@@@@  +++@@@@@@@@@@@@@@@@@@@@@@@@@@@@@@@ ...  ",
"  ...@@@@@@@@@@@@@@@@@    @@@@@@@@@@@@@@@@@@@@@@@@@@@@@@@@@     ",
"  .....@@@@@@@@@@@@@..     @@@@@@@@@@@@@@@@@@@@@@@@@@@@@@@@@    ",
"  .....@@@@@@@@@@@@..      @@@@@@@@@@@@@@@@@@@@@@@@@@@@@@@@@@@++",
"  .......@@@@@@@@@..   +..  @@@@@@@@@@@@@@@@@@@@@@@@@@@@@@@@@@++",
"  .................   @@@@  @@@@@@@@@@@@@@@@@@@@@@@@@@@@@@@@@@++",
"  ................    @@@@@  .@@@@@@@@@@@@@@@@@@@@@@@@@@@@@@@+++",
"@@@@@@@@@@@......    @@@@@@   @@@@@@@@@@@@@@@@@@@@@@@@@@@@@@+++ ",
"@@@@@@@@@@@@@...   @@@@@@@@@   @@@@@@@@@@@@@@@@@@@@@@@@@@@@+++  ",
"@@@@@@@@@@@@@@..   @@@@@@@@..  @@@@++++@@@@@@@@@@@@@@@@@@@++++  ",
"@@@@@@@@@@@@@@.   @@@@@@@......  @+++++++@@@@@@@@@@@@@@@@+++++  ",
"@@@@@@@@@@@@@@.   .@@@   ......     ...++++@@@@@@@@@@@@@++.++   ",
"@@@@@@@@@@@@..      @       .....  . ...+++++@@@@@@@@@@+++.+  + ",
".....@@@@@@...         .                   +++++++++++++++++   +",
"......@@@@@.++   +.   ....                   ++++++++++++++   ++",
".......   ++    ++@@@@@@@@@@@@+++   ++++++@                  .++",
".......   +    .+@@@@@@@@@@@@@@++++++++++@@@@              ...++",
".....@..++   ..@@@@@@@@@@@@@@@@@@@@@@@..@@@@@@++..     .......++",
"....@@@.+   +.@@@@@@@@@@@@@@@@@@@@@@@@..@@@@@@@++..   ........++",
"@@@@@@@@@  +@@@@@@@@@@@@@@@@@@@@@@@@@@@@@@@@@@@++...  .....@@@@@",
"@@@@@@@@@  +@@@@@@@@@@@@@@@@@@@@@@@@@@@@@@@@@@@@@+..  ...@@@@@@@",
"@@@@@@@@@   @@@@@@@@@@@@@@@@@@@@@@@@@@@@@@@@@@@@@+++  +@@@@@@@@@",
"@@@@@@@@@@  @@@@@@@@@@@@@@@@@@@@@@@@@@@@@@@@@@@@@@++  +@@@@@@@@@",
"@@@@@@@@@@  +@@@@@@@@@@@@@@@@@@@@@@@@@@@@@@@@@@@@@++  @@@@@@@@@@",
"@@@@@@@@@.   .@@@@@@@@@@@@@@@@@@@@@@@@@@@@@@@@@@@@++  @@@@@@@@@@",
"@@@@@@@@@.+     @@@@@@@@@@@@@@@@@@@@@@@@@@@@@@@@@@@   @@@@@@@@@@",
"@@@@@@@@@@++        @@@@@@@@@@@@@@@@@@@@@@@@@@@@@@@   @@@@@@@@@@",
"@@@@@@@@@@@@@@.               .....@@@@@@@@@@@@@@@  ++@@@@@@@@@@",
"@@@@@@@@@@@@@@@..+             .....@@@@@@@@@@@@@@  ++@@@@@@@@@@",
"@@@@@@@@@@@@@@@@......++    ++  ++  +@@@@@@@@@@@@+  ..@@@@@@@@@@",
"@@@@@@@@@@@@@@@@......++++ +++  ++   +@@@@@@@@@+++  ..@@@@@@@@@@",
"@@@@@@@@@@@@@@@.......   ++++@@@@++ + ...@@@@@@++.  ..@@@@@@@@@@",
"@@@@@@@@@@@@@@.......   +++@@@@@@@@+   ...@@@@++..   .@@@@@@@@@@",
"@@@@@@@@@++++++        +++@@@@@@@@@@@           ...    @@@.@@@@@",
"@@@@@@@++++++ ++     +++++@@@@@@@@@@@@@        .....     @..@@@@",
"++++++++++   + +++++++..+++@@@@@@@@@@@@@...............   +++   ",
"+++++++++     ++++++++..+++++@@@@@@@@@@.................   +    ",
"         +  @@@@@@@@@@@@@++++++++@@@@@@.++.....++++++++..       ",
"           @@@@@@@@@@@@@@@@++++++++@@..++++..++++++++++....     ",
"       +@@@@@@@@@@@@@@@@@@@@@@@@.+++..++...++++++.@@@@@@@....   ",
"      +@@@@@@@@@@@@@@@@@@@@@@@@@@.++..++..++++++.@@@@@@@@@@..   ",
"     ++@@@@@@@@@@@@@@@@@@@@@@@@@@@+++.+..@@@@@@@@@@@@@@@@@@@++  ",
"     ++@@@@@@@@@@@@@@@@@@@@@@@@@@@@+++.@@@@@@@@@@@@@@@@@@@@@+++ ",
"    ++++@@@@@@@@@@@@@@@@@@@@@@@@@@@  +@@@@@@@@@@@@@@@@@@@@@@@+++",
"    ++++@@@@@@@@@@@@@@@@@@@@@@@@@@   @@@@@@@@@@@@@@@@@@@@@@@@@@+",
"++  +++++@@@@@@@@@@@@@@@@@@@@@@@@@  @@@@@@@@@@@@@@@@@@@@@@@@@@@@",
"++  +++++@@@@@@@@@@@@@@@@@@@@@@@@@  @@@@@@@@@@@@@@@@@@@@@@@@@@@@",
"++   .++++@@@+++@@@@@@@@@@@@@@@@+   ++@@@@@@@@@@@@@@@@@@@@@@@@@@",
"++    ++++@@++++@@@@@@@@@@@@@@@@   ++@@@@@@@@@@@@@@@@@@@@@@@@@@@",
"++                 + ++++ +       ++@@@@@@@@@@@@@@@@@@@@@@@@@@@@",
"++                ++  ++  ++     +++@@@@@@@@@@@@@@@@@@@@@@@@@@@@",
"++   +@@@@@@@@@@@@@ +    + +@@@@++++++@@@@++++@@@@@@@@@@@@@@@@++",
"+   +@@@@@@@@@@@@@@@      @@@@@@@@+++++++++++++@@@@@@@@@@@@@@+++",
"   ++@@@@@@@@@@@@@@@@@@@@@@@@@@@@.@++++++      @@@++  +@@@@@++  ",
"  ++@@@@@@@@@@@@@@@@@@@@@@@@@@@@..@@++                   @@@    ",
"......@@@@@          @@@@@@@@@@.     @                         .",
"......                                                          "};
